P3
128 128
255
115 115 115 
116 116 116 
115 115 115 
110 110 110 
100 100 100 
93 93 93 
90 90 90 
88 88 88 
89 89 89 
95 95 95 
103 103 103 
111 111 111 
114 114 114 
118 118 118 
121 121 121 
125 125 125 
130 130 130 
131 131 131 
131 131 131 
130 130 130 
124 124 124 
116 116 116 
105 105 105 
92 92 92 
74 74 74 
58 58 58 
45 45 45 
32 32 32 
28 28 28 
31 31 31 
36 36 36 
39 39 39 
39 39 39 
38 38 38 
30 30 30 
17 17 17 
15 15 15 
20 20 20 
26 26 26 
38 38 38 
51 51 51 
65 65 65 
76 76 76 
76 76 76 
78 78 78 
82 82 82 
87 87 87 
92 92 92 
92 92 92 
93 93 93 
93 93 93 
94 94 94 
95 95 95 
97 97 97 
100 100 100 
101 101 101 
101 101 101 
102 102 102 
101 101 101 
97 97 97 
88 88 88 
75 75 75 
63 63 63 
55 55 55 
52 52 52 
48 48 48 
41 41 41 
37 37 37 
35 35 35 
31 31 31 
23 23 23 
29 29 29 
37 37 37 
44 44 44 
49 49 49 
56 56 56 
63 63 63 
69 69 69 
77 77 77 
85 85 85 
91 91 91 
98 98 98 
104 104 104 
109 109 109 
112 112 112 
114 114 114 
117 117 117 
118 118 118 
117 117 117 
116 116 116 
114 114 114 
112 112 112 
110 110 110 
106 106 106 
100 100 100 
92 92 92 
82 82 82 
72 72 72 
60 60 60 
49 49 49 
44 44 44 
39 39 39 
41 41 41 
51 51 51 
70 70 70 
89 89 89 
102 102 102 
111 111 111 
115 115 115 
119 119 119 
126 126 126 
132 132 132 
132 132 132 
132 132 132 
126 126 126 
120 120 120 
115 115 115 
108 108 108 
103 103 103 
99 99 99 
97 97 97 
95 95 95 
95 95 95 
96 96 96 
95 95 95 
97 97 97 
101 101 101 
103 103 103 
126 126 126 
127 127 127 
125 125 125 
118 118 118 
112 112 112 
108 108 108 
104 104 104 
101 101 101 
101 101 101 
105 105 105 
111 111 111 
119 119 119 
124 124 124 
128 128 128 
132 132 132 
136 136 136 
140 140 140 
140 140 140 
138 138 138 
134 134 134 
129 129 129 
120 120 120 
112 112 112 
101 101 101 
86 86 86 
72 72 72 
58 58 58 
45 45 45 
36 36 36 
35 35 35 
40 40 40 
40 40 40 
37 37 37 
30 30 30 
20 20 20 
11 11 11 
11 11 11 
15 15 15 
23 23 23 
35 35 35 
46 46 46 
58 58 58 
65 65 65 
66 66 66 
70 70 70 
75 75 75 
81 81 81 
86 86 86 
90 90 90 
97 97 97 
103 103 103 
106 106 106 
106 106 106 
107 107 107 
109 109 109 
109 109 109 
110 110 110 
111 111 111 
107 107 107 
99 99 99 
87 87 87 
71 71 71 
55 55 55 
45 45 45 
38 38 38 
31 31 31 
26 26 26 
25 25 25 
26 26 26 
24 24 24 
17 17 17 
20 20 20 
30 30 30 
40 40 40 
48 48 48 
55 55 55 
60 60 60 
67 67 67 
76 76 76 
87 87 87 
95 95 95 
100 100 100 
105 105 105 
108 108 108 
110 110 110 
112 112 112 
114 114 114 
116 116 116 
118 118 118 
120 120 120 
120 120 120 
118 118 118 
114 114 114 
110 110 110 
104 104 104 
97 97 97 
89 89 89 
80 80 80 
69 69 69 
55 55 55 
44 44 44 
40 40 40 
44 44 44 
60 60 60 
78 78 78 
96 96 96 
107 107 107 
114 114 114 
119 119 119 
123 123 123 
126 126 126 
128 128 128 
127 127 127 
124 124 124 
119 119 119 
112 112 112 
104 104 104 
97 97 97 
90 90 90 
88 88 88 
88 88 88 
92 92 92 
94 94 94 
96 96 96 
99 99 99 
102 102 102 
103 103 103 
106 106 106 
133 133 133 
133 133 133 
130 130 130 
125 125 125 
119 119 119 
114 114 114 
109 109 109 
107 107 107 
108 108 108 
112 112 112 
118 118 118 
126 126 126 
131 131 131 
135 135 135 
139 139 139 
143 143 143 
146 146 146 
147 147 147 
142 142 142 
136 136 136 
129 129 129 
122 122 122 
115 115 115 
107 107 107 
94 94 94 
82 82 82 
68 68 68 
54 54 54 
42 42 42 
37 37 37 
40 40 40 
39 39 39 
34 34 34 
28 28 28 
20 20 20 
14 14 14 
12 12 12 
16 16 16 
23 23 23 
31 31 31 
39 39 39 
46 46 46 
49 49 49 
52 52 52 
56 56 56 
64 64 64 
70 70 70 
77 77 77 
86 86 86 
96 96 96 
104 104 104 
111 111 111 
115 115 115 
115 115 115 
117 117 117 
116 116 116 
115 115 115 
112 112 112 
106 106 106 
95 95 95 
80 80 80 
62 62 62 
45 45 45 
33 33 33 
24 24 24 
19 19 19 
17 17 17 
19 19 19 
20 20 20 
20 20 20 
19 19 19 
21 21 21 
28 28 28 
38 38 38 
47 47 47 
55 55 55 
63 63 63 
74 74 74 
84 84 84 
93 93 93 
99 99 99 
102 102 102 
107 107 107 
109 109 109 
111 111 111 
111 111 111 
111 111 111 
115 115 115 
118 118 118 
123 123 123 
125 125 125 
121 121 121 
116 116 116 
113 113 113 
110 110 110 
106 106 106 
99 99 99 
94 94 94 
87 87 87 
72 72 72 
59 59 59 
54 54 54 
58 58 58 
70 70 70 
89 89 89 
101 101 101 
109 109 109 
115 115 115 
120 120 120 
123 123 123 
124 124 124 
122 122 122 
119 119 119 
115 115 115 
110 110 110 
103 103 103 
93 93 93 
84 84 84 
77 77 77 
75 75 75 
79 79 79 
87 87 87 
92 92 92 
97 97 97 
103 103 103 
102 102 102 
103 103 103 
105 105 105 
133 133 133 
129 129 129 
125 125 125 
122 122 122 
118 118 118 
112 112 112 
108 108 108 
109 109 109 
111 111 111 
116 116 116 
123 123 123 
130 130 130 
133 133 133 
138 138 138 
142 142 142 
146 146 146 
150 150 150 
150 150 150 
144 144 144 
137 137 137 
128 128 128 
119 119 119 
112 112 112 
108 108 108 
97 97 97 
86 86 86 
75 75 75 
61 61 61 
48 48 48 
41 41 41 
41 41 41 
40 40 40 
37 37 37 
33 33 33 
27 27 27 
22 22 22 
20 20 20 
21 21 21 
23 23 23 
26 26 26 
28 28 28 
32 32 32 
31 31 31 
35 35 35 
40 40 40 
47 47 47 
55 55 55 
65 65 65 
76 76 76 
88 88 88 
100 100 100 
110 110 110 
115 115 115 
120 120 120 
121 121 121 
119 119 119 
114 114 114 
107 107 107 
99 99 99 
85 85 85 
69 69 69 
51 51 51 
33 33 33 
22 22 22 
14 14 14 
11 11 11 
12 12 12 
14 14 14 
19 19 19 
20 20 20 
21 21 21 
25 25 25 
30 30 30 
38 38 38 
49 49 49 
63 63 63 
74 74 74 
84 84 84 
92 92 92 
100 100 100 
106 106 106 
109 109 109 
110 110 110 
110 110 110 
110 110 110 
111 111 111 
116 116 116 
119 119 119 
125 125 125 
128 128 128 
126 126 126 
123 123 123 
119 119 119 
119 119 119 
118 118 118 
115 115 115 
110 110 110 
109 109 109 
104 104 104 
94 94 94 
84 84 84 
77 77 77 
75 75 75 
80 80 80 
94 94 94 
104 104 104 
110 110 110 
115 115 115 
119 119 119 
121 121 121 
118 118 118 
114 114 114 
111 111 111 
105 105 105 
97 97 97 
89 89 89 
79 79 79 
71 71 71 
66 66 66 
66 66 66 
75 75 75 
84 84 84 
91 91 91 
97 97 97 
102 102 102 
102 102 102 
101 101 101 
103 103 103 
129 129 129 
121 121 121 
116 116 116 
113 113 113 
107 107 107 
103 103 103 
103 103 103 
105 105 105 
111 111 111 
119 119 119 
124 124 124 
130 130 130 
134 134 134 
138 138 138 
143 143 143 
147 147 147 
150 150 150 
149 149 149 
145 145 145 
137 137 137 
125 125 125 
116 116 116 
107 107 107 
100 100 100 
93 93 93 
84 84 84 
74 74 74 
64 64 64 
54 54 54 
45 45 45 
42 42 42 
42 42 42 
42 42 42 
39 39 39 
36 36 36 
32 32 32 
28 28 28 
27 27 27 
26 26 26 
23 23 23 
22 22 22 
22 22 22 
21 21 21 
20 20 20 
20 20 20 
25 25 25 
34 34 34 
46 46 46 
60 60 60 
77 77 77 
94 94 94 
106 106 106 
114 114 114 
118 118 118 
117 117 117 
113 113 113 
106 106 106 
98 98 98 
86 86 86 
71 71 71 
53 53 53 
38 38 38 
22 22 22 
11 11 11 
7 7 7 
9 9 9 
11 11 11 
14 14 14 
18 18 18 
19 19 19 
23 23 23 
28 28 28 
33 33 33 
43 43 43 
57 57 57 
73 73 73 
85 85 85 
94 94 94 
99 99 99 
105 105 105 
110 110 110 
113 113 113 
112 112 112 
109 109 109 
110 110 110 
114 114 114 
120 120 120 
123 123 123 
124 124 124 
123 123 123 
122 122 122 
121 121 121 
119 119 119 
120 120 120 
122 122 122 
122 122 122 
122 122 122 
122 122 122 
118 118 118 
112 112 112 
105 105 105 
97 97 97 
90 90 90 
86 86 86 
93 93 93 
104 104 104 
110 110 110 
114 114 114 
115 115 115 
115 115 115 
110 110 110 
106 106 106 
101 101 101 
92 92 92 
81 81 81 
70 70 70 
61 61 61 
55 55 55 
58 58 58 
66 66 66 
75 75 75 
82 82 82 
89 89 89 
95 95 95 
100 100 100 
100 100 100 
98 98 98 
97 97 97 
122 122 122 
114 114 114 
107 107 107 
100 100 100 
93 93 93 
91 91 91 
95 95 95 
103 103 103 
111 111 111 
117 117 117 
119 119 119 
124 124 124 
130 130 130 
135 135 135 
139 139 139 
145 145 145 
147 147 147 
147 147 147 
142 142 142 
134 134 134 
121 121 121 
110 110 110 
98 98 98 
87 87 87 
81 81 81 
77 77 77 
71 71 71 
63 63 63 
56 56 56 
49 49 49 
46 46 46 
47 47 47 
47 47 47 
46 46 46 
46 46 46 
42 42 42 
36 36 36 
33 33 33 
30 30 30 
26 26 26 
21 21 21 
20 20 20 
18 18 18 
15 15 15 
12 12 12 
10 10 10 
15 15 15 
29 29 29 
46 46 46 
64 64 64 
83 83 83 
98 98 98 
105 105 105 
107 107 107 
107 107 107 
102 102 102 
94 94 94 
83 83 83 
68 68 68 
54 54 54 
38 38 38 
21 21 21 
11 11 11 
6 6 6 
4 4 4 
8 8 8 
11 11 11 
15 15 15 
15 15 15 
17 17 17 
21 21 21 
27 27 27 
37 37 37 
48 48 48 
63 63 63 
80 80 80 
96 96 96 
104 104 104 
109 109 109 
112 112 112 
116 116 116 
117 117 117 
113 113 113 
110 110 110 
114 114 114 
118 118 118 
121 121 121 
120 120 120 
120 120 120 
120 120 120 
118 118 118 
116 116 116 
115 115 115 
117 117 117 
122 122 122 
126 126 126 
128 128 128 
130 130 130 
128 128 128 
121 121 121 
115 115 115 
109 109 109 
101 101 101 
91 91 91 
89 89 89 
98 98 98 
103 103 103 
104 104 104 
106 106 106 
103 103 103 
97 97 97 
91 91 91 
83 83 83 
73 73 73 
60 60 60 
51 51 51 
43 43 43 
43 43 43 
52 52 52 
61 61 61 
72 72 72 
78 78 78 
83 83 83 
89 89 89 
92 92 92 
92 92 92 
92 92 92 
90 90 90 
115 115 115 
106 106 106 
94 94 94 
83 83 83 
72 72 72 
72 72 72 
83 83 83 
96 96 96 
105 105 105 
107 107 107 
110 110 110 
116 116 116 
122 122 122 
127 127 127 
133 133 133 
138 138 138 
143 143 143 
144 144 144 
139 139 139 
130 130 130 
116 116 116 
103 103 103 
87 87 87 
74 74 74 
69 69 69 
67 67 67 
65 65 65 
60 60 60 
56 56 56 
52 52 52 
52 52 52 
52 52 52 
52 52 52 
54 54 54 
54 54 54 
50 50 50 
45 45 45 
40 40 40 
34 34 34 
27 27 27 
22 22 22 
19 19 19 
17 17 17 
14 14 14 
10 10 10 
7 7 7 
6 6 6 
15 15 15 
31 31 31 
50 50 50 
70 70 70 
82 82 82 
90 90 90 
91 91 91 
90 90 90 
86 86 86 
75 75 75 
63 63 63 
49 49 49 
36 36 36 
21 21 21 
11 11 11 
6 6 6 
4 4 4 
4 4 4 
6 6 6 
8 8 8 
12 12 12 
12 12 12 
12 12 12 
17 17 17 
23 23 23 
36 36 36 
51 51 51 
72 72 72 
91 91 91 
105 105 105 
114 114 114 
117 117 117 
121 121 121 
123 123 123 
124 124 124 
120 120 120 
118 118 118 
120 120 120 
119 119 119 
117 117 117 
116 116 116 
114 114 114 
114 114 114 
112 112 112 
108 108 108 
107 107 107 
110 110 110 
115 115 115 
121 121 121 
127 127 127 
131 131 131 
130 130 130 
123 123 123 
118 118 118 
113 113 113 
105 105 105 
94 94 94 
86 86 86 
87 87 87 
87 87 87 
88 88 88 
87 87 87 
82 82 82 
77 77 77 
72 72 72 
64 64 64 
55 55 55 
41 41 41 
32 32 32 
32 32 32 
39 39 39 
49 49 49 
56 56 56 
64 64 64 
69 69 69 
73 73 73 
78 78 78 
80 80 80 
79 79 79 
78 78 78 
78 78 78 
109 109 109 
97 97 97 
79 79 79 
64 64 64 
52 52 52 
52 52 52 
66 66 66 
81 81 81 
90 90 90 
95 95 95 
100 100 100 
105 105 105 
111 111 111 
116 116 116 
122 122 122 
129 129 129 
136 136 136 
139 139 139 
136 136 136 
125 125 125 
112 112 112 
96 96 96 
78 78 78 
64 64 64 
59 59 59 
59 59 59 
59 59 59 
57 57 57 
57 57 57 
55 55 55 
56 56 56 
57 57 57 
57 57 57 
59 59 59 
60 60 60 
58 58 58 
52 52 52 
46 46 46 
38 38 38 
30 30 30 
25 25 25 
20 20 20 
16 16 16 
14 14 14 
11 11 11 
10 10 10 
8 8 8 
10 10 10 
19 19 19 
35 35 35 
52 52 52 
65 65 65 
75 75 75 
81 81 81 
85 85 85 
83 83 83 
74 74 74 
57 57 57 
38 38 38 
19 19 19 
10 10 10 
7 7 7 
7 7 7 
5 5 5 
5 5 5 
5 5 5 
7 7 7 
8 8 8 
8 8 8 
9 9 9 
13 13 13 
18 18 18 
36 36 36 
57 57 57 
80 80 80 
101 101 101 
114 114 114 
124 124 124 
128 128 128 
130 130 130 
131 131 131 
131 131 131 
130 130 130 
129 129 129 
127 127 127 
122 122 122 
116 116 116 
113 113 113 
111 111 111 
110 110 110 
104 104 104 
97 97 97 
96 96 96 
99 99 99 
104 104 104 
114 114 114 
121 121 121 
126 126 126 
126 126 126 
120 120 120 
115 115 115 
109 109 109 
100 100 100 
91 91 91 
82 82 82 
73 73 73 
68 68 68 
68 68 68 
68 68 68 
67 67 67 
65 65 65 
60 60 60 
51 51 51 
43 43 43 
30 30 30 
27 27 27 
31 31 31 
38 38 38 
45 45 45 
51 51 51 
55 55 55 
57 57 57 
60 60 60 
63 63 63 
64 64 64 
62 62 62 
63 63 63 
64 64 64 
105 105 105 
89 89 89 
68 68 68 
49 49 49 
40 40 40 
37 37 37 
49 49 49 
63 63 63 
73 73 73 
79 79 79 
84 84 84 
91 91 91 
96 96 96 
101 101 101 
106 106 106 
115 115 115 
126 126 126 
132 132 132 
128 128 128 
118 118 118 
107 107 107 
91 91 91 
71 71 71 
55 55 55 
51 51 51 
54 54 54 
56 56 56 
56 56 56 
58 58 58 
59 59 59 
62 62 62 
62 62 62 
62 62 62 
63 63 63 
62 62 62 
61 61 61 
56 56 56 
48 48 48 
40 40 40 
33 33 33 
27 27 27 
20 20 20 
17 17 17 
16 16 16 
17 17 17 
15 15 15 
15 15 15 
15 15 15 
18 18 18 
27 27 27 
41 41 41 
57 57 57 
75 75 75 
89 89 89 
97 97 97 
97 97 97 
86 86 86 
70 70 70 
50 50 50 
29 29 29 
14 14 14 
8 8 8 
8 8 8 
7 7 7 
5 5 5 
5 5 5 
5 5 5 
6 6 6 
7 7 7 
7 7 7 
8 8 8 
14 14 14 
35 35 35 
63 63 63 
90 90 90 
108 108 108 
122 122 122 
133 133 133 
137 137 137 
137 137 137 
136 136 136 
135 135 135 
134 134 134 
132 132 132 
127 127 127 
121 121 121 
116 116 116 
110 110 110 
107 107 107 
100 100 100 
87 87 87 
80 80 80 
82 82 82 
86 86 86 
96 96 96 
105 105 105 
110 110 110 
114 114 114 
117 117 117 
113 113 113 
107 107 107 
99 99 99 
89 89 89 
78 78 78 
67 67 67 
58 58 58 
53 53 53 
51 51 51 
55 55 55 
57 57 57 
56 56 56 
54 54 54 
46 46 46 
39 39 39 
28 28 28 
28 28 28 
32 32 32 
36 36 36 
41 41 41 
43 43 43 
43 43 43 
44 44 44 
46 46 46 
50 50 50 
51 51 51 
50 50 50 
52 52 52 
54 54 54 
101 101 101 
85 85 85 
68 68 68 
52 52 52 
39 39 39 
35 35 35 
39 39 39 
49 49 49 
56 56 56 
60 60 60 
63 63 63 
68 68 68 
75 75 75 
79 79 79 
87 87 87 
101 101 101 
114 114 114 
122 122 122 
118 118 118 
110 110 110 
99 99 99 
83 83 83 
61 61 61 
45 45 45 
44 44 44 
50 50 50 
54 54 54 
57 57 57 
61 61 61 
64 64 64 
66 66 66 
68 68 68 
66 66 66 
64 64 64 
61 61 61 
60 60 60 
56 56 56 
48 48 48 
39 39 39 
30 30 30 
25 25 25 
22 22 22 
21 21 21 
22 22 22 
24 24 24 
22 22 22 
20 20 20 
20 20 20 
22 22 22 
30 30 30 
42 42 42 
62 62 62 
86 86 86 
102 102 102 
108 108 108 
110 110 110 
104 104 104 
93 93 93 
80 80 80 
62 62 62 
40 40 40 
20 20 20 
10 10 10 
8 8 8 
6 6 6 
4 4 4 
2 2 2 
3 3 3 
4 4 4 
5 5 5 
6 6 6 
9 9 9 
36 36 36 
70 70 70 
97 97 97 
115 115 115 
128 128 128 
138 138 138 
141 141 141 
139 139 139 
139 139 139 
137 137 137 
135 135 135 
130 130 130 
124 124 124 
118 118 118 
111 111 111 
104 104 104 
95 95 95 
78 78 78 
63 63 63 
60 60 60 
70 70 70 
81 81 81 
87 87 87 
92 92 92 
101 101 101 
101 101 101 
101 101 101 
100 100 100 
94 94 94 
84 84 84 
71 71 71 
57 57 57 
46 46 46 
41 41 41 
37 37 37 
37 37 37 
42 42 42 
46 46 46 
48 48 48 
47 47 47 
45 45 45 
39 39 39 
32 32 32 
29 29 29 
30 30 30 
33 33 33 
35 35 35 
36 36 36 
35 35 35 
34 34 34 
33 33 33 
35 35 35 
37 37 37 
39 39 39 
42 42 42 
48 48 48 
101 101 101 
88 88 88 
72 72 72 
55 55 55 
42 42 42 
34 34 34 
31 31 31 
35 35 35 
39 39 39 
40 40 40 
40 40 40 
42 42 42 
46 46 46 
51 51 51 
65 65 65 
85 85 85 
102 102 102 
110 110 110 
107 107 107 
98 98 98 
86 86 86 
71 71 71 
51 51 51 
36 36 36 
39 39 39 
47 47 47 
55 55 55 
60 60 60 
66 66 66 
69 69 69 
72 72 72 
73 73 73 
69 69 69 
63 63 63 
60 60 60 
55 55 55 
50 50 50 
43 43 43 
34 34 34 
26 26 26 
23 23 23 
23 23 23 
24 24 24 
26 26 26 
29 29 29 
29 29 29 
29 29 29 
28 28 28 
31 31 31 
35 35 35 
49 49 49 
73 73 73 
97 97 97 
113 113 113 
123 123 123 
126 126 126 
124 124 124 
117 117 117 
107 107 107 
93 93 93 
73 73 73 
47 47 47 
23 23 23 
14 14 14 
13 13 13 
12 12 12 
11 11 11 
8 8 8 
7 7 7 
8 8 8 
7 7 7 
12 12 12 
42 42 42 
79 79 79 
105 105 105 
121 121 121 
133 133 133 
141 141 141 
142 142 142 
139 139 139 
137 137 137 
134 134 134 
130 130 130 
125 125 125 
120 120 120 
114 114 114 
107 107 107 
98 98 98 
80 80 80 
62 62 62 
52 52 52 
56 56 56 
65 65 65 
74 74 74 
77 77 77 
82 82 82 
85 85 85 
83 83 83 
78 78 78 
76 76 76 
74 74 74 
65 65 65 
51 51 51 
38 38 38 
29 29 29 
25 25 25 
24 24 24 
27 27 27 
32 32 32 
39 39 39 
43 43 43 
44 44 44 
41 41 41 
37 37 37 
34 34 34 
32 32 32 
30 30 30 
30 30 30 
31 31 31 
32 32 32 
32 32 32 
29 29 29 
24 24 24 
23 23 23 
28 28 28 
30 30 30 
35 35 35 
44 44 44 
101 101 101 
90 90 90 
77 77 77 
58 58 58 
44 44 44 
30 30 30 
23 23 23 
23 23 23 
24 24 24 
24 24 24 
21 21 21 
19 19 19 
21 21 21 
35 35 35 
49 49 49 
67 67 67 
86 86 86 
94 94 94 
91 91 91 
83 83 83 
70 70 70 
57 57 57 
42 42 42 
33 33 33 
38 38 38 
48 48 48 
57 57 57 
65 65 65 
70 70 70 
73 73 73 
75 75 75 
74 74 74 
70 70 70 
64 64 64 
55 55 55 
48 48 48 
41 41 41 
34 34 34 
25 25 25 
21 21 21 
20 20 20 
23 23 23 
25 25 25 
31 31 31 
39 39 39 
49 49 49 
54 54 54 
55 55 55 
57 57 57 
60 60 60 
73 73 73 
94 94 94 
112 112 112 
126 126 126 
138 138 138 
144 144 144 
144 144 144 
138 138 138 
130 130 130 
116 116 116 
100 100 100 
75 75 75 
54 54 54 
40 40 40 
37 37 37 
39 39 39 
37 37 37 
32 32 32 
27 27 27 
22 22 22 
18 18 18 
25 25 25 
55 55 55 
87 87 87 
110 110 110 
123 123 123 
132 132 132 
138 138 138 
137 137 137 
135 135 135 
133 133 133 
129 129 129 
123 123 123 
118 118 118 
113 113 113 
108 108 108 
98 98 98 
85 85 85 
73 73 73 
65 65 65 
60 60 60 
64 64 64 
67 67 67 
71 71 71 
74 74 74 
75 75 75 
72 72 72 
64 64 64 
56 56 56 
50 50 50 
48 48 48 
45 45 45 
35 35 35 
26 26 26 
22 22 22 
20 20 20 
23 23 23 
31 31 31 
37 37 37 
42 42 42 
47 47 47 
47 47 47 
45 45 45 
41 41 41 
38 38 38 
35 35 35 
32 32 32 
31 31 31 
32 32 32 
32 32 32 
31 31 31 
27 27 27 
25 25 25 
24 24 24 
26 26 26 
30 30 30 
34 34 34 
45 45 45 
103 103 103 
93 93 93 
78 78 78 
60 60 60 
42 42 42 
23 23 23 
14 14 14 
13 13 13 
14 14 14 
12 12 12 
10 10 10 
11 11 11 
16 16 16 
25 25 25 
38 38 38 
51 51 51 
66 66 66 
74 74 74 
71 71 71 
64 64 64 
54 54 54 
43 43 43 
33 33 33 
32 32 32 
38 38 38 
48 48 48 
58 58 58 
69 69 69 
76 76 76 
79 79 79 
79 79 79 
75 75 75 
71 71 71 
62 62 62 
52 52 52 
41 41 41 
31 31 31 
25 25 25 
18 18 18 
15 15 15 
16 16 16 
23 23 23 
30 30 30 
43 43 43 
59 59 59 
75 75 75 
85 85 85 
88 88 88 
90 90 90 
93 93 93 
102 102 102 
116 116 116 
130 130 130 
141 141 141 
150 150 150 
159 159 159 
159 159 159 
154 154 154 
145 145 145 
131 131 131 
114 114 114 
98 98 98 
85 85 85 
73 73 73 
67 67 67 
70 70 70 
67 67 67 
62 62 62 
57 57 57 
50 50 50 
44 44 44 
55 55 55 
76 76 76 
97 97 97 
113 113 113 
125 125 125 
133 133 133 
136 136 136 
131 131 131 
128 128 128 
123 123 123 
118 118 118 
112 112 112 
108 108 108 
104 104 104 
97 97 97 
89 89 89 
79 79 79 
75 75 75 
71 71 71 
69 69 69 
70 70 70 
73 73 73 
77 77 77 
78 78 78 
76 76 76 
71 71 71 
60 60 60 
49 49 49 
39 39 39 
32 32 32 
29 29 29 
26 26 26 
25 25 25 
25 25 25 
27 27 27 
34 34 34 
42 42 42 
50 50 50 
55 55 55 
57 57 57 
56 56 56 
55 55 55 
51 51 51 
46 46 46 
41 41 41 
39 39 39 
37 37 37 
37 37 37 
37 37 37 
34 34 34 
32 32 32 
32 32 32 
32 32 32 
36 36 36 
35 35 35 
37 37 37 
43 43 43 
104 104 104 
94 94 94 
78 78 78 
59 59 59 
40 40 40 
20 20 20 
8 8 8 
6 6 6 
5 5 5 
5 5 5 
5 5 5 
8 8 8 
15 15 15 
25 25 25 
36 36 36 
46 46 46 
53 53 53 
55 55 55 
53 53 53 
46 46 46 
36 36 36 
27 27 27 
24 24 24 
27 27 27 
36 36 36 
45 45 45 
57 57 57 
69 69 69 
79 79 79 
84 84 84 
84 84 84 
79 79 79 
72 72 72 
61 61 61 
47 47 47 
33 33 33 
21 21 21 
15 15 15 
12 12 12 
9 9 9 
14 14 14 
23 23 23 
36 36 36 
54 54 54 
75 75 75 
92 92 92 
101 101 101 
106 106 106 
112 112 112 
115 115 115 
122 122 122 
132 132 132 
142 142 142 
152 152 152 
159 159 159 
165 165 165 
167 167 167 
163 163 163 
152 152 152 
138 138 138 
126 126 126 
115 115 115 
106 106 106 
98 98 98 
94 94 94 
97 97 97 
96 96 96 
93 93 93 
87 87 87 
80 80 80 
78 78 78 
83 83 83 
94 94 94 
108 108 108 
120 120 120 
131 131 131 
138 138 138 
137 137 137 
131 131 131 
125 125 125 
117 117 117 
109 109 109 
100 100 100 
95 95 95 
92 92 92 
87 87 87 
82 82 82 
81 81 81 
80 80 80 
75 75 75 
75 75 75 
78 78 78 
81 81 81 
86 86 86 
86 86 86 
82 82 82 
71 71 71 
60 60 60 
50 50 50 
41 41 41 
34 34 34 
31 31 31 
33 33 33 
36 36 36 
38 38 38 
42 42 42 
49 49 49 
55 55 55 
61 61 61 
68 68 68 
70 70 70 
70 70 70 
67 67 67 
62 62 62 
55 55 55 
50 50 50 
48 48 48 
45 45 45 
44 44 44 
43 43 43 
41 41 41 
41 41 41 
41 41 41 
42 42 42 
42 42 42 
39 39 39 
39 39 39 
41 41 41 
101 101 101 
91 91 91 
76 76 76 
57 57 57 
37 37 37 
16 16 16 
4 4 4 
1 1 1 
1 1 1 
2 2 2 
3 3 3 
9 9 9 
20 20 20 
30 30 30 
41 41 41 
48 48 48 
50 50 50 
48 48 48 
43 43 43 
36 36 36 
25 25 25 
17 17 17 
17 17 17 
22 22 22 
33 33 33 
45 45 45 
55 55 55 
66 66 66 
77 77 77 
85 85 85 
88 88 88 
82 82 82 
72 72 72 
59 59 59 
44 44 44 
27 27 27 
14 14 14 
8 8 8 
5 5 5 
5 5 5 
10 10 10 
23 23 23 
40 40 40 
62 62 62 
83 83 83 
98 98 98 
106 106 106 
112 112 112 
119 119 119 
126 126 126 
133 133 133 
142 142 142 
151 151 151 
158 158 158 
162 162 162 
165 165 165 
166 166 166 
162 162 162 
156 156 156 
147 147 147 
138 138 138 
128 128 128 
119 119 119 
114 114 114 
115 115 115 
117 117 117 
119 119 119 
116 116 116 
110 110 110 
104 104 104 
101 101 101 
104 104 104 
112 112 112 
122 122 122 
131 131 131 
139 139 139 
143 143 143 
141 141 141 
134 134 134 
126 126 126 
116 116 116 
105 105 105 
91 91 91 
84 84 84 
82 82 82 
81 81 81 
81 81 81 
82 82 82 
84 84 84 
82 82 82 
83 83 83 
85 85 85 
89 89 89 
93 93 93 
92 92 92 
85 85 85 
71 71 71 
59 59 59 
50 50 50 
42 42 42 
37 37 37 
42 42 42 
48 48 48 
52 52 52 
55 55 55 
58 58 58 
64 64 64 
69 69 69 
73 73 73 
77 77 77 
79 79 79 
80 80 80 
74 74 74 
69 69 69 
64 64 64 
60 60 60 
57 57 57 
54 54 54 
52 52 52 
50 50 50 
49 49 49 
48 48 48 
48 48 48 
47 47 47 
42 42 42 
40 40 40 
38 38 38 
37 37 37 
93 93 93 
83 83 83 
69 69 69 
52 52 52 
30 30 30 
10 10 10 
1 1 1 
0 0 0 
1 1 1 
1 1 1 
4 4 4 
15 15 15 
28 28 28 
40 40 40 
48 48 48 
51 51 51 
51 51 51 
47 47 47 
40 40 40 
31 31 31 
21 21 21 
13 13 13 
12 12 12 
18 18 18 
31 31 31 
42 42 42 
52 52 52 
62 62 62 
72 72 72 
80 80 80 
84 84 84 
78 78 78 
69 69 69 
56 56 56 
40 40 40 
23 23 23 
10 10 10 
5 5 5 
2 2 2 
3 3 3 
11 11 11 
24 24 24 
42 42 42 
63 63 63 
81 81 81 
96 96 96 
106 106 106 
113 113 113 
123 123 123 
131 131 131 
139 139 139 
147 147 147 
157 157 157 
161 161 161 
163 163 163 
164 164 164 
162 162 162 
160 160 160 
158 158 158 
154 154 154 
145 145 145 
139 139 139 
134 134 134 
132 132 132 
132 132 132 
135 135 135 
137 137 137 
133 133 133 
128 128 128 
122 122 122 
117 117 117 
119 119 119 
126 126 126 
134 134 134 
140 140 140 
146 146 146 
149 149 149 
145 145 145 
137 137 137 
128 128 128 
117 117 117 
104 104 104 
89 89 89 
78 78 78 
75 75 75 
75 75 75 
76 76 76 
80 80 80 
85 85 85 
89 89 89 
93 93 93 
94 94 94 
99 99 99 
100 100 100 
95 95 95 
85 85 85 
72 72 72 
60 60 60 
52 52 52 
48 48 48 
50 50 50 
55 55 55 
62 62 62 
67 67 67 
69 69 69 
74 74 74 
77 77 77 
81 81 81 
82 82 82 
82 82 82 
83 83 83 
82 82 82 
77 77 77 
73 73 73 
70 70 70 
69 69 69 
68 68 68 
65 65 65 
62 62 62 
59 59 59 
57 57 57 
54 54 54 
52 52 52 
48 48 48 
43 43 43 
39 39 39 
35 35 35 
33 33 33 
77 77 77 
68 68 68 
57 57 57 
43 43 43 
26 26 26 
8 8 8 
1 1 1 
0 0 0 
0 0 0 
2 2 2 
9 9 9 
24 24 24 
38 38 38 
49 49 49 
55 55 55 
58 58 58 
56 56 56 
51 51 51 
39 39 39 
28 28 28 
18 18 18 
11 11 11 
11 11 11 
15 15 15 
26 26 26 
39 39 39 
48 48 48 
55 55 55 
65 65 65 
73 73 73 
77 77 77 
73 73 73 
67 67 67 
55 55 55 
40 40 40 
25 25 25 
11 11 11 
5 5 5 
3 3 3 
5 5 5 
14 14 14 
25 25 25 
39 39 39 
55 55 55 
73 73 73 
89 89 89 
100 100 100 
113 113 113 
125 125 125 
136 136 136 
143 143 143 
149 149 149 
155 155 155 
158 158 158 
159 159 159 
159 159 159 
158 158 158 
156 156 156 
156 156 156 
153 153 153 
148 148 148 
146 146 146 
142 142 142 
142 142 142 
145 145 145 
147 147 147 
148 148 148 
146 146 146 
141 141 141 
135 135 135 
130 130 130 
133 133 133 
138 138 138 
143 143 143 
148 148 148 
152 152 152 
152 152 152 
148 148 148 
142 142 142 
132 132 132 
120 120 120 
107 107 107 
91 91 91 
76 76 76 
66 66 66 
67 67 67 
71 71 71 
77 77 77 
85 85 85 
92 92 92 
99 99 99 
104 104 104 
107 107 107 
103 103 103 
97 97 97 
89 89 89 
109 109 109 
64 64 64 
87 87 87 
56 56 56 
60 60 60 
68 68 68 
89 89 89 
79 79 79 
98 98 98 
86 86 86 
88 88 88 
87 87 87 
85 85 85 
82 82 82 
82 82 82 
82 82 82 
80 80 80 
77 77 77 
75 75 75 
76 76 76 
76 76 76 
73 73 73 
71 71 71 
68 68 68 
64 64 64 
60 60 60 
54 54 54 
49 49 49 
42 42 42 
37 37 37 
31 31 31 
30 30 30 
55 55 55 
51 51 51 
46 46 46 
35 35 35 
22 22 22 
9 9 9 
1 1 1 
0 0 0 
1 1 1 
5 5 5 
16 16 16 
30 30 30 
44 44 44 
56 56 56 
65 65 65 
67 67 67 
62 62 62 
53 53 53 
42 42 42 
29 29 29 
19 19 19 
14 14 14 
14 14 14 
16 16 16 
23 23 23 
35 35 35 
43 43 43 
49 49 49 
56 56 56 
65 65 65 
69 69 69 
68 68 68 
64 64 64 
56 56 56 
43 43 43 
28 28 28 
15 15 15 
8 8 8 
7 7 7 
11 11 11 
19 19 19 
25 25 25 
34 34 34 
47 47 47 
62 62 62 
73 73 73 
87 87 87 
102 102 102 
114 114 114 
125 125 125 
137 137 137 
143 143 143 
147 147 147 
151 151 151 
152 152 152 
153 153 153 
153 153 153 
151 151 151 
150 150 150 
147 147 147 
144 144 144 
143 143 143 
143 143 143 
148 148 148 
151 151 151 
152 152 152 
154 154 154 
152 152 152 
148 148 148 
144 144 144 
142 142 142 
144 144 144 
147 147 147 
150 150 150 
154 154 154 
154 154 154 
154 154 154 
151 151 151 
143 143 143 
133 133 133 
122 122 122 
108 108 108 
89 89 89 
71 71 71 
61 61 61 
61 61 61 
64 64 64 
92 92 92 
116 116 116 
176 176 176 
189 189 189 
177 177 177 
157 157 157 
146 146 146 
179 179 179 
192 192 192 
206 206 206 
191 191 191 
188 188 188 
199 199 199 
199 199 199 
207 207 207 
226 226 226 
208 208 208 
191 191 191 
203 203 203 
197 197 197 
171 171 171 
133 133 133 
92 92 92 
97 97 97 
85 85 85 
82 82 82 
82 82 82 
80 80 80 
81 81 81 
82 82 82 
80 80 80 
77 77 77 
73 73 73 
67 67 67 
61 61 61 
54 54 54 
46 46 46 
38 38 38 
32 32 32 
27 27 27 
28 28 28 
38 38 38 
40 40 40 
37 37 37 
31 31 31 
22 22 22 
15 15 15 
7 7 7 
2 2 2 
2 2 2 
10 10 10 
22 22 22 
38 38 38 
52 52 52 
64 64 64 
74 74 74 
76 76 76 
72 72 72 
62 62 62 
50 50 50 
39 39 39 
31 31 31 
28 28 28 
27 27 27 
25 25 25 
26 26 26 
32 32 32 
38 38 38 
42 42 42 
49 49 49 
56 56 56 
60 60 60 
60 60 60 
60 60 60 
54 54 54 
45 45 45 
30 30 30 
20 20 20 
14 14 14 
13 13 13 
17 17 17 
21 21 21 
26 26 26 
36 36 36 
42 42 42 
49 49 49 
56 56 56 
65 65 65 
78 78 78 
93 93 93 
106 106 106 
119 119 119 
130 130 130 
137 137 137 
142 142 142 
144 144 144 
146 146 146 
146 146 146 
146 146 146 
145 145 145 
143 143 143 
141 141 141 
141 141 141 
145 145 145 
149 149 149 
149 149 149 
153 153 153 
156 156 156 
154 154 154 
150 150 150 
148 148 148 
147 147 147 
149 149 149 
152 152 152 
155 155 155 
157 157 157 
158 158 158 
156 156 156 
150 150 150 
142 142 142 
130 130 130 
116 116 116 
102 102 102 
87 87 87 
93 93 93 
138 138 138 
159 159 159 
146 146 146 
185 185 185 
200 200 200 
223 223 223 
215 215 215 
212 212 212 
214 214 214 
203 203 203 
219 219 219 
222 222 222 
210 210 210 
195 195 195 
227 227 227 
216 216 216 
234 234 234 
225 225 225 
230 230 230 
225 225 225 
202 202 202 
203 203 203 
220 220 220 
217 217 217 
221 221 221 
223 223 223 
184 184 184 
174 174 174 
111 111 111 
85 85 85 
84 84 84 
86 86 86 
87 87 87 
83 83 83 
77 77 77 
71 71 71 
63 63 63 
56 56 56 
49 49 49 
40 40 40 
33 33 33 
29 29 29 
25 25 25 
27 27 27 
31 31 31 
37 37 37 
38 38 38 
36 36 36 
31 31 31 
23 23 23 
17 17 17 
10 10 10 
10 10 10 
16 16 16 
32 32 32 
49 49 49 
63 63 63 
74 74 74 
80 80 80 
81 81 81 
76 76 76 
70 70 70 
62 62 62 
54 54 54 
48 48 48 
46 46 46 
43 43 43 
40 40 40 
39 39 39 
37 37 37 
38 38 38 
39 39 39 
43 43 43 
50 50 50 
53 53 53 
56 56 56 
56 56 56 
53 53 53 
46 46 46 
37 37 37 
31 31 31 
26 26 26 
21 21 21 
21 21 21 
25 25 25 
34 34 34 
41 41 41 
48 48 48 
52 52 52 
51 51 51 
53 53 53 
60 60 60 
72 72 72 
88 88 88 
103 103 103 
114 114 114 
126 126 126 
132 132 132 
136 136 136 
138 138 138 
141 141 141 
142 142 142 
142 142 142 
141 141 141 
139 139 139 
140 140 140 
142 142 142 
146 146 146 
148 148 148 
152 152 152 
153 153 153 
151 151 151 
147 147 147 
146 146 146 
148 148 148 
150 150 150 
154 154 154 
157 157 157 
159 159 159 
159 159 159 
152 152 152 
144 144 144 
162 162 162 
170 170 170 
177 177 177 
189 189 189 
186 186 186 
210 210 210 
197 197 197 
209 209 209 
206 206 206 
203 203 203 
223 223 223 
194 194 194 
208 208 208 
223 223 223 
203 203 203 
218 218 218 
222 222 222 
217 217 217 
211 211 211 
216 216 216 
200 200 200 
219 219 219 
215 215 215 
211 211 211 
203 203 203 
220 220 220 
211 211 211 
223 223 223 
216 216 216 
208 208 208 
212 212 212 
210 210 210 
210 210 210 
202 202 202 
198 198 198 
187 187 187 
116 116 116 
90 90 90 
89 89 89 
83 83 83 
76 76 76 
70 70 70 
60 60 60 
51 51 51 
40 40 40 
30 30 30 
26 26 26 
25 25 25 
25 25 25 
31 31 31 
33 33 33 
42 42 42 
47 47 47 
47 47 47 
43 43 43 
36 36 36 
29 29 29 
20 20 20 
17 17 17 
21 21 21 
35 35 35 
53 53 53 
66 66 66 
77 77 77 
83 83 83 
82 82 82 
80 80 80 
76 76 76 
72 72 72 
69 69 69 
64 64 64 
60 60 60 
56 56 56 
54 54 54 
52 52 52 
50 50 50 
46 46 46 
41 41 41 
41 41 41 
47 47 47 
50 50 50 
55 55 55 
56 56 56 
55 55 55 
52 52 52 
49 49 49 
45 45 45 
41 41 41 
36 36 36 
34 34 34 
38 38 38 
46 46 46 
52 52 52 
60 60 60 
63 63 63 
62 62 62 
64 64 64 
67 67 67 
73 73 73 
82 82 82 
94 94 94 
105 105 105 
114 114 114 
123 123 123 
127 127 127 
134 134 134 
138 138 138 
138 138 138 
137 137 137 
136 136 136 
135 135 135 
135 135 135 
136 136 136 
140 140 140 
144 144 144 
147 147 147 
147 147 147 
145 145 145 
143 143 143 
143 143 143 
146 146 146 
150 150 150 
155 155 155 
156 156 156 
170 170 170 
178 178 178 
162 162 162 
205 205 205 
217 217 217 
215 215 215 
218 218 218 
197 197 197 
214 214 214 
215 215 215 
202 202 202 
201 201 201 
177 177 177 
191 191 191 
202 202 202 
197 197 197 
216 216 216 
200 200 200 
204 204 204 
226 226 226 
207 207 207 
212 212 212 
219 219 219 
226 226 226 
219 219 219 
197 197 197 
202 202 202 
223 223 223 
223 223 223 
206 206 206 
208 208 208 
213 213 213 
200 200 200 
191 191 191 
218 218 218 
220 220 220 
220 220 220 
198 198 198 
211 211 211 
221 221 221 
210 210 210 
111 111 111 
90 90 90 
89 89 89 
87 87 87 
78 78 78 
70 70 70 
57 57 57 
41 41 41 
26 26 26 
22 22 22 
24 24 24 
27 27 27 
35 35 35 
43 43 43 
53 53 53 
61 61 61 
63 63 63 
57 57 57 
49 49 49 
41 41 41 
33 33 33 
28 28 28 
28 28 28 
41 41 41 
57 57 57 
71 71 71 
81 81 81 
86 86 86 
87 87 87 
87 87 87 
82 82 82 
80 80 80 
78 78 78 
76 76 76 
75 75 75 
73 73 73 
70 70 70 
67 67 67 
64 64 64 
58 58 58 
50 50 50 
43 43 43 
47 47 47 
51 51 51 
55 55 55 
58 58 58 
61 61 61 
62 62 62 
61 61 61 
58 58 58 
55 55 55 
53 53 53 
52 52 52 
55 55 55 
60 60 60 
67 67 67 
74 74 74 
76 76 76 
78 78 78 
100 100 100 
144 144 144 
162 162 162 
172 172 172 
185 185 185 
177 177 177 
175 175 175 
162 162 162 
160 160 160 
168 168 168 
174 174 174 
173 173 173 
160 160 160 
142 142 142 
126 126 126 
123 123 123 
125 125 125 
131 131 131 
136 136 136 
138 138 138 
137 137 137 
137 137 137 
138 138 138 
140 140 140 
142 142 142 
147 147 147 
152 152 152 
189 189 189 
221 221 221 
204 204 204 
196 196 196 
208 208 208 
230 230 230 
187 187 187 
213 213 213 
212 212 212 
187 187 187 
208 208 208 
163 163 163 
197 197 197 
198 198 198 
182 182 182 
211 211 211 
184 184 184 
210 210 210 
205 205 205 
181 181 181 
216 216 216 
210 210 210 
213 213 213 
207 207 207 
207 207 207 
220 220 220 
208 208 208 
214 214 214 
193 193 193 
226 226 226 
204 204 204 
195 195 195 
190 190 190 
204 204 204 
179 179 179 
194 194 194 
193 193 193 
208 208 208 
177 177 177 
216 216 216 
220 220 220 
210 210 210 
210 210 210 
159 159 159 
113 113 113 
98 98 98 
94 94 94 
85 85 85 
71 71 71 
55 55 55 
40 40 40 
33 33 33 
28 28 28 
31 31 31 
42 42 42 
57 57 57 
68 68 68 
76 76 76 
80 80 80 
73 73 73 
63 63 63 
54 54 54 
49 49 49 
45 45 45 
42 42 42 
47 47 47 
60 60 60 
72 72 72 
82 82 82 
89 89 89 
92 92 92 
91 91 91 
89 89 89 
87 87 87 
86 86 86 
89 89 89 
92 92 92 
90 90 90 
87 87 87 
81 81 81 
75 75 75 
68 68 68 
58 58 58 
50 50 50 
48 48 48 
51 51 51 
59 59 59 
67 67 67 
72 72 72 
75 75 75 
75 75 75 
74 74 74 
73 73 73 
73 73 73 
73 73 73 
72 72 72 
79 79 79 
91 91 91 
97 97 97 
178 178 178 
218 218 218 
231 231 231 
232 232 232 
229 229 229 
229 229 229 
237 237 237 
241 241 241 
240 240 240 
237 237 237 
234 234 234 
228 228 228 
238 238 238 
239 239 239 
237 237 237 
237 237 237 
228 228 228 
201 201 201 
179 179 179 
165 165 165 
138 138 138 
126 126 126 
127 127 127 
127 127 127 
128 128 128 
131 131 131 
134 134 134 
148 148 148 
172 172 172 
190 190 190 
233 233 233 
210 210 210 
184 184 184 
186 186 186 
204 204 204 
205 205 205 
188 188 188 
199 199 199 
206 206 206 
178 178 178 
188 188 188 
181 181 181 
200 200 200 
184 184 184 
189 189 189 
206 206 206 
207 207 207 
210 210 210 
212 212 212 
188 188 188 
202 202 202 
208 208 208 
223 223 223 
198 198 198 
205 205 205 
200 200 200 
188 188 188 
216 216 216 
209 209 209 
192 192 192 
172 172 172 
182 182 182 
190 190 190 
191 191 191 
171 171 171 
204 204 204 
174 174 174 
204 204 204 
198 198 198 
195 195 195 
197 197 197 
200 200 200 
209 209 209 
201 201 201 
129 129 129 
109 109 109 
103 103 103 
91 91 91 
76 76 76 
63 63 63 
52 52 52 
43 43 43 
39 39 39 
48 48 48 
75 75 75 
83 83 83 
91 91 91 
92 92 92 
88 88 88 
78 78 78 
71 71 71 
67 67 67 
62 62 62 
56 56 56 
56 56 56 
63 63 63 
72 72 72 
79 79 79 
87 87 87 
94 94 94 
94 94 94 
94 94 94 
95 95 95 
100 100 100 
106 106 106 
108 108 108 
106 106 106 
102 102 102 
95 95 95 
84 84 84 
76 76 76 
70 70 70 
64 64 64 
62 62 62 
62 62 62 
65 65 65 
72 72 72 
79 79 79 
83 83 83 
85 85 85 
87 87 87 
88 88 88 
91 91 91 
135 135 135 
158 158 158 
174 174 174 
186 186 186 
191 191 191 
199 199 199 
192 192 192 
219 219 219 
219 219 219 
225 225 225 
241 241 241 
232 232 232 
226 226 226 
225 225 225 
223 223 223 
222 222 222 
230 230 230 
224 224 224 
228 228 228 
231 231 231 
235 235 235 
233 233 233 
235 235 235 
232 232 232 
223 223 223 
230 230 230 
216 216 216 
179 179 179 
125 125 125 
116 116 116 
149 149 149 
191 191 191 
218 218 218 
221 221 221 
234 234 234 
207 207 207 
177 177 177 
169 169 169 
194 194 194 
190 190 190 
213 213 213 
159 159 159 
192 192 192 
175 175 175 
190 190 190 
179 179 179 
188 188 188 
147 147 147 
177 177 177 
171 171 171 
189 189 189 
181 181 181 
198 198 198 
202 202 202 
183 183 183 
174 174 174 
209 209 209 
197 197 197 
226 226 226 
186 186 186 
179 179 179 
193 193 193 
216 216 216 
181 181 181 
195 195 195 
189 189 189 
193 193 193 
195 195 195 
185 185 185 
179 179 179 
201 201 201 
185 185 185 
194 194 194 
198 198 198 
212 212 212 
195 195 195 
212 212 212 
201 201 201 
204 204 204 
201 201 201 
127 127 127 
116 116 116 
108 108 108 
97 97 97 
81 81 81 
70 70 70 
61 61 61 
54 54 54 
54 54 54 
93 93 93 
98 98 98 
102 102 102 
102 102 102 
98 98 98 
92 92 92 
85 85 85 
81 81 81 
75 75 75 
69 69 69 
66 66 66 
70 70 70 
74 74 74 
78 78 78 
82 82 82 
90 90 90 
97 97 97 
100 100 100 
107 107 107 
112 112 112 
117 117 117 
117 117 117 
116 116 116 
113 113 113 
105 105 105 
94 94 94 
87 87 87 
85 85 85 
84 84 84 
82 82 82 
80 80 80 
78 78 78 
77 77 77 
80 80 80 
85 85 85 
89 89 89 
97 97 97 
146 146 146 
207 207 207 
230 230 230 
229 229 229 
223 223 223 
216 216 216 
214 214 214 
213 213 213 
186 186 186 
133 133 133 
211 211 211 
236 236 236 
229 229 229 
222 222 222 
218 218 218 
210 210 210 
201 201 201 
233 233 233 
236 236 236 
243 243 243 
235 235 235 
225 225 225 
237 237 237 
234 234 234 
242 242 242 
234 234 234 
221 221 221 
240 240 240 
230 230 230 
238 238 238 
221 221 221 
209 209 209 
215 215 215 
230 230 230 
206 206 206 
205 205 205 
207 207 207 
197 197 197 
180 180 180 
203 203 203 
208 208 208 
149 149 149 
189 189 189 
172 172 172 
190 190 190 
161 161 161 
194 194 194 
144 144 144 
177 177 177 
157 157 157 
168 168 168 
165 165 165 
163 163 163 
195 195 195 
194 194 194 
164 164 164 
149 149 149 
187 187 187 
192 192 192 
166 166 166 
178 178 178 
195 195 195 
200 200 200 
195 195 195 
180 180 180 
187 187 187 
193 193 193 
182 182 182 
175 175 175 
182 182 182 
200 200 200 
172 172 172 
178 178 178 
179 179 179 
170 170 170 
196 196 196 
191 191 191 
203 203 203 
205 205 205 
197 197 197 
200 200 200 
211 211 211 
176 176 176 
125 125 125 
122 122 122 
113 113 113 
101 101 101 
90 90 90 
82 82 82 
75 75 75 
70 70 70 
104 104 104 
108 108 108 
107 107 107 
107 107 107 
104 104 104 
100 100 100 
95 95 95 
91 91 91 
84 84 84 
75 75 75 
72 72 72 
72 72 72 
73 73 73 
74 74 74 
76 76 76 
86 86 86 
99 99 99 
109 109 109 
116 116 116 
121 121 121 
125 125 125 
125 125 125 
123 123 123 
119 119 119 
113 113 113 
107 107 107 
102 102 102 
100 100 100 
102 102 102 
102 102 102 
99 99 99 
95 95 95 
87 87 87 
83 83 83 
83 83 83 
127 127 127 
185 185 185 
234 234 234 
228 228 228 
224 224 224 
218 218 218 
209 209 209 
209 209 209 
214 214 214 
218 218 218 
213 213 213 
206 206 206 
203 203 203 
192 192 192 
190 190 190 
195 195 195 
202 202 202 
208 208 208 
198 198 198 
198 198 198 
239 239 239 
218 218 218 
221 221 221 
229 229 229 
233 233 233 
229 229 229 
239 239 239 
209 209 209 
242 242 242 
225 225 225 
225 225 225 
225 225 225 
190 190 190 
222 222 222 
198 198 198 
222 222 222 
174 174 174 
202 202 202 
197 197 197 
200 200 200 
187 187 187 
221 221 221 
174 174 174 
203 203 203 
177 177 177 
192 192 192 
148 148 148 
169 169 169 
184 184 184 
156 156 156 
149 149 149 
176 176 176 
155 155 155 
165 165 165 
168 168 168 
186 186 186 
169 169 169 
162 162 162 
181 181 181 
164 164 164 
176 176 176 
168 168 168 
175 175 175 
154 154 154 
187 187 187 
187 187 187 
190 190 190 
205 205 205 
191 191 191 
183 183 183 
161 161 161 
147 147 147 
189 189 189 
165 165 165 
182 182 182 
183 183 183 
158 158 158 
186 186 186 
192 192 192 
198 198 198 
195 195 195 
204 204 204 
200 200 200 
189 189 189 
201 201 201 
145 145 145 
127 127 127 
120 120 120 
110 110 110 
103 103 103 
97 97 97 
91 91 91 
84 84 84 
109 109 109 
110 110 110 
110 110 110 
110 110 110 
106 106 106 
103 103 103 
100 100 100 
97 97 97 
90 90 90 
79 79 79 
74 74 74 
71 71 71 
71 71 71 
69 69 69 
76 76 76 
92 92 92 
105 105 105 
116 116 116 
124 124 124 
130 130 130 
133 133 133 
133 133 133 
130 130 130 
126 126 126 
121 121 121 
118 118 118 
116 116 116 
115 115 115 
117 117 117 
116 116 116 
114 114 114 
107 107 107 
99 99 99 
88 88 88 
128 128 128 
212 212 212 
231 231 231 
224 224 224 
223 223 223 
222 222 222 
212 212 212 
209 209 209 
210 210 210 
205 205 205 
203 203 203 
201 201 201 
196 196 196 
165 165 165 
116 116 116 
92 92 92 
130 130 130 
145 145 145 
169 169 169 
204 204 204 
223 223 223 
234 234 234 
206 206 206 
242 242 242 
228 228 228 
211 211 211 
232 232 232 
227 227 227 
220 220 220 
235 235 235 
225 225 225 
207 207 207 
219 219 219 
208 208 208 
194 194 194 
197 197 197 
217 217 217 
195 195 195 
176 176 176 
181 181 181 
214 214 214 
157 157 157 
208 208 208 
165 165 165 
210 210 210 
158 158 158 
186 186 186 
145 145 145 
170 170 170 
162 162 162 
167 167 167 
125 125 125 
158 158 158 
164 164 164 
120 120 120 
146 146 146 
164 164 164 
182 182 182 
137 137 137 
161 161 161 
127 127 127 
187 187 187 
170 170 170 
192 192 192 
180 180 180 
149 149 149 
138 138 138 
160 160 160 
160 160 160 
182 182 182 
179 179 179 
184 184 184 
164 164 164 
179 179 179 
170 170 170 
158 158 158 
190 190 190 
182 182 182 
173 173 173 
188 188 188 
185 185 185 
202 202 202 
190 190 190 
202 202 202 
200 200 200 
212 212 212 
184 184 184 
123 123 123 
121 121 121 
113 113 113 
106 106 106 
101 101 101 
94 94 94 
87 87 87 
113 113 113 
114 114 114 
112 112 112 
110 110 110 
104 104 104 
100 100 100 
97 97 97 
95 95 95 
89 89 89 
79 79 79 
71 71 71 
66 66 66 
61 61 61 
62 62 62 
76 76 76 
94 94 94 
108 108 108 
119 119 119 
131 131 131 
137 137 137 
141 141 141 
141 141 141 
138 138 138 
135 135 135 
131 131 131 
130 130 130 
129 129 129 
129 129 129 
130 130 130 
129 129 129 
126 126 126 
117 117 117 
107 107 107 
170 170 170 
228 228 228 
221 221 221 
213 213 213 
204 204 204 
204 204 204 
206 206 206 
208 208 208 
215 215 215 
222 222 222 
217 217 217 
214 214 214 
213 213 213 
221 221 221 
220 220 220 
212 212 212 
204 204 204 
197 197 197 
189 189 189 
235 235 235 
235 235 235 
222 222 222 
221 221 221 
203 203 203 
234 234 234 
227 227 227 
219 219 219 
208 208 208 
222 222 222 
208 208 208 
225 225 225 
211 211 211 
196 196 196 
228 228 228 
207 207 207 
216 216 216 
172 172 172 
206 206 206 
197 197 197 
168 168 168 
196 196 196 
195 195 195 
154 154 154 
185 185 185 
182 182 182 
210 210 210 
149 149 149 
181 181 181 
145 145 145 
178 178 178 
145 145 145 
176 176 176 
122 122 122 
155 155 155 
157 157 157 
170 170 170 
132 132 132 
159 159 159 
174 174 174 
162 162 162 
167 167 167 
149 149 149 
171 171 171 
137 137 137 
155 155 155 
174 174 174 
175 175 175 
167 167 167 
189 189 189 
184 184 184 
200 200 200 
217 217 217 
226 226 226 
226 226 226 
208 208 208 
193 193 193 
157 157 157 
181 181 181 
180 180 180 
175 175 175 
192 192 192 
196 196 196 
196 196 196 
201 201 201 
197 197 197 
201 201 201 
212 212 212 
214 214 214 
115 115 115 
115 115 115 
109 109 109 
104 104 104 
99 99 99 
90 90 90 
82 82 82 
116 116 116 
115 115 115 
110 110 110 
103 103 103 
96 96 96 
92 92 92 
89 89 89 
86 86 86 
81 81 81 
72 72 72 
61 61 61 
51 51 51 
46 46 46 
50 50 50 
69 69 69 
89 89 89 
107 107 107 
119 119 119 
130 130 130 
139 139 139 
146 146 146 
149 149 149 
145 145 145 
141 141 141 
138 138 138 
136 136 136 
138 138 138 
139 139 139 
142 142 142 
141 141 141 
135 135 135 
126 126 126 
172 172 172 
225 225 225 
221 221 221 
198 198 198 
167 167 167 
123 123 123 
78 78 78 
53 53 53 
57 57 57 
126 126 126 
170 170 170 
186 186 186 
213 213 213 
248 248 248 
239 239 239 
230 230 230 
225 225 225 
217 217 217 
206 206 206 
205 205 205 
237 237 237 
228 228 228 
219 219 219 
213 213 213 
198 198 198 
192 192 192 
229 229 229 
223 223 223 
205 205 205 
219 219 219 
219 219 219 
212 212 212 
211 211 211 
220 220 220 
235 235 235 
193 193 193 
230 230 230 
175 175 175 
174 174 174 
187 187 187 
182 182 182 
208 208 208 
180 180 180 
145 145 145 
195 195 195 
166 166 166 
202 202 202 
173 173 173 
158 158 158 
164 164 164 
175 175 175 
158 158 158 
165 165 165 
140 140 140 
157 157 157 
170 170 170 
143 143 143 
116 116 116 
178 178 178 
161 161 161 
160 160 160 
134 134 134 
134 134 134 
181 181 181 
172 172 172 
155 155 155 
176 176 176 
185 185 185 
178 178 178 
208 208 208 
224 224 224 
228 228 228 
234 234 234 
237 237 237 
237 237 237 
238 238 238 
234 234 234 
208 208 208 
186 186 186 
183 183 183 
186 186 186 
194 194 194 
195 195 195 
201 201 201 
193 193 193 
203 203 203 
202 202 202 
203 203 203 
226 226 226 
166 166 166 
104 104 104 
101 101 101 
98 98 98 
91 91 91 
83 83 83 
77 77 77 
113 113 113 
110 110 110 
103 103 103 
95 95 95 
86 86 86 
79 79 79 
75 75 75 
71 71 71 
66 66 66 
59 59 59 
51 51 51 
42 42 42 
34 34 34 
39 39 39 
59 59 59 
81 81 81 
99 99 99 
113 113 113 
127 127 127 
139 139 139 
146 146 146 
149 149 149 
149 149 149 
146 146 146 
142 142 142 
140 140 140 
140 140 140 
144 144 144 
145 145 145 
154 154 154 
152 152 152 
191 191 191 
230 230 230 
210 210 210 
191 191 191 
150 150 150 
138 138 138 
150 150 150 
160 160 160 
200 200 200 
232 232 232 
236 236 236 
234 234 234 
230 230 230 
202 202 202 
180 180 180 
191 191 191 
194 194 194 
191 191 191 
194 194 194 
191 191 191 
192 192 192 
208 208 208 
229 229 229 
221 221 221 
217 217 217 
212 212 212 
196 196 196 
234 234 234 
227 227 227 
208 208 208 
228 228 228 
225 225 225 
199 199 199 
221 221 221 
220 220 220 
227 227 227 
190 190 190 
222 222 222 
183 183 183 
202 202 202 
150 150 150 
193 193 193 
183 183 183 
171 171 171 
130 130 130 
180 180 180 
173 173 173 
172 172 172 
183 183 183 
153 153 153 
189 189 189 
151 151 151 
168 168 168 
135 135 135 
164 164 164 
153 153 153 
169 169 169 
146 146 146 
168 168 168 
173 173 173 
166 166 166 
162 162 162 
165 165 165 
144 144 144 
152 152 152 
183 183 183 
158 158 158 
168 168 168 
193 193 193 
216 216 216 
224 224 224 
227 227 227 
227 227 227 
231 231 231 
228 228 228 
229 229 229 
235 235 235 
239 239 239 
239 239 239 
224 224 224 
202 202 202 
202 202 202 
205 205 205 
206 206 206 
208 208 208 
210 210 210 
205 205 205 
202 202 202 
206 206 206 
231 231 231 
154 154 154 
98 98 98 
96 96 96 
92 92 92 
85 85 85 
75 75 75 
69 69 69 
105 105 105 
100 100 100 
90 90 90 
80 80 80 
70 70 70 
61 61 61 
55 55 55 
52 52 52 
49 49 49 
45 45 45 
40 40 40 
34 34 34 
26 26 26 
29 29 29 
47 47 47 
67 67 67 
86 86 86 
104 104 104 
120 120 120 
133 133 133 
140 140 140 
146 146 146 
150 150 150 
148 148 148 
144 144 144 
142 142 142 
172 172 172 
182 182 182 
167 167 167 
162 162 162 
149 149 149 
206 206 206 
198 198 198 
215 215 215 
228 228 228 
227 227 227 
218 218 218 
213 213 213 
209 209 209 
225 225 225 
233 233 233 
225 225 225 
221 221 221 
214 214 214 
207 207 207 
194 194 194 
183 183 183 
206 206 206 
227 227 227 
207 207 207 
193 193 193 
183 183 183 
174 174 174 
164 164 164 
186 186 186 
206 206 206 
220 220 220 
209 209 209 
233 233 233 
225 225 225 
211 211 211 
232 232 232 
226 226 226 
201 201 201 
226 226 226 
213 213 213 
225 225 225 
190 190 190 
200 200 200 
197 197 197 
199 199 199 
175 175 175 
198 198 198 
153 153 153 
174 174 174 
173 173 173 
182 182 182 
181 181 181 
113 113 113 
161 161 161 
145 145 145 
179 179 179 
151 151 151 
147 147 147 
159 159 159 
155 155 155 
144 144 144 
156 156 156 
154 154 154 
174 174 174 
137 137 137 
144 144 144 
176 176 176 
146 146 146 
164 164 164 
145 145 145 
156 156 156 
175 175 175 
195 195 195 
211 211 211 
225 225 225 
223 223 223 
222 222 222 
225 225 225 
216 216 216 
197 197 197 
207 207 207 
213 213 213 
225 225 225 
237 237 237 
237 237 237 
224 224 224 
213 213 213 
221 221 221 
221 221 221 
213 213 213 
216 216 216 
215 215 215 
202 202 202 
214 214 214 
236 236 236 
192 192 192 
105 105 105 
94 94 94 
85 85 85 
78 78 78 
70 70 70 
62 62 62 
92 92 92 
84 84 84 
71 71 71 
61 61 61 
50 50 50 
41 41 41 
35 35 35 
35 35 35 
36 36 36 
35 35 35 
32 32 32 
26 26 26 
23 23 23 
25 25 25 
36 36 36 
52 52 52 
70 70 70 
90 90 90 
110 110 110 
121 121 121 
132 132 132 
140 140 140 
146 146 146 
148 148 148 
142 142 142 
138 138 138 
180 180 180 
207 207 207 
203 203 203 
206 206 206 
224 224 224 
219 219 219 
198 198 198 
200 200 200 
176 176 176 
143 143 143 
131 131 131 
126 126 126 
127 127 127 
152 152 152 
220 220 220 
231 231 231 
227 227 227 
223 223 223 
219 219 219 
214 214 214 
204 204 204 
183 183 183 
156 156 156 
162 162 162 
172 172 172 
182 182 182 
204 204 204 
210 210 210 
202 202 202 
180 180 180 
151 151 151 
183 183 183 
212 212 212 
218 218 218 
218 218 218 
211 211 211 
225 225 225 
205 205 205 
228 228 228 
210 210 210 
214 214 214 
196 196 196 
180 180 180 
204 204 204 
186 186 186 
171 171 171 
205 205 205 
159 159 159 
172 172 172 
181 181 181 
183 183 183 
172 172 172 
139 139 139 
146 146 146 
144 144 144 
170 170 170 
150 150 150 
119 119 119 
171 171 171 
141 141 141 
148 148 148 
150 150 150 
153 153 153 
152 152 152 
140 140 140 
140 140 140 
150 150 150 
174 174 174 
164 164 164 
160 160 160 
190 190 190 
212 212 212 
220 220 220 
215 215 215 
223 223 223 
219 219 219 
218 218 218 
181 181 181 
200 200 200 
209 209 209 
195 195 195 
189 189 189 
207 207 207 
221 221 221 
232 232 232 
228 228 228 
218 218 218 
216 216 216 
222 222 222 
218 218 218 
210 210 210 
210 210 210 
223 223 223 
235 235 235 
244 244 244 
243 243 243 
148 148 148 
100 100 100 
92 92 92 
82 82 82 
74 74 74 
65 65 65 
72 72 72 
63 63 63 
52 52 52 
40 40 40 
30 30 30 
22 22 22 
21 21 21 
24 24 24 
27 27 27 
27 27 27 
25 25 25 
23 23 23 
21 21 21 
21 21 21 
26 26 26 
37 37 37 
49 49 49 
68 68 68 
91 91 91 
108 108 108 
121 121 121 
132 132 132 
140 140 140 
142 142 142 
140 140 140 
144 144 144 
173 173 173 
185 185 185 
207 207 207 
237 237 237 
230 230 230 
222 222 222 
214 214 214 
212 212 212 
193 193 193 
189 189 189 
195 195 195 
196 196 196 
175 175 175 
120 120 120 
129 129 129 
148 148 148 
157 157 157 
179 179 179 
168 168 168 
195 195 195 
193 193 193 
179 179 179 
150 150 150 
118 118 118 
95 95 95 
105 105 105 
98 98 98 
111 111 111 
166 166 166 
184 184 184 
195 195 195 
162 162 162 
159 159 159 
163 163 163 
215 215 215 
208 208 208 
206 206 206 
210 210 210 
225 225 225 
207 207 207 
199 199 199 
194 194 194 
186 186 186 
182 182 182 
204 204 204 
158 158 158 
192 192 192 
166 166 166 
178 178 178 
192 192 192 
145 145 145 
155 155 155 
185 185 185 
138 138 138 
146 146 146 
138 138 138 
170 170 170 
132 132 132 
168 168 168 
140 140 140 
151 151 151 
135 135 135 
145 145 145 
166 166 166 
170 170 170 
154 154 154 
152 152 152 
154 154 154 
154 154 154 
168 168 168 
193 193 193 
219 219 219 
227 227 227 
223 223 223 
223 223 223 
220 220 220 
204 204 204 
176 176 176 
202 202 202 
45 45 45 
188 188 188 
183 183 183 
198 198 198 
211 211 211 
224 224 224 
223 223 223 
218 218 218 
217 217 217 
220 220 220 
218 218 218 
210 210 210 
222 222 222 
234 234 234 
242 242 242 
246 246 246 
247 247 247 
203 203 203 
116 116 116 
108 108 108 
100 100 100 
89 89 89 
79 79 79 
52 52 52 
41 41 41 
30 30 30 
22 22 22 
18 18 18 
17 17 17 
20 20 20 
22 22 22 
24 24 24 
23 23 23 
23 23 23 
22 22 22 
18 18 18 
16 16 16 
17 17 17 
22 22 22 
26 26 26 
40 40 40 
68 68 68 
92 92 92 
109 109 109 
122 122 122 
132 132 132 
156 156 156 
181 181 181 
154 154 154 
131 131 131 
188 188 188 
236 236 236 
223 223 223 
212 212 212 
181 181 181 
143 143 143 
166 166 166 
216 216 216 
225 225 225 
222 222 222 
221 221 221 
212 212 212 
203 203 203 
189 189 189 
172 172 172 
184 184 184 
228 228 228 
225 225 225 
215 215 215 
223 223 223 
224 224 224 
230 230 230 
232 232 232 
219 219 219 
184 184 184 
160 160 160 
140 140 140 
195 195 195 
198 198 198 
197 197 197 
195 195 195 
201 201 201 
193 193 193 
174 174 174 
204 204 204 
197 197 197 
198 198 198 
205 205 205 
204 204 204 
190 190 190 
183 183 183 
185 185 185 
174 174 174 
195 195 195 
163 163 163 
170 170 170 
161 161 161 
187 187 187 
191 191 191 
152 152 152 
133 133 133 
183 183 183 
131 131 131 
177 177 177 
131 131 131 
164 164 164 
137 137 137 
152 152 152 
155 155 155 
146 146 146 
138 138 138 
140 140 140 
186 186 186 
166 166 166 
114 114 114 
143 143 143 
139 139 139 
157 157 157 
170 170 170 
189 189 189 
216 216 216 
230 230 230 
224 224 224 
226 226 226 
213 213 213 
200 200 200 
167 167 167 
216 216 216 
135 135 135 
205 205 205 
190 190 190 
188 188 188 
211 211 211 
221 221 221 
219 219 219 
215 215 215 
214 214 214 
215 215 215 
216 216 216 
218 218 218 
225 225 225 
229 229 229 
236 236 236 
238 238 238 
239 239 239 
222 222 222 
134 134 134 
121 121 121 
114 114 114 
106 106 106 
98 98 98 
31 31 31 
20 20 20 
15 15 15 
16 16 16 
16 16 16 
18 18 18 
20 20 20 
20 20 20 
21 21 21 
21 21 21 
20 20 20 
18 18 18 
16 16 16 
15 15 15 
14 14 14 
15 15 15 
16 16 16 
24 24 24 
48 48 48 
74 74 74 
97 97 97 
113 113 113 
146 146 146 
130 130 130 
65 65 65 
161 161 161 
219 219 219 
225 225 225 
189 189 189 
118 118 118 
100 100 100 
130 130 130 
182 182 182 
219 219 219 
216 216 216 
209 209 209 
201 201 201 
202 202 202 
218 218 218 
230 230 230 
227 227 227 
224 224 224 
211 211 211 
199 199 199 
212 212 212 
219 219 219 
209 209 209 
202 202 202 
204 204 204 
214 214 214 
215 215 215 
198 198 198 
196 196 196 
206 206 206 
205 205 205 
220 220 220 
209 209 209 
204 204 204 
202 202 202 
221 221 221 
194 194 194 
168 168 168 
190 190 190 
190 190 190 
181 181 181 
203 203 203 
190 190 190 
181 181 181 
169 169 169 
181 181 181 
177 177 177 
168 168 168 
173 173 173 
150 150 150 
194 194 194 
178 178 178 
147 147 147 
174 174 174 
160 160 160 
127 127 127 
173 173 173 
125 125 125 
168 168 168 
161 161 161 
132 132 132 
142 142 142 
140 140 140 
134 134 134 
116 116 116 
146 146 146 
147 147 147 
127 127 127 
107 107 107 
123 123 123 
133 133 133 
168 168 168 
173 173 173 
202 202 202 
226 226 226 
226 226 226 
226 226 226 
217 217 217 
204 204 204 
175 175 175 
169 169 169 
207 207 207 
200 200 200 
148 148 148 
193 193 193 
212 212 212 
217 217 217 
208 208 208 
209 209 209 
209 209 209 
210 210 210 
212 212 212 
217 217 217 
222 222 222 
223 223 223 
145 145 145 
174 174 174 
232 232 232 
215 215 215 
153 153 153 
132 132 132 
126 126 126 
119 119 119 
111 111 111 
16 16 16 
12 12 12 
15 15 15 
18 18 18 
19 19 19 
20 20 20 
19 19 19 
19 19 19 
19 19 19 
18 18 18 
16 16 16 
15 15 15 
14 14 14 
13 13 13 
12 12 12 
13 13 13 
13 13 13 
17 17 17 
33 33 33 
60 60 60 
96 96 96 
123 123 123 
100 100 100 
172 172 172 
218 218 218 
230 230 230 
200 200 200 
156 156 156 
182 182 182 
210 210 210 
224 224 224 
226 226 226 
209 209 209 
215 215 215 
207 207 207 
202 202 202 
209 209 209 
210 210 210 
223 223 223 
219 219 219 
221 221 221 
220 220 220 
218 218 218 
214 214 214 
213 213 213 
196 196 196 
200 200 200 
204 204 204 
199 199 199 
195 195 195 
193 193 193 
206 206 206 
202 202 202 
209 209 209 
200 200 200 
213 213 213 
216 216 216 
206 206 206 
197 197 197 
215 215 215 
197 197 197 
190 190 190 
162 162 162 
177 177 177 
183 183 183 
180 180 180 
193 193 193 
182 182 182 
179 179 179 
181 181 181 
162 162 162 
168 168 168 
190 190 190 
148 148 148 
189 189 189 
138 138 138 
160 160 160 
175 175 175 
161 161 161 
145 145 145 
173 173 173 
110 110 110 
176 176 176 
167 167 167 
130 130 130 
132 132 132 
155 155 155 
128 128 128 
135 135 135 
107 107 107 
123 123 123 
112 112 112 
115 115 115 
100 100 100 
143 143 143 
152 152 152 
163 163 163 
179 179 179 
211 211 211 
225 225 225 
228 228 228 
227 227 227 
210 210 210 
198 198 198 
179 179 179 
164 164 164 
168 168 168 
189 189 189 
198 198 198 
207 207 207 
213 213 213 
210 210 210 
208 208 208 
209 209 209 
210 210 210 
214 214 214 
218 218 218 
222 222 222 
213 213 213 
126 126 126 
141 141 141 
229 229 229 
185 185 185 
174 174 174 
141 141 141 
136 136 136 
129 129 129 
123 123 123 
15 15 15 
15 15 15 
16 16 16 
19 19 19 
20 20 20 
20 20 20 
20 20 20 
20 20 20 
18 18 18 
16 16 16 
16 16 16 
15 15 15 
14 14 14 
11 11 11 
10 10 10 
11 11 11 
13 13 13 
17 17 17 
29 29 29 
77 77 77 
135 135 135 
186 186 186 
227 227 227 
229 229 229 
183 183 183 
121 121 121 
182 182 182 
218 218 218 
207 207 207 
217 217 217 
216 216 216 
211 211 211 
212 212 212 
196 196 196 
204 204 204 
190 190 190 
175 175 175 
172 172 172 
181 181 181 
219 219 219 
217 217 217 
217 217 217 
189 189 189 
148 148 148 
90 90 90 
14 14 14 
13 13 13 
24 24 24 
10 10 10 
13 13 13 
4 4 4 
159 159 159 
199 199 199 
194 194 194 
204 204 204 
191 191 191 
197 197 197 
207 207 207 
202 202 202 
199 199 199 
199 199 199 
186 186 186 
177 177 177 
174 174 174 
184 184 184 
174 174 174 
163 163 163 
185 185 185 
182 182 182 
175 175 175 
163 163 163 
147 147 147 
189 189 189 
158 158 158 
173 173 173 
140 140 140 
121 121 121 
174 174 174 
160 160 160 
146 146 146 
172 172 172 
110 110 110 
166 166 166 
155 155 155 
142 142 142 
148 148 148 
147 147 147 
150 150 150 
107 107 107 
140 140 140 
141 141 141 
109 109 109 
152 152 152 
131 131 131 
103 103 103 
143 143 143 
154 154 154 
176 176 176 
201 201 201 
222 222 222 
229 229 229 
231 231 231 
226 226 226 
207 207 207 
201 201 201 
200 200 200 
198 198 198 
202 202 202 
209 209 209 
208 208 208 
215 215 215 
215 215 215 
214 214 214 
211 211 211 
218 218 218 
220 220 220 
222 222 222 
221 221 221 
210 210 210 
202 202 202 
207 207 207 
220 220 220 
169 169 169 
168 168 168 
164 164 164 
138 138 138 
136 136 136 
133 133 133 
18 18 18 
19 19 19 
22 22 22 
23 23 23 
26 26 26 
27 27 27 
26 26 26 
25 25 25 
23 23 23 
21 21 21 
19 19 19 
17 17 17 
17 17 17 
13 13 13 
11 11 11 
11 11 11 
12 12 12 
18 18 18 
84 84 84 
183 183 183 
227 227 227 
230 230 230 
185 185 185 
107 107 107 
122 122 122 
201 201 201 
204 204 204 
210 210 210 
216 216 216 
204 204 204 
204 204 204 
204 204 204 
204 204 204 
202 202 202 
189 189 189 
193 193 193 
201 201 201 
204 204 204 
203 203 203 
202 202 202 
195 195 195 
156 156 156 
106 106 106 
57 57 57 
40 40 40 
83 83 83 
114 114 114 
136 136 136 
138 138 138 
119 119 119 
85 85 85 
72 72 72 
126 126 126 
160 160 160 
178 178 178 
194 194 194 
190 190 190 
187 187 187 
184 184 184 
179 179 179 
183 183 183 
185 185 185 
177 177 177 
182 182 182 
191 191 191 
174 174 174 
166 166 166 
192 192 192 
175 175 175 
174 174 174 
152 152 152 
128 128 128 
186 186 186 
168 168 168 
139 139 139 
165 165 165 
144 144 144 
149 149 149 
166 166 166 
160 160 160 
160 160 160 
130 130 130 
173 173 173 
134 134 134 
157 157 157 
146 146 146 
152 152 152 
132 132 132 
118 118 118 
127 127 127 
143 143 143 
135 135 135 
144 144 144 
129 129 129 
141 141 141 
149 149 149 
147 147 147 
166 166 166 
187 187 187 
210 210 210 
223 223 223 
228 228 228 
229 229 229 
227 227 227 
220 220 220 
211 211 211 
207 207 207 
206 206 206 
216 216 216 
223 223 223 
221 221 221 
217 217 217 
213 213 213 
204 204 204 
211 211 211 
218 218 218 
217 217 217 
210 210 210 
218 218 218 
221 221 221 
218 218 218 
196 196 196 
155 155 155 
157 157 157 
165 165 165 
147 147 147 
139 139 139 
136 136 136 
21 21 21 
24 24 24 
28 28 28 
30 30 30 
33 33 33 
35 35 35 
33 33 33 
31 31 31 
29 29 29 
28 28 28 
26 26 26 
23 23 23 
21 21 21 
20 20 20 
15 15 15 
14 14 14 
21 21 21 
140 140 140 
223 223 223 
229 229 229 
200 200 200 
107 107 107 
104 104 104 
157 157 157 
205 205 205 
196 196 196 
197 197 197 
207 207 207 
195 195 195 
188 188 188 
198 198 198 
193 193 193 
201 201 201 
205 205 205 
206 206 206 
207 207 207 
201 201 201 
203 203 203 
209 209 209 
185 185 185 
133 133 133 
42 42 42 
18 18 18 
78 78 78 
143 143 143 
180 180 180 
188 188 188 
193 193 193 
195 195 195 
199 199 199 
210 210 210 
201 201 201 
170 170 170 
143 143 143 
119 119 119 
113 113 113 
141 141 141 
151 151 151 
159 159 159 
162 162 162 
162 162 162 
157 157 157 
174 174 174 
173 173 173 
185 185 185 
161 161 161 
155 155 155 
186 186 186 
173 173 173 
182 182 182 
138 138 138 
134 134 134 
174 174 174 
151 151 151 
156 156 156 
151 151 151 
161 161 161 
152 152 152 
122 122 122 
181 181 181 
125 125 125 
145 145 145 
171 171 171 
107 107 107 
155 155 155 
108 108 108 
164 164 164 
142 142 142 
121 121 121 
156 156 156 
156 156 156 
134 134 134 
136 136 136 
138 138 138 
117 117 117 
140 140 140 
155 155 155 
166 166 166 
175 175 175 
201 201 201 
215 215 215 
220 220 220 
227 227 227 
227 227 227 
223 223 223 
222 222 222 
220 220 220 
221 221 221 
225 225 225 
225 225 225 
224 224 224 
218 218 218 
208 208 208 
196 196 196 
209 209 209 
212 212 212 
175 175 175 
186 186 186 
204 204 204 
220 220 220 
216 216 216 
157 157 157 
140 140 140 
140 140 140 
139 139 139 
143 143 143 
136 136 136 
136 136 136 
26 26 26 
32 32 32 
36 36 36 
38 38 38 
39 39 39 
40 40 40 
39 39 39 
38 38 38 
39 39 39 
38 38 38 
36 36 36 
34 34 34 
31 31 31 
29 29 29 
26 26 26 
58 58 58 
188 188 188 
228 228 228 
217 217 217 
140 140 140 
77 77 77 
150 150 150 
184 184 184 
193 193 193 
205 205 205 
200 200 200 
193 193 193 
198 198 198 
188 188 188 
179 179 179 
188 188 188 
188 188 188 
192 192 192 
198 198 198 
189 189 189 
186 186 186 
202 202 202 
185 185 185 
119 119 119 
23 23 23 
71 71 71 
87 87 87 
140 140 140 
192 192 192 
204 204 204 
218 218 218 
227 227 227 
218 218 218 
221 221 221 
232 232 232 
235 235 235 
231 231 231 
232 232 232 
232 232 232 
232 232 232 
235 235 235 
237 237 237 
240 240 240 
241 241 241 
231 231 231 
232 232 232 
198 198 198 
163 163 163 
158 158 158 
175 175 175 
155 155 155 
150 150 150 
154 154 154 
172 172 172 
171 171 171 
149 149 149 
153 153 153 
156 156 156 
139 139 139 
171 171 171 
167 167 167 
159 159 159 
120 120 120 
136 136 136 
178 178 178 
121 121 121 
150 150 150 
161 161 161 
112 112 112 
161 161 161 
126 126 126 
96 96 96 
151 151 151 
141 141 141 
109 109 109 
150 150 150 
110 110 110 
138 138 138 
135 135 135 
137 137 137 
132 132 132 
138 138 138 
149 149 149 
176 176 176 
192 192 192 
201 201 201 
209 209 209 
217 217 217 
223 223 223 
223 223 223 
226 226 226 
226 226 226 
228 228 228 
229 229 229 
227 227 227 
223 223 223 
214 214 214 
195 195 195 
197 197 197 
188 188 188 
178 178 178 
139 139 139 
105 105 105 
119 119 119 
209 209 209 
213 213 213 
122 122 122 
142 142 142 
119 119 119 
120 120 120 
132 132 132 
134 134 134 
131 131 131 
31 31 31 
37 37 37 
41 41 41 
45 45 45 
47 47 47 
47 47 47 
47 47 47 
48 48 48 
50 50 50 
50 50 50 
49 49 49 
44 44 44 
42 42 42 
39 39 39 
91 91 91 
205 205 205 
228 228 228 
208 208 208 
126 126 126 
136 136 136 
180 180 180 
190 190 190 
194 194 194 
211 211 211 
198 198 198 
197 197 197 
189 189 189 
190 190 190 
191 191 191 
177 177 177 
169 169 169 
173 173 173 
184 184 184 
179 179 179 
173 173 173 
186 186 186 
131 131 131 
34 34 34 
51 51 51 
70 70 70 
139 139 139 
171 171 171 
192 192 192 
184 184 184 
167 167 167 
178 178 178 
186 186 186 
215 215 215 
232 232 232 
227 227 227 
209 209 209 
223 223 223 
228 228 228 
238 238 238 
238 238 238 
239 239 239 
235 235 235 
234 234 234 
237 237 237 
230 230 230 
232 232 232 
232 232 232 
230 230 230 
197 197 197 
158 158 158 
152 152 152 
140 140 140 
134 134 134 
159 159 159 
162 162 162 
161 161 161 
160 160 160 
155 155 155 
127 127 127 
141 141 141 
175 175 175 
137 137 137 
168 168 168 
107 107 107 
166 166 166 
133 133 133 
170 170 170 
124 124 124 
138 138 138 
170 170 170 
138 138 138 
119 119 119 
150 150 150 
138 138 138 
143 143 143 
121 121 121 
141 141 141 
122 122 122 
114 114 114 
117 117 117 
118 118 118 
120 120 120 
139 139 139 
155 155 155 
159 159 159 
190 190 190 
202 202 202 
203 203 203 
214 214 214 
221 221 221 
225 225 225 
225 225 225 
225 225 225 
224 224 224 
221 221 221 
215 215 215 
203 203 203 
195 195 195 
188 188 188 
196 196 196 
110 110 110 
87 87 87 
84 84 84 
81 81 81 
147 147 147 
196 196 196 
124 124 124 
106 106 106 
90 90 90 
96 96 96 
96 96 96 
143 143 143 
122 122 122 
35 35 35 
41 41 41 
45 45 45 
49 49 49 
53 53 53 
55 55 55 
56 56 56 
58 58 58 
60 60 60 
60 60 60 
59 59 59 
54 54 54 
48 48 48 
109 109 109 
209 209 209 
218 218 218 
173 173 173 
115 115 115 
171 171 171 
191 191 191 
185 185 185 
209 209 209 
220 220 220 
202 202 202 
206 206 206 
189 189 189 
178 178 178 
177 177 177 
183 183 183 
166 166 166 
159 159 159 
153 153 153 
182 182 182 
175 175 175 
159 159 159 
70 70 70 
55 55 55 
115 115 115 
151 151 151 
180 180 180 
201 201 201 
214 214 214 
211 211 211 
198 198 198 
207 207 207 
211 211 211 
188 188 188 
180 180 180 
179 179 179 
183 183 183 
226 226 226 
235 235 235 
221 221 221 
226 226 226 
233 233 233 
230 230 230 
230 230 230 
221 221 221 
223 223 223 
224 224 224 
221 221 221 
223 223 223 
223 223 223 
225 225 225 
207 207 207 
150 150 150 
135 135 135 
132 132 132 
132 132 132 
156 156 156 
175 175 175 
159 159 159 
170 170 170 
143 143 143 
114 114 114 
122 122 122 
142 142 142 
176 176 176 
112 112 112 
150 150 150 
114 114 114 
177 177 177 
122 122 122 
79 79 79 
165 165 165 
158 158 158 
136 136 136 
140 140 140 
157 157 157 
127 127 127 
146 146 146 
143 143 143 
127 127 127 
114 114 114 
136 136 136 
132 132 132 
143 143 143 
159 159 159 
175 175 175 
167 167 167 
175 175 175 
185 185 185 
205 205 205 
208 208 208 
214 214 214 
218 218 218 
219 219 219 
212 212 212 
208 208 208 
208 208 208 
195 195 195 
187 187 187 
201 201 201 
185 185 185 
105 105 105 
83 83 83 
67 67 67 
51 51 51 
88 88 88 
114 114 114 
169 169 169 
109 109 109 
73 73 73 
85 85 85 
84 84 84 
88 88 88 
119 119 119 
107 107 107 
36 36 36 
40 40 40 
45 45 45 
50 50 50 
54 54 54 
58 58 58 
62 62 62 
64 64 64 
66 66 66 
65 65 65 
62 62 62 
56 56 56 
119 119 119 
206 206 206 
200 200 200 
131 131 131 
124 124 124 
174 174 174 
191 191 191 
192 192 192 
218 218 218 
216 216 216 
204 204 204 
197 197 197 
199 199 199 
195 195 195 
174 174 174 
149 149 149 
130 130 130 
125 125 125 
110 110 110 
100 100 100 
101 101 101 
86 86 86 
84 84 84 
100 100 100 
120 120 120 
122 122 122 
147 147 147 
175 175 175 
174 174 174 
162 162 162 
171 171 171 
197 197 197 
208 208 208 
188 188 188 
203 203 203 
212 212 212 
200 200 200 
205 205 205 
198 198 198 
205 205 205 
223 223 223 
220 220 220 
216 216 216 
216 216 216 
207 207 207 
221 221 221 
216 216 216 
207 207 207 
206 206 206 
201 201 201 
204 204 204 
208 208 208 
213 213 213 
197 197 197 
137 137 137 
126 126 126 
133 133 133 
154 154 154 
160 160 160 
162 162 162 
178 178 178 
151 151 151 
145 145 145 
123 123 123 
115 115 115 
137 137 137 
146 146 146 
140 140 140 
121 121 121 
168 168 168 
129 129 129 
98 98 98 
160 160 160 
146 146 146 
118 118 118 
161 161 161 
154 154 154 
148 148 148 
143 143 143 
150 150 150 
118 118 118 
143 143 143 
114 114 114 
123 123 123 
138 138 138 
131 131 131 
150 150 150 
171 171 171 
172 172 172 
165 165 165 
164 164 164 
183 183 183 
198 198 198 
208 208 208 
208 208 208 
194 194 194 
195 195 195 
175 175 175 
173 173 173 
175 175 175 
188 188 188 
169 169 169 
118 118 118 
79 79 79 
35 35 35 
34 34 34 
48 48 48 
114 114 114 
129 129 129 
86 86 86 
59 59 59 
80 80 80 
68 68 68 
93 93 93 
116 116 116 
88 88 88 
32 32 32 
37 37 37 
41 41 41 
47 47 47 
51 51 51 
55 55 55 
59 59 59 
60 60 60 
62 62 62 
59 59 59 
56 56 56 
117 117 117 
205 205 205 
210 210 210 
168 168 168 
133 133 133 
178 178 178 
186 186 186 
210 210 210 
219 219 219 
208 208 208 
209 209 209 
204 204 204 
193 193 193 
193 193 193 
181 181 181 
180 180 180 
182 182 182 
173 173 173 
173 173 173 
173 173 173 
166 166 166 
137 137 137 
138 138 138 
175 175 175 
190 190 190 
197 197 197 
177 177 177 
187 187 187 
204 204 204 
219 219 219 
192 192 192 
221 221 221 
224 224 224 
209 209 209 
216 216 216 
224 224 224 
208 208 208 
209 209 209 
219 219 219 
216 216 216 
190 190 190 
200 200 200 
196 196 196 
183 183 183 
194 194 194 
210 210 210 
206 206 206 
205 205 205 
199 199 199 
190 190 190 
192 192 192 
195 195 195 
198 198 198 
190 190 190 
206 206 206 
180 180 180 
136 136 136 
140 140 140 
155 155 155 
150 150 150 
165 165 165 
173 173 173 
151 151 151 
158 158 158 
154 154 154 
122 122 122 
91 91 91 
132 132 132 
112 112 112 
149 149 149 
145 145 145 
161 161 161 
142 142 142 
128 128 128 
164 164 164 
103 103 103 
133 133 133 
157 157 157 
114 114 114 
162 162 162 
125 125 125 
130 130 130 
161 161 161 
121 121 121 
146 146 146 
121 121 121 
161 161 161 
157 157 157 
183 183 183 
166 166 166 
178 178 178 
197 197 197 
151 151 151 
188 188 188 
199 199 199 
173 173 173 
176 176 176 
159 159 159 
183 183 183 
153 153 153 
175 175 175 
180 180 180 
158 158 158 
56 56 56 
117 117 117 
60 60 60 
21 21 21 
44 44 44 
83 83 83 
66 66 66 
52 52 52 
52 52 52 
57 57 57 
69 69 69 
104 104 104 
94 94 94 
70 70 70 
25 25 25 
29 29 29 
33 33 33 
37 37 37 
42 42 42 
47 47 47 
51 51 51 
51 51 51 
52 52 52 
49 49 49 
106 106 106 
198 198 198 
205 205 205 
218 218 218 
193 193 193 
189 189 189 
183 183 183 
199 199 199 
214 214 214 
200 200 200 
203 203 203 
199 199 199 
192 192 192 
188 188 188 
191 191 191 
191 191 191 
188 188 188 
187 187 187 
181 181 181 
182 182 182 
173 173 173 
149 149 149 
173 173 173 
195 195 195 
195 195 195 
182 182 182 
186 186 186 
208 208 208 
207 207 207 
187 187 187 
183 183 183 
185 185 185 
192 192 192 
192 192 192 
198 198 198 
211 211 211 
208 208 208 
206 206 206 
210 210 210 
209 209 209 
200 200 200 
214 214 214 
217 217 217 
207 207 207 
208 208 208 
209 209 209 
198 198 198 
197 197 197 
204 204 204 
194 194 194 
192 192 192 
188 188 188 
187 187 187 
188 188 188 
182 182 182 
186 186 186 
205 205 205 
155 155 155 
163 163 163 
151 151 151 
152 152 152 
165 165 165 
137 137 137 
161 161 161 
143 143 143 
160 160 160 
147 147 147 
125 125 125 
139 139 139 
123 123 123 
114 114 114 
165 165 165 
109 109 109 
155 155 155 
126 126 126 
161 161 161 
123 123 123 
143 143 143 
152 152 152 
77 77 77 
169 169 169 
149 149 149 
121 121 121 
165 165 165 
125 125 125 
132 132 132 
121 121 121 
154 154 154 
162 162 162 
149 149 149 
171 171 171 
156 156 156 
169 169 169 
144 144 144 
190 190 190 
183 183 183 
165 165 165 
154 154 154 
173 173 173 
156 156 156 
187 187 187 
180 180 180 
168 168 168 
146 146 146 
65 65 65 
55 55 55 
101 101 101 
11 11 11 
40 40 40 
45 45 45 
54 54 54 
43 43 43 
55 55 55 
50 50 50 
66 66 66 
106 106 106 
103 103 103 
58 58 58 
17 17 17 
19 19 19 
22 22 22 
26 26 26 
31 31 31 
37 37 37 
40 40 40 
40 40 40 
40 40 40 
88 88 88 
191 191 191 
208 208 208 
222 222 222 
207 207 207 
195 195 195 
187 187 187 
199 199 199 
207 207 207 
192 192 192 
198 198 198 
197 197 197 
189 189 189 
182 182 182 
181 181 181 
187 187 187 
181 181 181 
178 178 178 
177 177 177 
175 175 175 
158 158 158 
153 153 153 
177 177 177 
191 191 191 
192 192 192 
206 206 206 
203 203 203 
213 213 213 
209 209 209 
173 173 173 
204 204 204 
194 194 194 
209 209 209 
210 210 210 
207 207 207 
206 206 206 
202 202 202 
201 201 201 
210 210 210 
196 196 196 
197 197 197 
202 202 202 
202 202 202 
201 201 201 
200 200 200 
196 196 196 
192 192 192 
199 199 199 
196 196 196 
182 182 182 
191 191 191 
186 186 186 
186 186 186 
181 181 181 
174 174 174 
179 179 179 
178 178 178 
190 190 190 
194 194 194 
160 160 160 
146 146 146 
154 154 154 
154 154 154 
127 127 127 
159 159 159 
125 125 125 
163 163 163 
149 149 149 
148 148 148 
102 102 102 
156 156 156 
124 124 124 
117 117 117 
142 142 142 
116 116 116 
177 177 177 
119 119 119 
103 103 103 
147 147 147 
156 156 156 
86 86 86 
138 138 138 
148 148 148 
129 129 129 
165 165 165 
146 146 146 
144 144 144 
88 88 88 
137 137 137 
138 138 138 
97 97 97 
193 193 193 
163 163 163 
163 163 163 
180 180 180 
144 144 144 
178 178 178 
189 189 189 
172 172 172 
163 163 163 
186 186 186 
147 147 147 
177 177 177 
69 69 69 
57 57 57 
55 55 55 
56 56 56 
81 81 81 
60 60 60 
31 31 31 
39 39 39 
43 43 43 
39 39 39 
47 47 47 
48 48 48 
52 52 52 
88 88 88 
74 74 74 
56 56 56 
9 9 9 
10 10 10 
11 11 11 
15 15 15 
18 18 18 
24 24 24 
28 28 28 
28 28 28 
66 66 66 
181 181 181 
207 207 207 
220 220 220 
209 209 209 
205 205 205 
194 194 194 
195 195 195 
195 195 195 
184 184 184 
191 191 191 
194 194 194 
194 194 194 
179 179 179 
167 167 167 
182 182 182 
174 174 174 
170 170 170 
171 171 171 
156 156 156 
141 141 141 
146 146 146 
199 199 199 
213 213 213 
226 226 226 
212 212 212 
172 172 172 
212 212 212 
220 220 220 
172 172 172 
184 184 184 
193 193 193 
193 193 193 
181 181 181 
162 162 162 
180 180 180 
194 194 194 
208 208 208 
210 210 210 
198 198 198 
198 198 198 
207 207 207 
206 206 206 
204 204 204 
200 200 200 
197 197 197 
192 192 192 
183 183 183 
180 180 180 
178 178 178 
182 182 182 
187 187 187 
183 183 183 
186 186 186 
176 176 176 
166 166 166 
175 175 175 
175 175 175 
177 177 177 
189 189 189 
161 161 161 
156 156 156 
142 142 142 
132 132 132 
141 141 141 
155 155 155 
123 123 123 
164 164 164 
136 136 136 
172 172 172 
116 116 116 
139 139 139 
156 156 156 
118 118 118 
150 150 150 
109 109 109 
165 165 165 
147 147 147 
81 81 81 
144 144 144 
133 133 133 
143 143 143 
77 77 77 
148 148 148 
85 85 85 
173 173 173 
170 170 170 
133 133 133 
107 107 107 
157 157 157 
147 147 147 
110 110 110 
177 177 177 
163 163 163 
158 158 158 
169 169 169 
141 141 141 
180 180 180 
156 156 156 
166 166 166 
177 177 177 
171 171 171 
192 192 192 
171 171 171 
64 64 64 
50 50 50 
65 65 65 
71 71 71 
103 103 103 
58 58 58 
6 6 6 
32 32 32 
47 47 47 
32 32 32 
46 46 46 
44 44 44 
43 43 43 
66 66 66 
77 77 77 
67 67 67 
2 2 2 
3 3 3 
4 4 4 
5 5 5 
7 7 7 
13 13 13 
18 18 18 
47 47 47 
174 174 174 
212 212 212 
223 223 223 
197 197 197 
190 190 190 
198 198 198 
200 200 200 
185 185 185 
173 173 173 
176 176 176 
188 188 188 
194 194 194 
177 177 177 
165 165 165 
165 165 165 
170 170 170 
164 164 164 
150 150 150 
135 135 135 
145 145 145 
151 151 151 
164 164 164 
152 152 152 
178 178 178 
170 170 170 
147 147 147 
139 139 139 
161 161 161 
146 146 146 
141 141 141 
172 172 172 
189 189 189 
193 193 193 
192 192 192 
159 159 159 
179 179 179 
183 183 183 
182 182 182 
187 187 187 
198 198 198 
195 195 195 
203 203 203 
194 194 194 
196 196 196 
200 200 200 
193 193 193 
181 181 181 
178 178 178 
171 171 171 
173 173 173 
174 174 174 
176 176 176 
174 174 174 
181 181 181 
178 178 178 
176 176 176 
172 172 172 
164 164 164 
167 167 167 
181 181 181 
173 173 173 
152 152 152 
136 136 136 
117 117 117 
141 141 141 
160 160 160 
132 132 132 
132 132 132 
146 146 146 
176 176 176 
126 126 126 
146 146 146 
107 107 107 
139 139 139 
159 159 159 
121 121 121 
89 89 89 
177 177 177 
109 109 109 
123 123 123 
144 144 144 
153 153 153 
109 109 109 
133 133 133 
116 116 116 
130 130 130 
137 137 137 
132 132 132 
142 142 142 
67 67 67 
128 128 128 
128 128 128 
174 174 174 
146 146 146 
152 152 152 
147 147 147 
141 141 141 
195 195 195 
128 128 128 
176 176 176 
171 171 171 
166 166 166 
157 157 157 
124 124 124 
58 58 58 
61 61 61 
79 79 79 
96 96 96 
67 67 67 
110 110 110 
81 81 81 
18 18 18 
45 45 45 
30 30 30 
40 40 40 
38 38 38 
43 43 43 
47 47 47 
82 82 82 
79 79 79 
1 1 1 
0 0 0 
1 1 1 
1 1 1 
2 2 2 
5 5 5 
20 20 20 
153 153 153 
212 212 212 
225 225 225 
199 199 199 
186 186 186 
187 187 187 
197 197 197 
188 188 188 
171 171 171 
169 169 169 
175 175 175 
179 179 179 
175 175 175 
162 162 162 
156 156 156 
163 163 163 
158 158 158 
137 137 137 
142 142 142 
146 146 146 
169 169 169 
183 183 183 
183 183 183 
189 189 189 
176 176 176 
189 189 189 
182 182 182 
171 171 171 
169 169 169 
160 160 160 
154 154 154 
187 187 187 
190 190 190 
192 192 192 
164 164 164 
174 174 174 
185 185 185 
199 199 199 
185 185 185 
171 171 171 
150 150 150 
167 167 167 
171 171 171 
179 179 179 
192 192 192 
184 184 184 
176 176 176 
173 173 173 
160 160 160 
171 171 171 
170 170 170 
170 170 170 
171 171 171 
173 173 173 
167 167 167 
170 170 170 
170 170 170 
171 171 171 
173 173 173 
161 161 161 
170 170 170 
178 178 178 
141 141 141 
136 136 136 
119 119 119 
141 141 141 
157 157 157 
142 142 142 
117 117 117 
134 134 134 
152 152 152 
140 140 140 
156 156 156 
126 126 126 
98 98 98 
166 166 166 
136 136 136 
99 99 99 
131 131 131 
160 160 160 
123 123 123 
146 146 146 
150 150 150 
157 157 157 
97 97 97 
136 136 136 
73 73 73 
125 125 125 
136 136 136 
155 155 155 
93 93 93 
125 125 125 
139 139 139 
140 140 140 
86 86 86 
176 176 176 
154 154 154 
118 118 118 
111 111 111 
164 164 164 
174 174 174 
147 147 147 
156 156 156 
106 106 106 
63 63 63 
50 50 50 
53 53 53 
66 66 66 
59 59 59 
28 28 28 
27 27 27 
101 101 101 
66 66 66 
65 65 65 
39 39 39 
40 40 40 
43 43 43 
44 44 44 
39 39 39 
93 93 93 
89 89 89 
0 0 0 
0 0 0 
0 0 0 
0 0 0 
2 2 2 
21 21 21 
147 147 147 
206 206 206 
224 224 224 
201 201 201 
187 187 187 
182 182 182 
188 188 188 
183 183 183 
172 172 172 
170 170 170 
160 160 160 
163 163 163 
173 173 173 
158 158 158 
151 151 151 
154 154 154 
146 146 146 
149 149 149 
159 159 159 
133 133 133 
138 138 138 
165 165 165 
184 184 184 
195 195 195 
186 186 186 
181 181 181 
172 172 172 
173 173 173 
176 176 176 
187 187 187 
165 165 165 
160 160 160 
171 171 171 
172 172 172 
149 149 149 
163 163 163 
181 181 181 
192 192 192 
186 186 186 
181 181 181 
174 174 174 
181 181 181 
187 187 187 
180 180 180 
187 187 187 
179 179 179 
178 178 178 
168 168 168 
157 157 157 
164 164 164 
159 159 159 
163 163 163 
170 170 170 
172 172 172 
169 169 169 
170 170 170 
164 164 164 
154 154 154 
165 165 165 
170 170 170 
162 162 162 
162 162 162 
180 180 180 
127 127 127 
138 138 138 
119 119 119 
142 142 142 
151 151 151 
151 151 151 
123 123 123 
109 109 109 
145 145 145 
156 156 156 
145 145 145 
131 131 131 
126 126 126 
121 121 121 
168 168 168 
103 103 103 
130 130 130 
83 83 83 
100 100 100 
134 134 134 
92 92 92 
169 169 169 
134 134 134 
127 127 127 
93 93 93 
111 111 111 
127 127 127 
168 168 168 
73 73 73 
145 145 145 
153 153 153 
141 141 141 
106 106 106 
158 158 158 
128 128 128 
170 170 170 
142 142 142 
132 132 132 
139 139 139 
159 159 159 
101 101 101 
85 85 85 
53 53 53 
53 53 53 
48 48 48 
33 33 33 
22 22 22 
21 21 21 
25 25 25 
33 33 33 
41 41 41 
34 34 34 
40 40 40 
46 46 46 
44 44 44 
46 46 46 
34 34 34 
114 114 114 
98 98 98 
1 1 1 
1 1 1 
1 1 1 
2 2 2 
24 24 24 
158 158 158 
203 203 203 
223 223 223 
194 194 194 
177 177 177 
184 184 184 
182 182 182 
181 181 181 
165 165 165 
171 171 171 
169 169 169 
165 165 165 
160 160 160 
161 161 161 
149 149 149 
154 154 154 
163 163 163 
166 166 166 
146 146 146 
91 91 91 
115 115 115 
177 177 177 
195 195 195 
194 194 194 
161 161 161 
184 184 184 
181 181 181 
176 176 176 
175 175 175 
185 185 185 
180 180 180 
172 172 172 
166 166 166 
154 154 154 
139 139 139 
154 154 154 
171 171 171 
183 183 183 
184 184 184 
179 179 179 
168 168 168 
172 172 172 
184 184 184 
189 189 189 
189 189 189 
184 184 184 
165 165 165 
172 172 172 
171 171 171 
168 168 168 
157 157 157 
158 158 158 
168 168 168 
172 172 172 
167 167 167 
163 163 163 
166 166 166 
158 158 158 
157 157 157 
158 158 158 
156 156 156 
157 157 157 
150 150 150 
162 162 162 
109 109 109 
131 131 131 
115 115 115 
153 153 153 
131 131 131 
151 151 151 
122 122 122 
112 112 112 
155 155 155 
132 132 132 
137 137 137 
138 138 138 
147 147 147 
96 96 96 
158 158 158 
124 124 124 
135 135 135 
112 112 112 
56 56 56 
147 147 147 
83 83 83 
92 92 92 
179 179 179 
134 134 134 
134 134 134 
130 130 130 
151 151 151 
108 108 108 
101 101 101 
62 62 62 
175 175 175 
155 155 155 
145 145 145 
137 137 137 
138 138 138 
139 139 139 
144 144 144 
162 162 162 
133 133 133 
100 100 100 
81 81 81 
89 89 89 
84 84 84 
82 82 82 
72 72 72 
45 45 45 
37 37 37 
35 35 35 
24 24 24 
23 23 23 
99 99 99 
57 57 57 
82 82 82 
53 53 53 
39 39 39 
36 36 36 
73 73 73 
118 118 118 
102 102 102 
3 3 3 
5 5 5 
7 7 7 
26 26 26 
160 160 160 
206 206 206 
219 219 219 
203 203 203 
177 177 177 
178 178 178 
182 182 182 
168 168 168 
174 174 174 
164 164 164 
174 174 174 
177 177 177 
168 168 168 
157 157 157 
158 158 158 
157 157 157 
166 166 166 
154 154 154 
108 108 108 
83 83 83 
117 117 117 
121 121 121 
146 146 146 
141 141 141 
151 151 151 
167 167 167 
171 171 171 
180 180 180 
165 165 165 
175 175 175 
178 178 178 
175 175 175 
168 168 168 
167 167 167 
177 177 177 
166 166 166 
169 169 169 
164 164 164 
179 179 179 
183 183 183 
172 172 172 
159 159 159 
166 166 166 
179 179 179 
188 188 188 
183 183 183 
170 170 170 
172 172 172 
176 176 176 
177 177 177 
182 182 182 
178 178 178 
161 161 161 
157 157 157 
157 157 157 
159 159 159 
168 168 168 
155 155 155 
155 155 155 
155 155 155 
149 149 149 
146 146 146 
149 149 149 
145 145 145 
167 167 167 
116 116 116 
87 87 87 
99 99 99 
156 156 156 
144 144 144 
131 131 131 
145 145 145 
126 126 126 
141 141 141 
127 127 127 
141 141 141 
128 128 128 
145 145 145 
130 130 130 
85 85 85 
150 150 150 
105 105 105 
142 142 142 
94 94 94 
88 88 88 
148 148 148 
68 68 68 
156 156 156 
142 142 142 
125 125 125 
148 148 148 
149 149 149 
158 158 158 
108 108 108 
41 41 41 
112 112 112 
143 143 143 
153 153 153 
143 143 143 
127 127 127 
149 149 149 
140 140 140 
146 146 146 
147 147 147 
58 58 58 
67 67 67 
73 73 73 
74 74 74 
70 70 70 
72 72 72 
66 66 66 
71 71 71 
67 67 67 
65 65 65 
62 62 62 
74 74 74 
89 89 89 
96 96 96 
119 119 119 
60 60 60 
46 46 46 
109 109 109 
114 114 114 
100 100 100 
11 11 11 
16 16 16 
30 30 30 
160 160 160 
199 199 199 
218 218 218 
203 203 203 
186 186 186 
171 171 171 
179 179 179 
171 171 171 
166 166 166 
160 160 160 
155 155 155 
177 177 177 
168 168 168 
155 155 155 
159 159 159 
158 158 158 
164 164 164 
123 123 123 
77 77 77 
121 121 121 
124 124 124 
138 138 138 
146 146 146 
152 152 152 
161 161 161 
168 168 168 
180 180 180 
173 173 173 
146 146 146 
160 160 160 
162 162 162 
170 170 170 
161 161 161 
170 170 170 
162 162 162 
164 164 164 
167 167 167 
163 163 163 
171 171 171 
183 183 183 
171 171 171 
138 138 138 
151 151 151 
170 170 170 
189 189 189 
176 176 176 
171 171 171 
168 168 168 
168 168 168 
164 164 164 
169 169 169 
174 174 174 
167 167 167 
173 173 173 
168 168 168 
149 149 149 
147 147 147 
142 142 142 
139 139 139 
140 140 140 
154 154 154 
148 148 148 
150 150 150 
138 138 138 
153 153 153 
159 159 159 
138 138 138 
142 142 142 
104 104 104 
147 147 147 
148 148 148 
114 114 114 
137 137 137 
125 125 125 
105 105 105 
138 138 138 
151 151 151 
106 106 106 
120 120 120 
146 146 146 
93 93 93 
100 100 100 
131 131 131 
106 106 106 
133 133 133 
79 79 79 
84 84 84 
120 120 120 
109 109 109 
177 177 177 
100 100 100 
150 150 150 
139 139 139 
164 164 164 
117 117 117 
78 78 78 
79 79 79 
148 148 148 
110 110 110 
140 140 140 
121 121 121 
132 132 132 
117 117 117 
135 135 135 
49 49 49 
36 36 36 
47 47 47 
53 53 53 
57 57 57 
58 58 58 
53 53 53 
42 42 42 
36 36 36 
40 40 40 
43 43 43 
49 49 49 
59 59 59 
71 71 71 
80 80 80 
74 74 74 
48 48 48 
91 91 91 
110 110 110 
102 102 102 
89 89 89 
23 23 23 
32 32 32 
155 155 155 
192 192 192 
206 206 206 
207 207 207 
196 196 196 
171 171 171 
174 174 174 
171 171 171 
163 163 163 
162 162 162 
138 138 138 
155 155 155 
163 163 163 
152 152 152 
150 150 150 
156 156 156 
140 140 140 
82 82 82 
61 61 61 
111 111 111 
133 133 133 
147 147 147 
160 160 160 
152 152 152 
159 159 159 
163 163 163 
163 163 163 
171 171 171 
146 146 146 
149 149 149 
164 164 164 
165 165 165 
167 167 167 
145 145 145 
156 156 156 
153 153 153 
162 162 162 
170 170 170 
163 163 163 
161 161 161 
173 173 173 
161 161 161 
157 157 157 
170 170 170 
175 175 175 
171 171 171 
172 172 172 
169 169 169 
168 168 168 
166 166 166 
168 168 168 
173 173 173 
161 161 161 
161 161 161 
173 173 173 
168 168 168 
169 169 169 
158 158 158 
138 138 138 
139 139 139 
149 149 149 
153 153 153 
150 150 150 
141 141 141 
142 142 142 
149 149 149 
164 164 164 
155 155 155 
129 129 129 
126 126 126 
133 133 133 
147 147 147 
115 115 115 
135 135 135 
117 117 117 
96 96 96 
123 123 123 
159 159 159 
118 118 118 
128 128 128 
123 123 123 
132 132 132 
124 124 124 
101 101 101 
143 143 143 
148 148 148 
113 113 113 
82 82 82 
80 80 80 
111 111 111 
122 122 122 
149 149 149 
151 151 151 
119 119 119 
104 104 104 
148 148 148 
131 131 131 
70 70 70 
130 130 130 
152 152 152 
158 158 158 
129 129 129 
127 127 127 
144 144 144 
89 89 89 
17 17 17 
20 20 20 
32 32 32 
38 38 38 
46 46 46 
52 52 52 
53 53 53 
49 49 49 
47 47 47 
47 47 47 
46 46 46 
42 42 42 
40 40 40 
48 48 48 
57 57 57 
45 45 45 
59 59 59 
95 95 95 
94 94 94 
86 86 86 
72 72 72 
34 34 34 
141 141 141 
191 191 191 
184 184 184 
208 208 208 
188 188 188 
168 168 168 
166 166 166 
167 167 167 
159 159 159 
160 160 160 
144 144 144 
105 105 105 
165 165 165 
149 149 149 
146 146 146 
143 143 143 
119 119 119 
102 102 102 
110 110 110 
117 117 117 
139 139 139 
150 150 150 
170 170 170 
164 164 164 
155 155 155 
163 163 163 
170 170 170 
171 171 171 
169 169 169 
151 151 151 
163 163 163 
164 164 164 
158 158 158 
158 158 158 
152 152 152 
153 153 153 
153 153 153 
148 148 148 
156 156 156 
156 156 156 
138 138 138 
159 159 159 
168 168 168 
164 164 164 
161 161 161 
173 173 173 
155 155 155 
166 166 166 
169 169 169 
171 171 171 
163 163 163 
163 163 163 
174 174 174 
163 163 163 
160 160 160 
161 161 161 
157 157 157 
152 152 152 
147 147 147 
143 143 143 
160 160 160 
159 159 159 
159 159 159 
149 149 149 
141 141 141 
144 144 144 
132 132 132 
163 163 163 
146 146 146 
114 114 114 
143 143 143 
121 121 121 
149 149 149 
120 120 120 
139 139 139 
116 116 116 
99 99 99 
82 82 82 
156 156 156 
122 122 122 
147 147 147 
103 103 103 
133 133 133 
128 128 128 
123 123 123 
105 105 105 
141 141 141 
139 139 139 
119 119 119 
67 67 67 
147 147 147 
124 124 124 
73 73 73 
73 73 73 
153 153 153 
94 94 94 
74 74 74 
123 123 123 
105 105 105 
114 114 114 
94 94 94 
143 143 143 
139 139 139 
35 35 35 
31 31 31 
21 21 21 
15 15 15 
15 15 15 
22 22 22 
32 32 32 
44 44 44 
53 53 53 
60 60 60 
60 60 60 
59 59 59 
56 56 56 
52 52 52 
46 46 46 
37 37 37 
34 34 34 
41 41 41 
46 46 46 
61 61 61 
75 75 75 
76 76 76 
69 69 69 
57 57 57 
113 113 113 
186 186 186 
178 178 178 
193 193 193 
192 192 192 
170 170 170 
157 157 157 
161 161 161 
158 158 158 
150 150 150 
138 138 138 
115 115 115 
183 183 183 
174 174 174 
153 153 153 
142 142 142 
136 136 136 
155 155 155 
153 153 153 
147 147 147 
149 149 149 
159 159 159 
156 156 156 
174 174 174 
169 169 169 
149 149 149 
149 149 149 
162 162 162 
171 171 171 
165 165 165 
151 151 151 
166 166 166 
162 162 162 
156 156 156 
159 159 159 
161 161 161 
144 144 144 
141 141 141 
147 147 147 
162 162 162 
165 165 165 
155 155 155 
163 163 163 
160 160 160 
147 147 147 
161 161 161 
154 154 154 
143 143 143 
164 164 164 
155 155 155 
160 160 160 
161 161 161 
157 157 157 
161 161 161 
145 145 145 
157 157 157 
155 155 155 
153 153 153 
150 150 150 
141 141 141 
146 146 146 
157 157 157 
161 161 161 
162 162 162 
150 150 150 
145 145 145 
138 138 138 
125 125 125 
153 153 153 
138 138 138 
116 116 116 
141 141 141 
109 109 109 
124 124 124 
135 135 135 
140 140 140 
125 125 125 
110 110 110 
103 103 103 
143 143 143 
127 127 127 
153 153 153 
117 117 117 
106 106 106 
105 105 105 
151 151 151 
80 80 80 
83 83 83 
113 113 113 
132 132 132 
110 110 110 
71 71 71 
143 143 143 
143 143 143 
113 113 113 
96 96 96 
127 127 127 
106 106 106 
72 72 72 
79 79 79 
110 110 110 
105 105 105 
92 92 92 
40 40 40 
24 24 24 
21 21 21 
20 20 20 
20 20 20 
20 20 20 
22 22 22 
33 33 33 
48 48 48 
60 60 60 
71 71 71 
74 74 74 
72 72 72 
67 67 67 
59 59 59 
50 50 50 
39 39 39 
31 31 31 
39 39 39 
26 26 26 
38 38 38 
54 54 54 
58 58 58 
54 54 54 
45 45 45 
174 174 174 
177 177 177 
181 181 181 
183 183 183 
178 178 178 
153 153 153 
148 148 148 
146 146 146 
136 136 136 
130 130 130 
81 81 81 
171 171 171 
178 178 178 
175 175 175 
167 167 167 
161 161 161 
164 164 164 
173 173 173 
154 154 154 
150 150 150 
159 159 159 
169 169 169 
158 158 158 
156 156 156 
152 152 152 
161 161 161 
154 154 154 
133 133 133 
151 151 151 
153 153 153 
161 161 161 
160 160 160 
154 154 154 
156 156 156 
161 161 161 
163 163 163 
157 157 157 
146 146 146 
139 139 139 
159 159 159 
155 155 155 
150 150 150 
141 141 141 
148 148 148 
144 144 144 
158 158 158 
146 146 146 
131 131 131 
151 151 151 
157 157 157 
151 151 151 
152 152 152 
153 153 153 
149 149 149 
139 139 139 
150 150 150 
151 151 151 
155 155 155 
144 144 144 
146 146 146 
147 147 147 
144 144 144 
159 159 159 
151 151 151 
143 143 143 
142 142 142 
127 127 127 
130 130 130 
148 148 148 
142 142 142 
120 120 120 
134 134 134 
118 118 118 
100 100 100 
120 120 120 
137 137 137 
139 139 139 
114 114 114 
119 119 119 
102 102 102 
134 134 134 
134 134 134 
116 116 116 
121 121 121 
83 83 83 
143 143 143 
99 99 99 
96 96 96 
92 92 92 
77 77 77 
130 130 130 
106 106 106 
57 57 57 
108 108 108 
123 123 123 
91 91 91 
89 89 89 
136 136 136 
125 125 125 
90 90 90 
79 79 79 
48 48 48 
36 36 36 
25 25 25 
23 23 23 
24 24 24 
25 25 25 
25 25 25 
25 25 25 
29 29 29 
39 39 39 
54 54 54 
69 69 69 
80 80 80 
85 85 85 
85 85 85 
78 78 78 
66 66 66 
53 53 53 
40 40 40 
30 30 30 
24 24 24 
21 21 21 
23 23 23 
36 36 36 
43 43 43 
42 42 42 
37 37 37 
155 155 155 
189 189 189 
163 163 163 
167 167 167 
156 156 156 
137 137 137 
132 132 132 
136 136 136 
173 173 173 
184 184 184 
193 193 193 
178 178 178 
171 171 171 
170 170 170 
153 153 153 
154 154 154 
171 171 171 
164 164 164 
150 150 150 
149 149 149 
167 167 167 
162 162 162 
157 157 157 
162 162 162 
164 164 164 
172 172 172 
171 171 171 
167 167 167 
150 150 150 
148 148 148 
147 147 147 
159 159 159 
148 148 148 
154 154 154 
157 157 157 
161 161 161 
156 156 156 
149 149 149 
133 133 133 
164 164 164 
161 161 161 
160 160 160 
152 152 152 
138 138 138 
141 141 141 
154 154 154 
145 145 145 
132 132 132 
114 114 114 
138 138 138 
147 147 147 
144 144 144 
151 151 151 
152 152 152 
138 138 138 
148 148 148 
148 148 148 
147 147 147 
142 142 142 
146 146 146 
139 139 139 
130 130 130 
132 132 132 
143 143 143 
143 143 143 
133 133 133 
132 132 132 
136 136 136 
147 147 147 
155 155 155 
116 116 116 
148 148 148 
127 127 127 
107 107 107 
121 121 121 
103 103 103 
146 146 146 
106 106 106 
131 131 131 
82 82 82 
143 143 143 
122 122 122 
127 127 127 
123 123 123 
110 110 110 
109 109 109 
130 130 130 
87 87 87 
119 119 119 
121 121 121 
75 75 75 
121 121 121 
112 112 112 
70 70 70 
96 96 96 
108 108 108 
92 92 92 
88 88 88 
56 56 56 
46 46 46 
41 41 41 
33 33 33 
30 30 30 
29 29 29 
29 29 29 
29 29 29 
31 31 31 
30 30 30 
30 30 30 
35 35 35 
46 46 46 
60 60 60 
76 76 76 
87 87 87 
93 93 93 
96 96 96 
90 90 90 
75 75 75 
58 58 58 
42 42 42 
30 30 30 
22 22 22 
20 20 20 
20 20 20 
27 27 27 
34 34 34 
35 35 35 
33 33 33 
184 184 184 
173 173 173 
153 153 153 
150 150 150 
128 128 128 
122 122 122 
131 131 131 
143 143 143 
183 183 183 
232 232 232 
197 197 197 
171 171 171 
163 163 163 
154 154 154 
145 145 145 
156 156 156 
163 163 163 
145 145 145 
147 147 147 
160 160 160 
170 170 170 
152 152 152 
153 153 153 
153 153 153 
167 167 167 
166 166 166 
176 176 176 
165 165 165 
149 149 149 
148 148 148 
150 150 150 
163 163 163 
157 157 157 
153 153 153 
148 148 148 
144 144 144 
140 140 140 
141 141 141 
134 134 134 
147 147 147 
151 151 151 
154 154 154 
149 149 149 
145 145 145 
150 150 150 
154 154 154 
149 149 149 
139 139 139 
129 129 129 
116 116 116 
127 127 127 
148 148 148 
154 154 154 
146 146 146 
130 130 130 
152 152 152 
149 149 149 
140 140 140 
139 139 139 
136 136 136 
139 139 139 
140 140 140 
139 139 139 
154 154 154 
149 149 149 
132 132 132 
135 135 135 
134 134 134 
131 131 131 
158 158 158 
118 118 118 
147 147 147 
135 135 135 
99 99 99 
143 143 143 
89 89 89 
128 128 128 
95 95 95 
145 145 145 
99 99 99 
123 123 123 
116 116 116 
141 141 141 
108 108 108 
135 135 135 
85 85 85 
74 74 74 
96 96 96 
116 116 116 
92 92 92 
106 106 106 
104 104 104 
112 112 112 
100 100 100 
92 92 92 
73 73 73 
68 68 68 
53 53 53 
50 50 50 
44 44 44 
41 41 41 
36 36 36 
34 34 34 
35 35 35 
37 37 37 
37 37 37 
37 37 37 
36 36 36 
37 37 37 
41 41 41 
52 52 52 
66 66 66 
80 80 80 
93 93 93 
100 100 100 
102 102 102 
99 99 99 
84 84 84 
64 64 64 
45 45 45 
31 31 31 
21 21 21 
17 17 17 
18 18 18 
22 22 22 
28 28 28 
30 30 30 
30 30 30 
165 165 165 
162 162 162 
151 151 151 
136 136 136 
102 102 102 
129 129 129 
163 163 163 
179 179 179 
214 214 214 
208 208 208 
174 174 174 
163 163 163 
165 165 165 
158 158 158 
156 156 156 
161 161 161 
148 148 148 
140 140 140 
145 145 145 
147 147 147 
165 165 165 
146 146 146 
150 150 150 
151 151 151 
165 165 165 
158 158 158 
169 169 169 
158 158 158 
149 149 149 
145 145 145 
158 158 158 
158 158 158 
163 163 163 
160 160 160 
150 150 150 
147 147 147 
151 151 151 
149 149 149 
139 139 139 
128 128 128 
148 148 148 
152 152 152 
147 147 147 
141 141 141 
126 126 126 
159 159 159 
144 144 144 
132 132 132 
131 131 131 
139 139 139 
135 135 135 
131 131 131 
131 131 131 
130 130 130 
143 143 143 
146 146 146 
144 144 144 
137 137 137 
132 132 132 
140 140 140 
142 142 142 
127 127 127 
128 128 128 
149 149 149 
148 148 148 
130 130 130 
132 132 132 
139 139 139 
102 102 102 
154 154 154 
134 134 134 
126 126 126 
134 134 134 
90 90 90 
138 138 138 
122 122 122 
85 85 85 
100 100 100 
136 136 136 
127 127 127 
107 107 107 
100 100 100 
110 110 110 
117 117 117 
129 129 129 
111 111 111 
62 62 62 
114 114 114 
85 85 85 
109 109 109 
87 87 87 
78 78 78 
86 86 86 
89 89 89 
67 67 67 
65 65 65 
64 64 64 
58 58 58 
52 52 52 
48 48 48 
44 44 44 
42 42 42 
40 40 40 
42 42 42 
44 44 44 
43 43 43 
43 43 43 
42 42 42 
42 42 42 
46 46 46 
53 53 53 
68 68 68 
84 84 84 
95 95 95 
101 101 101 
104 104 104 
102 102 102 
92 92 92 
71 71 71 
50 50 50 
32 32 32 
19 19 19 
14 14 14 
15 15 15 
19 19 19 
23 23 23 
25 25 25 
27 27 27 
160 160 160 
157 157 157 
160 160 160 
115 115 115 
133 133 133 
165 165 165 
189 189 189 
187 187 187 
187 187 187 
171 171 171 
170 170 170 
164 164 164 
174 174 174 
173 173 173 
172 172 172 
162 162 162 
129 129 129 
121 121 121 
129 129 129 
150 150 150 
156 156 156 
145 145 145 
143 143 143 
154 154 154 
159 159 159 
149 149 149 
165 165 165 
152 152 152 
149 149 149 
149 149 149 
163 163 163 
168 168 168 
155 155 155 
146 146 146 
144 144 144 
147 147 147 
152 152 152 
148 148 148 
135 135 135 
121 121 121 
137 137 137 
139 139 139 
125 125 125 
121 121 121 
102 102 102 
114 114 114 
147 147 147 
134 134 134 
131 131 131 
130 130 130 
129 129 129 
130 130 130 
123 123 123 
124 124 124 
138 138 138 
143 143 143 
146 146 146 
141 141 141 
144 144 144 
140 140 140 
134 134 134 
105 105 105 
114 114 114 
140 140 140 
141 141 141 
129 129 129 
127 127 127 
149 149 149 
128 128 128 
121 121 121 
152 152 152 
109 109 109 
150 150 150 
96 96 96 
112 112 112 
140 140 140 
94 94 94 
75 75 75 
106 106 106 
139 139 139 
123 123 123 
101 101 101 
72 72 72 
88 88 88 
90 90 90 
105 105 105 
82 82 82 
125 125 125 
104 104 104 
84 84 84 
69 69 69 
66 66 66 
64 64 64 
66 66 66 
69 69 69 
69 69 69 
68 68 68 
65 65 65 
60 60 60 
54 54 54 
50 50 50 
47 47 47 
47 47 47 
49 49 49 
49 49 49 
49 49 49 
50 50 50 
48 48 48 
48 48 48 
49 49 49 
54 54 54 
67 67 67 
82 82 82 
94 94 94 
100 100 100 
102 102 102 
100 100 100 
91 91 91 
75 75 75 
55 55 55 
34 34 34 
19 19 19 
10 10 10 
12 12 12 
15 15 15 
18 18 18 
20 20 20 
22 22 22 
153 153 153 
158 158 158 
128 128 128 
168 168 168 
181 181 181 
181 181 181 
181 181 181 
161 161 161 
167 167 167 
172 172 172 
168 168 168 
174 174 174 
178 178 178 
175 175 175 
148 148 148 
136 136 136 
116 116 116 
118 118 118 
123 123 123 
155 155 155 
150 150 150 
125 125 125 
126 126 126 
148 148 148 
149 149 149 
131 131 131 
146 146 146 
148 148 148 
146 146 146 
150 150 150 
155 155 155 
161 161 161 
157 157 157 
143 143 143 
133 133 133 
146 146 146 
149 149 149 
148 148 148 
138 138 138 
128 128 128 
141 141 141 
137 137 137 
138 138 138 
135 135 135 
119 119 119 
98 98 98 
112 112 112 
134 134 134 
127 127 127 
128 128 128 
124 124 124 
124 124 124 
122 122 122 
125 125 125 
129 129 129 
139 139 139 
146 146 146 
129 129 129 
127 127 127 
134 134 134 
122 122 122 
91 91 91 
97 97 97 
135 135 135 
129 129 129 
126 126 126 
116 116 116 
131 131 131 
154 154 154 
98 98 98 
152 152 152 
125 125 125 
137 137 137 
112 112 112 
109 109 109 
132 132 132 
104 104 104 
101 101 101 
91 91 91 
119 119 119 
134 134 134 
107 107 107 
83 83 83 
91 91 91 
119 119 119 
62 62 62 
65 65 65 
107 107 107 
110 110 110 
90 90 90 
83 83 83 
78 78 78 
75 75 75 
77 77 77 
78 78 78 
77 77 77 
76 76 76 
74 74 74 
70 70 70 
64 64 64 
56 56 56 
52 52 52 
52 52 52 
53 53 53 
53 53 53 
54 54 54 
54 54 54 
53 53 53 
51 51 51 
53 53 53 
55 55 55 
64 64 64 
78 78 78 
88 88 88 
94 94 94 
95 95 95 
93 93 93 
85 85 85 
73 73 73 
56 56 56 
36 36 36 
20 20 20 
11 11 11 
9 9 9 
11 11 11 
10 10 10 
11 11 11 
13 13 13 
145 145 145 
128 128 128 
175 175 175 
181 181 181 
186 186 186 
176 176 176 
167 167 167 
160 160 160 
159 159 159 
163 163 163 
170 170 170 
178 178 178 
182 182 182 
165 165 165 
138 138 138 
126 126 126 
111 111 111 
111 111 111 
130 130 130 
150 150 150 
145 145 145 
137 137 137 
136 136 136 
134 134 134 
120 120 120 
123 123 123 
120 120 120 
143 143 143 
140 140 140 
149 149 149 
149 149 149 
145 145 145 
127 127 127 
107 107 107 
93 93 93 
128 128 128 
133 133 133 
134 134 134 
134 134 134 
126 126 126 
146 146 146 
137 137 137 
140 140 140 
135 135 135 
122 122 122 
118 118 118 
122 122 122 
105 105 105 
105 105 105 
109 109 109 
123 123 123 
126 126 126 
115 115 115 
120 120 120 
131 131 131 
143 143 143 
135 135 135 
128 128 128 
136 136 136 
124 124 124 
111 111 111 
89 89 89 
71 71 71 
111 111 111 
125 125 125 
109 109 109 
103 103 103 
112 112 112 
159 159 159 
129 129 129 
102 102 102 
141 141 141 
114 114 114 
106 106 106 
131 131 131 
91 91 91 
111 111 111 
108 108 108 
98 98 98 
69 69 69 
140 140 140 
111 111 111 
95 95 95 
78 78 78 
80 80 80 
90 90 90 
82 82 82 
88 88 88 
103 103 103 
99 99 99 
93 93 93 
89 89 89 
87 87 87 
89 89 89 
91 91 91 
89 89 89 
86 86 86 
84 84 84 
79 79 79 
70 70 70 
61 61 61 
54 54 54 
55 55 55 
56 56 56 
57 57 57 
60 60 60 
60 60 60 
58 58 58 
55 55 55 
55 55 55 
58 58 58 
62 62 62 
72 72 72 
80 80 80 
86 86 86 
89 89 89 
88 88 88 
86 86 86 
74 74 74 
59 59 59 
40 40 40 
24 24 24 
15 15 15 
11 11 11 
7 7 7 
6 6 6 
5 5 5 
5 5 5 
150 150 150 
172 172 172 
179 179 179 
183 183 183 
175 175 175 
163 163 163 
159 159 159 
159 159 159 
153 153 153 
166 166 166 
176 176 176 
183 183 183 
174 174 174 
149 149 149 
89 89 89 
122 122 122 
110 110 110 
109 109 109 
136 136 136 
128 128 128 
137 137 137 
133 133 133 
140 140 140 
138 138 138 
130 130 130 
129 129 129 
126 126 126 
116 116 116 
120 120 120 
143 143 143 
139 139 139 
133 133 133 
125 125 125 
117 117 117 
106 106 106 
124 124 124 
132 132 132 
135 135 135 
131 131 131 
124 124 124 
129 129 129 
139 139 139 
130 130 130 
119 119 119 
135 135 135 
126 126 126 
125 125 125 
116 116 116 
104 104 104 
126 126 126 
122 122 122 
112 112 112 
121 121 121 
128 128 128 
139 139 139 
133 133 133 
129 129 129 
137 137 137 
125 125 125 
116 116 116 
96 96 96 
105 105 105 
95 95 95 
73 73 73 
97 97 97 
115 115 115 
83 83 83 
95 95 95 
145 145 145 
154 154 154 
119 119 119 
139 139 139 
127 127 127 
92 92 92 
131 131 131 
113 113 113 
107 107 107 
97 97 97 
128 128 128 
82 82 82 
112 112 112 
116 116 116 
101 101 101 
104 104 104 
92 92 92 
109 109 109 
119 119 119 
117 117 117 
113 113 113 
108 108 108 
103 103 103 
97 97 97 
96 96 96 
98 98 98 
100 100 100 
99 99 99 
96 96 96 
92 92 92 
84 84 84 
73 73 73 
62 62 62 
55 55 55 
54 54 54 
58 58 58 
61 61 61 
64 64 64 
65 65 65 
61 61 61 
59 59 59 
59 59 59 
61 61 61 
63 63 63 
67 67 67 
75 75 75 
83 83 83 
88 88 88 
88 88 88 
86 86 86 
78 78 78 
65 65 65 
50 50 50 
35 35 35 
23 23 23 
16 16 16 
8 8 8 
5 5 5 
2 2 2 
1 1 1 
172 172 172 
179 179 179 
177 177 177 
178 178 178 
169 169 169 
163 163 163 
146 146 146 
154 154 154 
156 156 156 
168 168 168 
177 177 177 
174 174 174 
145 145 145 
78 78 78 
49 49 49 
117 117 117 
113 113 113 
104 104 104 
134 134 134 
114 114 114 
136 136 136 
130 130 130 
137 137 137 
137 137 137 
128 128 128 
128 128 128 
130 130 130 
122 122 122 
138 138 138 
141 141 141 
143 143 143 
131 131 131 
125 125 125 
116 116 116 
114 114 114 
115 115 115 
132 132 132 
133 133 133 
131 131 131 
119 119 119 
127 127 127 
130 130 130 
128 128 128 
124 124 124 
123 123 123 
122 122 122 
123 123 123 
115 115 115 
105 105 105 
120 120 120 
120 120 120 
103 103 103 
127 127 127 
130 130 130 
132 132 132 
121 121 121 
127 127 127 
117 117 117 
113 113 113 
78 78 78 
97 97 97 
113 113 113 
100 100 100 
101 101 101 
115 115 115 
122 122 122 
112 112 112 
73 73 73 
141 141 141 
136 136 136 
120 120 120 
147 147 147 
126 126 126 
103 103 103 
101 101 101 
127 127 127 
121 121 121 
104 104 104 
97 97 97 
135 135 135 
103 103 103 
101 101 101 
97 97 97 
89 89 89 
121 121 121 
130 130 130 
129 129 129 
121 121 121 
114 114 114 
109 109 109 
105 105 105 
101 101 101 
102 102 102 
105 105 105 
107 107 107 
107 107 107 
104 104 104 
98 98 98 
87 87 87 
75 75 75 
67 67 67 
63 63 63 
60 60 60 
60 60 60 
60 60 60 
60 60 60 
59 59 59 
58 58 58 
58 58 58 
60 60 60 
62 62 62 
67 67 67 
72 72 72 
79 79 79 
85 85 85 
90 90 90 
91 91 91 
88 88 88 
82 82 82 
72 72 72 
61 61 61 
47 47 47 
34 34 34 
23 23 23 
12 12 12 
6 6 6 
2 2 2 
1 1 1 
181 181 181 
179 179 179 
177 177 177 
171 171 171 
162 162 162 
147 147 147 
141 141 141 
141 141 141 
161 161 161 
168 168 168 
170 170 170 
125 125 125 
54 54 54 
57 57 57 
80 80 80 
100 100 100 
118 118 118 
112 112 112 
130 130 130 
105 105 105 
133 133 133 
128 128 128 
134 134 134 
136 136 136 
126 126 126 
119 119 119 
122 122 122 
124 124 124 
139 139 139 
136 136 136 
138 138 138 
126 126 126 
125 125 125 
125 125 125 
121 121 121 
122 122 122 
125 125 125 
130 130 130 
123 123 123 
107 107 107 
128 128 128 
124 124 124 
113 113 113 
128 128 128 
119 119 119 
115 115 115 
118 118 118 
116 116 116 
108 108 108 
118 118 118 
122 122 122 
102 102 102 
111 111 111 
124 124 124 
113 113 113 
112 112 112 
108 108 108 
109 109 109 
86 86 86 
77 77 77 
106 106 106 
114 114 114 
106 106 106 
102 102 102 
120 120 120 
124 124 124 
115 115 115 
83 83 83 
109 109 109 
144 144 144 
135 135 135 
131 131 131 
141 141 141 
129 129 129 
111 111 111 
87 87 87 
99 99 99 
141 141 141 
107 107 107 
102 102 102 
102 102 102 
80 80 80 
104 104 104 
122 122 122 
133 133 133 
133 133 133 
127 127 127 
118 118 118 
112 112 112 
107 107 107 
105 105 105 
104 104 104 
109 109 109 
111 111 111 
112 112 112 
111 111 111 
109 109 109 
101 101 101 
93 93 93 
86 86 86 
80 80 80 
73 73 73 
65 65 65 
60 60 60 
59 59 59 
55 55 55 
53 53 53 
54 54 54 
54 54 54 
57 57 57 
66 66 66 
75 75 75 
84 84 84 
89 89 89 
92 92 92 
94 94 94 
94 94 94 
93 93 93 
89 89 89 
82 82 82 
74 74 74 
60 60 60 
46 46 46 
31 31 31 
19 19 19 
11 11 11 
6 6 6 
7 7 7 
180 180 180 
173 173 173 
170 170 170 
160 160 160 
151 151 151 
151 151 151 
140 140 140 
127 127 127 
146 146 146 
145 145 145 
82 82 82 
54 54 54 
65 65 65 
75 75 75 
105 105 105 
133 133 133 
127 127 127 
113 113 113 
130 130 130 
93 93 93 
126 126 126 
122 122 122 
132 132 132 
134 134 134 
127 127 127 
114 114 114 
117 117 117 
122 122 122 
132 132 132 
123 123 123 
130 130 130 
131 131 131 
109 109 109 
115 115 115 
120 120 120 
111 111 111 
115 115 115 
133 133 133 
123 123 123 
102 102 102 
125 125 125 
117 117 117 
109 109 109 
123 123 123 
119 119 119 
120 120 120 
115 115 115 
98 98 98 
103 103 103 
121 121 121 
126 126 126 
108 108 108 
113 113 113 
122 122 122 
114 114 114 
108 108 108 
117 117 117 
106 106 106 
67 67 67 
92 92 92 
115 115 115 
111 111 111 
113 113 113 
129 129 129 
132 132 132 
137 137 137 
119 119 119 
96 96 96 
81 81 81 
131 131 131 
146 146 146 
106 106 106 
136 136 136 
141 141 141 
129 129 129 
88 88 88 
84 84 84 
104 104 104 
138 138 138 
116 116 116 
93 93 93 
97 97 97 
115 115 115 
126 126 126 
130 130 130 
129 129 129 
121 121 121 
112 112 112 
108 108 108 
107 107 107 
108 108 108 
108 108 108 
110 110 110 
112 112 112 
110 110 110 
110 110 110 
109 109 109 
105 105 105 
100 100 100 
96 96 96 
91 91 91 
80 80 80 
68 68 68 
61 61 61 
56 56 56 
52 52 52 
47 47 47 
46 46 46 
47 47 47 
56 56 56 
68 68 68 
82 82 82 
93 93 93 
100 100 100 
102 102 102 
101 101 101 
100 100 100 
98 98 98 
97 97 97 
95 95 95 
89 89 89 
76 76 76 
58 58 58 
44 44 44 
34 34 34 
26 26 26 
21 21 21 
22 22 22 
180 180 180 
174 174 174 
162 162 162 
160 160 160 
158 158 158 
147 147 147 
132 132 132 
120 120 120 
98 98 98 
58 58 58 
54 54 54 
75 75 75 
81 81 81 
100 100 100 
128 128 128 
154 154 154 
141 141 141 
125 125 125 
106 106 106 
107 107 107 
111 111 111 
126 126 126 
126 126 126 
131 131 131 
132 132 132 
118 118 118 
113 113 113 
131 131 131 
124 124 124 
119 119 119 
118 118 118 
109 109 109 
106 106 106 
119 119 119 
124 124 124 
119 119 119 
114 114 114 
121 121 121 
119 119 119 
115 115 115 
123 123 123 
104 104 104 
102 102 102 
109 109 109 
115 115 115 
124 124 124 
117 117 117 
85 85 85 
105 105 105 
119 119 119 
128 128 128 
123 123 123 
125 125 125 
112 112 112 
111 111 111 
110 110 110 
114 114 114 
89 89 89 
80 80 80 
101 101 101 
114 114 114 
114 114 114 
111 111 111 
151 151 151 
125 125 125 
150 150 150 
135 135 135 
120 120 120 
93 93 93 
104 104 104 
109 109 109 
136 136 136 
92 92 92 
137 137 137 
146 146 146 
104 104 104 
93 93 93 
117 117 117 
95 95 95 
100 100 100 
75 75 75 
95 95 95 
113 113 113 
122 122 122 
125 125 125 
121 121 121 
115 115 115 
110 110 110 
108 108 108 
109 109 109 
108 108 108 
106 106 106 
108 108 108 
109 109 109 
109 109 109 
109 109 109 
111 111 111 
110 110 110 
108 108 108 
106 106 106 
97 97 97 
82 82 82 
69 69 69 
58 58 58 
52 52 52 
44 44 44 
37 37 37 
34 34 34 
38 38 38 
53 53 53 
73 73 73 
89 89 89 
101 101 101 
108 108 108 
111 111 111 
111 111 111 
111 111 111 
110 110 110 
108 108 108 
106 106 106 
101 101 101 
88 88 88 
72 72 72 
59 59 59 
51 51 51 
45 45 45 
40 40 40 
50 50 50 
163 163 163 
158 158 158 
161 161 161 
160 160 160 
150 150 150 
135 135 135 
120 120 120 
114 114 114 
82 82 82 
59 59 59 
83 83 83 
88 88 88 
101 101 101 
113 113 113 
134 134 134 
148 148 148 
145 145 145 
131 131 131 
108 108 108 
69 69 69 
98 98 98 
105 105 105 
89 89 89 
112 112 112 
130 130 130 
125 125 125 
94 94 94 
115 115 115 
128 128 128 
126 126 126 
103 103 103 
102 102 102 
117 117 117 
122 122 122 
124 124 124 
119 119 119 
115 115 115 
115 115 115 
121 121 121 
116 116 116 
118 118 118 
107 107 107 
108 108 108 
109 109 109 
122 122 122 
121 121 121 
115 115 115 
81 81 81 
115 115 115 
124 124 124 
128 128 128 
122 122 122 
126 126 126 
114 114 114 
113 113 113 
111 111 111 
110 110 110 
75 75 75 
98 98 98 
108 108 108 
109 109 109 
109 109 109 
110 110 110 
144 144 144 
122 122 122 
131 131 131 
155 155 155 
128 128 128 
97 97 97 
134 134 134 
115 115 115 
117 117 117 
111 111 111 
99 99 99 
132 132 132 
132 132 132 
81 81 81 
92 92 92 
27 27 27 
37 37 37 
66 66 66 
94 94 94 
107 107 107 
112 112 112 
115 115 115 
115 115 115 
112 112 112 
110 110 110 
109 109 109 
108 108 108 
106 106 106 
106 106 106 
109 109 109 
112 112 112 
112 112 112 
113 113 113 
114 114 114 
116 116 116 
115 115 115 
110 110 110 
97 97 97 
82 82 82 
66 66 66 
55 55 55 
44 44 44 
32 32 32 
25 25 25 
23 23 23 
30 30 30 
53 53 53 
76 76 76 
96 96 96 
108 108 108 
113 113 113 
116 116 116 
115 115 115 
116 116 116 
115 115 115 
113 113 113 
111 111 111 
107 107 107 
98 98 98 
86 86 86 
74 74 74 
68 68 68 
89 89 89 
122 122 122 
152 152 152 
162 162 162 
158 158 158 
157 157 157 
153 153 153 
136 136 136 
119 119 119 
108 108 108 
94 94 94 
60 60 60 
67 67 67 
105 105 105 
109 109 109 
114 114 114 
114 114 114 
140 140 140 
143 143 143 
137 137 137 
125 125 125 
107 107 107 
108 108 108 
118 118 118 
90 90 90 
77 77 77 
79 79 79 
76 76 76 
79 79 79 
87 87 87 
78 78 78 
74 74 74 
80 80 80 
92 92 92 
105 105 105 
109 109 109 
109 109 109 
114 114 114 
115 115 115 
110 110 110 
116 116 116 
112 112 112 
113 113 113 
117 117 117 
98 98 98 
113 113 113 
116 116 116 
122 122 122 
122 122 122 
112 112 112 
89 89 89 
121 121 121 
128 128 128 
124 124 124 
108 108 108 
112 112 112 
115 115 115 
110 110 110 
102 102 102 
99 99 99 
83 83 83 
101 101 101 
104 104 104 
102 102 102 
101 101 101 
120 120 120 
149 149 149 
142 142 142 
114 114 114 
124 124 124 
154 154 154 
124 124 124 
109 109 109 
125 125 125 
138 138 138 
111 111 111 
100 100 100 
112 112 112 
125 125 125 
103 103 103 
25 25 25 
17 17 17 
34 34 34 
62 62 62 
81 81 81 
92 92 92 
99 99 99 
106 106 106 
109 109 109 
109 109 109 
107 107 107 
106 106 106 
106 106 106 
107 107 107 
110 110 110 
114 114 114 
115 115 115 
115 115 115 
116 116 116 
119 119 119 
119 119 119 
114 114 114 
107 107 107 
96 96 96 
81 81 81 
64 64 64 
49 49 49 
34 34 34 
20 20 20 
15 15 15 
16 16 16 
29 29 29 
55 55 55 
81 81 81 
101 101 101 
112 112 112 
117 117 117 
118 118 118 
117 117 117 
117 117 117 
116 116 116 
115 115 115 
115 115 115 
110 110 110 
103 103 103 
96 96 96 
113 113 113 
146 146 146 
181 181 181 
209 209 209 
225 225 225 
156 156 156 
152 152 152 
147 147 147 
136 136 136 
115 115 115 
98 98 98 
83 83 83 
63 63 63 
64 64 64 
84 84 84 
122 122 122 
114 114 114 
115 115 115 
120 120 120 
143 143 143 
142 142 142 
129 129 129 
116 116 116 
90 90 90 
126 126 126 
142 142 142 
111 111 111 
107 107 107 
105 105 105 
100 100 100 
104 104 104 
108 108 108 
106 106 106 
98 98 98 
103 103 103 
107 107 107 
113 113 113 
113 113 113 
113 113 113 
107 107 107 
113 113 113 
109 109 109 
111 111 111 
106 106 106 
112 112 112 
115 115 115 
103 103 103 
118 118 118 
123 123 123 
124 124 124 
118 118 118 
100 100 100 
88 88 88 
125 125 125 
119 119 119 
115 115 115 
104 104 104 
107 107 107 
100 100 100 
105 105 105 
95 95 95 
90 90 90 
91 91 91 
104 104 104 
106 106 106 
112 112 112 
106 106 106 
134 134 134 
123 123 123 
157 157 157 
145 145 145 
125 125 125 
134 134 134 
137 137 137 
104 104 104 
83 83 83 
120 120 120 
137 137 137 
96 96 96 
121 121 121 
106 106 106 
67 67 67 
15 15 15 
20 20 20 
35 35 35 
56 56 56 
69 69 69 
80 80 80 
90 90 90 
98 98 98 
101 101 101 
100 100 100 
99 99 99 
100 100 100 
103 103 103 
109 109 109 
112 112 112 
114 114 114 
115 115 115 
115 115 115 
117 117 117 
119 119 119 
116 116 116 
111 111 111 
103 103 103 
91 91 91 
76 76 76 
57 57 57 
39 39 39 
23 23 23 
15 15 15 
14 14 14 
17 17 17 
35 35 35 
60 60 60 
86 86 86 
103 103 103 
114 114 114 
119 119 119 
119 119 119 
118 118 118 
118 118 118 
119 119 119 
119 119 119 
118 118 118 
117 117 117 
135 135 135 
160 160 160 
191 191 191 
208 208 208 
216 216 216 
228 228 228 
235 235 235 
145 145 145 
138 138 138 
127 127 127 
112 112 112 
96 96 96 
74 74 74 
62 62 62 
64 64 64 
74 74 74 
93 93 93 
123 123 123 
125 125 125 
118 118 118 
126 126 126 
145 145 145 
141 141 141 
126 126 126 
96 96 96 
99 99 99 
136 136 136 
137 137 137 
124 124 124 
121 121 121 
109 109 109 
116 116 116 
120 120 120 
120 120 120 
115 115 115 
105 105 105 
115 115 115 
119 119 119 
120 120 120 
120 120 120 
116 116 116 
108 108 108 
113 113 113 
111 111 111 
110 110 110 
102 102 102 
112 112 112 
113 113 113 
97 97 97 
117 117 117 
124 124 124 
127 127 127 
110 110 110 
109 109 109 
79 79 79 
90 90 90 
117 117 117 
109 109 109 
96 96 96 
99 99 99 
105 105 105 
110 110 110 
99 99 99 
81 81 81 
96 96 96 
104 104 104 
114 114 114 
107 107 107 
130 130 130 
155 155 155 
143 143 143 
137 137 137 
135 135 135 
130 130 130 
113 113 113 
112 112 112 
113 113 113 
117 117 117 
117 117 117 
110 110 110 
84 84 84 
96 96 96 
99 99 99 
19 19 19 
21 21 21 
26 26 26 
37 37 37 
48 48 48 
60 60 60 
71 71 71 
79 79 79 
88 88 88 
90 90 90 
88 88 88 
91 91 91 
98 98 98 
105 105 105 
110 110 110 
112 112 112 
110 110 110 
110 110 110 
111 111 111 
114 114 114 
112 112 112 
109 109 109 
104 104 104 
94 94 94 
78 78 78 
59 59 59 
40 40 40 
24 24 24 
16 16 16 
14 14 14 
14 14 14 
22 22 22 
45 45 45 
68 68 68 
91 91 91 
105 105 105 
115 115 115 
121 121 121 
120 120 120 
119 119 119 
118 118 118 
121 121 121 
130 130 130 
141 141 141 
164 164 164 
193 193 193 
205 205 205 
222 222 222 
230 230 230 
232 232 232 
233 233 233 
229 229 229 
124 124 124 
116 116 116 
104 104 104 
87 87 87 
67 67 67 
67 67 67 
64 64 64 
67 67 67 
95 95 95 
97 97 97 
119 119 119 
127 127 127 
117 117 117 
123 123 123 
133 133 133 
134 134 134 
115 115 115 
87 87 87 
106 106 106 
132 132 132 
134 134 134 
116 116 116 
115 115 115 
110 110 110 
118 118 118 
122 122 122 
117 117 117 
114 114 114 
105 105 105 
113 113 113 
114 114 114 
121 121 121 
112 112 112 
108 108 108 
111 111 111 
116 116 116 
111 111 111 
111 111 111 
105 105 105 
113 113 113 
111 111 111 
100 100 100 
84 84 84 
110 110 110 
119 119 119 
108 108 108 
96 96 96 
84 84 84 
80 80 80 
60 60 60 
75 75 75 
98 98 98 
109 109 109 
113 113 113 
109 109 109 
97 97 97 
91 91 91 
103 103 103 
110 110 110 
122 122 122 
108 108 108 
163 163 163 
152 152 152 
141 141 141 
159 159 159 
145 145 145 
137 137 137 
123 123 123 
119 119 119 
119 119 119 
136 136 136 
126 126 126 
146 146 146 
141 141 141 
121 121 121 
80 80 80 
22 22 22 
26 26 26 
31 31 31 
38 38 38 
43 43 43 
50 50 50 
58 58 58 
67 67 67 
74 74 74 
75 75 75 
79 79 79 
88 88 88 
97 97 97 
103 103 103 
105 105 105 
106 106 106 
104 104 104 
105 105 105 
108 108 108 
109 109 109 
105 105 105 
99 99 99 
91 91 91 
78 78 78 
60 60 60 
39 39 39 
21 21 21 
13 13 13 
14 14 14 
15 15 15 
15 15 15 
26 26 26 
50 50 50 
70 70 70 
91 91 91 
104 104 104 
114 114 114 
120 120 120 
125 125 125 
135 135 135 
144 144 144 
164 164 164 
189 189 189 
210 210 210 
226 226 226 
236 236 236 
238 238 238 
241 241 241 
244 244 244 
239 239 239 
216 216 216 
200 200 200 
98 98 98 
84 84 84 
62 62 62 
61 61 61 
75 75 75 
71 71 71 
71 71 71 
91 91 91 
96 96 96 
105 105 105 
119 119 119 
108 108 108 
113 113 113 
117 117 117 
130 130 130 
120 120 120 
91 91 91 
124 124 124 
117 117 117 
138 138 138 
125 125 125 
107 107 107 
111 111 111 
113 113 113 
119 119 119 
117 117 117 
112 112 112 
110 110 110 
108 108 108 
109 109 109 
111 111 111 
113 113 113 
109 109 109 
108 108 108 
117 117 117 
123 123 123 
111 111 111 
109 109 109 
103 103 103 
105 105 105 
108 108 108 
100 100 100 
97 97 97 
111 111 111 
103 103 103 
100 100 100 
99 99 99 
101 101 101 
91 91 91 
69 69 69 
73 73 73 
105 105 105 
104 104 104 
105 105 105 
98 98 98 
98 98 98 
96 96 96 
110 110 110 
112 112 112 
109 109 109 
117 117 117 
131 131 131 
168 168 168 
160 160 160 
155 155 155 
165 165 165 
145 145 145 
133 133 133 
130 130 130 
134 134 134 
143 143 143 
133 133 133 
112 112 112 
107 107 107 
111 111 111 
37 37 37 
31 31 31 
32 32 32 
35 35 35 
36 36 36 
36 36 36 
42 42 42 
47 47 47 
56 56 56 
61 61 61 
63 63 63 
75 75 75 
85 85 85 
95 95 95 
100 100 100 
100 100 100 
100 100 100 
99 99 99 
101 101 101 
104 104 104 
102 102 102 
96 96 96 
86 86 86 
73 73 73 
59 59 59 
38 38 38 
18 18 18 
11 11 11 
13 13 13 
16 16 16 
17 17 17 
19 19 19 
30 30 30 
49 49 49 
73 73 73 
99 99 99 
121 121 121 
141 141 141 
169 169 169 
183 183 183 
208 208 208 
223 223 223 
238 238 238 
246 246 246 
250 250 250 
250 250 250 
244 244 244 
236 236 236 
236 236 236 
236 236 236 
230 230 230 
219 219 219 
214 214 214 
54 54 54 
54 54 54 
68 68 68 
73 73 73 
69 69 69 
71 71 71 
87 87 87 
95 95 95 
99 99 99 
111 111 111 
119 119 119 
104 104 104 
110 110 110 
112 112 112 
120 120 120 
91 91 91 
89 89 89 
102 102 102 
107 107 107 
115 115 115 
108 108 108 
105 105 105 
109 109 109 
117 117 117 
116 116 116 
110 110 110 
108 108 108 
107 107 107 
108 108 108 
104 104 104 
105 105 105 
101 101 101 
103 103 103 
97 97 97 
112 112 112 
119 119 119 
114 114 114 
102 102 102 
100 100 100 
100 100 100 
103 103 103 
96 96 96 
107 107 107 
114 114 114 
110 110 110 
107 107 107 
103 103 103 
111 111 111 
85 85 85 
59 59 59 
95 95 95 
109 109 109 
110 110 110 
108 108 108 
95 95 95 
88 88 88 
94 94 94 
105 105 105 
111 111 111 
107 107 107 
116 116 116 
113 113 113 
140 140 140 
141 141 141 
130 130 130 
134 134 134 
154 154 154 
153 153 153 
147 147 147 
129 129 129 
142 142 142 
152 152 152 
143 143 143 
130 130 130 
93 93 93 
39 39 39 
36 36 36 
35 35 35 
35 35 35 
32 32 32 
32 32 32 
35 35 35 
38 38 38 
45 45 45 
51 51 51 
57 57 57 
69 69 69 
78 78 78 
88 88 88 
94 94 94 
97 97 97 
98 98 98 
99 99 99 
100 100 100 
101 101 101 
98 98 98 
90 90 90 
80 80 80 
66 66 66 
48 48 48 
27 27 27 
22 22 22 
38 38 38 
60 60 60 
80 80 80 
92 92 92 
112 112 112 
137 137 137 
158 158 158 
176 176 176 
185 185 185 
182 182 182 
183 183 183 
216 216 216 
236 236 236 
244 244 244 
250 250 250 
249 249 249 
247 247 247 
242 242 242 
226 226 226 
214 214 214 
227 227 227 
239 239 239 
239 239 239 
232 232 232 
230 230 230 
228 228 228 
60 60 60 
69 69 69 
72 72 72 
76 76 76 
69 69 69 
84 84 84 
95 95 95 
94 94 94 
97 97 97 
119 119 119 
120 120 120 
113 113 113 
104 104 104 
105 105 105 
94 94 94 
59 59 59 
88 88 88 
97 97 97 
102 102 102 
111 111 111 
107 107 107 
101 101 101 
101 101 101 
107 107 107 
110 110 110 
101 101 101 
101 101 101 
105 105 105 
106 106 106 
92 92 92 
85 85 85 
87 87 87 
86 86 86 
90 90 90 
106 106 106 
114 114 114 
107 107 107 
97 97 97 
100 100 100 
95 95 95 
100 100 100 
96 96 96 
103 103 103 
107 107 107 
106 106 106 
110 110 110 
113 113 113 
107 107 107 
59 59 59 
73 73 73 
107 107 107 
103 103 103 
106 106 106 
96 96 96 
94 94 94 
88 88 88 
95 95 95 
106 106 106 
104 104 104 
154 154 154 
157 157 157 
149 149 149 
163 163 163 
171 171 171 
158 158 158 
146 146 146 
132 132 132 
128 128 128 
120 120 120 
125 125 125 
138 138 138 
121 121 121 
113 113 113 
123 123 123 
80 80 80 
44 44 44 
39 39 39 
36 36 36 
34 34 34 
29 29 29 
26 26 26 
29 29 29 
33 33 33 
39 39 39 
43 43 43 
50 50 50 
59 59 59 
66 66 66 
77 77 77 
84 84 84 
94 94 94 
100 100 100 
100 100 100 
99 99 99 
100 100 100 
98 98 98 
92 92 92 
84 84 84 
74 74 74 
82 82 82 
105 105 105 
134 134 134 
152 152 152 
168 168 168 
190 190 190 
209 209 209 
224 224 224 
235 235 235 
242 242 242 
244 244 244 
245 245 245 
238 238 238 
230 230 230 
230 230 230 
238 238 238 
233 233 233 
217 217 217 
204 204 204 
192 192 192 
177 177 177 
171 171 171 
192 192 192 
234 234 234 
239 239 239 
236 236 236 
229 229 229 
231 231 231 
239 239 239 
74 74 74 
72 72 72 
71 71 71 
73 73 73 
80 80 80 
90 90 90 
96 96 96 
92 92 92 
105 105 105 
120 120 120 
120 120 120 
122 122 122 
111 111 111 
89 89 89 
70 70 70 
58 58 58 
66 66 66 
78 78 78 
88 88 88 
94 94 94 
94 94 94 
99 99 99 
89 89 89 
107 107 107 
106 106 106 
97 97 97 
97 97 97 
98 98 98 
100 100 100 
91 91 91 
78 78 78 
73 73 73 
65 65 65 
89 89 89 
99 99 99 
106 106 106 
98 98 98 
104 104 104 
93 93 93 
93 93 93 
98 98 98 
94 94 94 
100 100 100 
95 95 95 
101 101 101 
115 115 115 
114 114 114 
94 94 94 
66 66 66 
84 84 84 
111 111 111 
107 107 107 
102 102 102 
98 98 98 
92 92 92 
95 95 95 
94 94 94 
102 102 102 
119 119 119 
157 157 157 
174 174 174 
162 162 162 
164 164 164 
176 176 176 
181 181 181 
174 174 174 
164 164 164 
145 145 145 
131 131 131 
132 132 132 
145 145 145 
126 126 126 
128 128 128 
131 131 131 
64 64 64 
46 46 46 
40 40 40 
35 35 35 
31 31 31 
26 26 26 
23 23 23 
26 26 26 
32 32 32 
34 34 34 
38 38 38 
43 43 43 
50 50 50 
60 60 60 
73 73 73 
86 86 86 
97 97 97 
105 105 105 
106 106 106 
106 106 106 
106 106 106 
103 103 103 
106 106 106 
127 127 127 
150 150 150 
169 169 169 
178 178 178 
184 184 184 
201 201 201 
229 229 229 
244 244 244 
248 248 248 
248 248 248 
254 254 254 
254 254 254 
253 253 253 
251 251 251 
249 249 249 
241 241 241 
232 232 232 
230 230 230 
204 204 204 
171 171 171 
172 172 172 
164 164 164 
149 149 149 
169 169 169 
223 223 223 
243 243 243 
245 245 245 
241 241 241 
237 237 237 
240 240 240 
239 239 239 
79 79 79 
73 73 73 
88 88 88 
77 77 77 
84 84 84 
88 88 88 
86 86 86 
102 102 102 
114 114 114 
121 121 121 
122 122 122 
120 120 120 
107 107 107 
94 94 94 
85 85 85 
78 78 78 
66 66 66 
63 63 63 
62 62 62 
68 68 68 
80 80 80 
88 88 88 
83 83 83 
94 94 94 
98 98 98 
95 95 95 
94 94 94 
96 96 96 
99 99 99 
94 94 94 
86 86 86 
79 79 79 
72 72 72 
82 82 82 
100 100 100 
104 104 104 
112 112 112 
115 115 115 
90 90 90 
101 101 101 
100 100 100 
99 99 99 
99 99 99 
99 99 99 
115 115 115 
118 118 118 
111 111 111 
76 76 76 
75 75 75 
100 100 100 
109 109 109 
96 96 96 
105 105 105 
94 94 94 
91 91 91 
92 92 92 
97 97 97 
100 100 100 
103 103 103 
131 131 131 
119 119 119 
114 114 114 
158 158 158 
138 138 138 
120 120 120 
131 131 131 
138 138 138 
148 148 148 
153 153 153 
144 144 144 
132 132 132 
142 142 142 
133 133 133 
129 129 129 
52 52 52 
47 47 47 
40 40 40 
35 35 35 
29 29 29 
24 24 24 
21 21 21 
27 27 27 
33 33 33 
36 36 36 
36 36 36 
41 41 41 
53 53 53 
67 67 67 
81 81 81 
94 94 94 
104 104 104 
111 111 111 
113 113 113 
114 114 114 
115 115 115 
137 137 137 
163 163 163 
178 178 178 
184 184 184 
193 193 193 
208 208 208 
232 232 232 
245 245 245 
246 246 246 
244 244 244 
242 242 242 
248 248 248 
254 254 254 
253 253 253 
252 252 252 
243 243 243 
238 238 238 
238 238 238 
243 243 243 
236 236 236 
196 196 196 
189 189 189 
169 169 169 
145 145 145 
134 134 134 
182 182 182 
240 240 240 
252 252 252 
252 252 252 
247 247 247 
241 241 241 
238 238 238 
211 211 211 
96 96 96 
87 87 87 
88 88 88 
80 80 80 
85 85 85 
86 86 86 
99 99 99 
102 102 102 
118 118 118 
127 127 127 
122 122 122 
112 112 112 
105 105 105 
81 81 81 
86 86 86 
90 90 90 
76 76 76 
76 76 76 
66 66 66 
69 69 69 
66 66 66 
72 72 72 
89 89 89 
87 87 87 
89 89 89 
96 96 96 
93 93 93 
96 96 96 
106 106 106 
96 96 96 
92 92 92 
88 88 88 
85 85 85 
76 76 76 
101 101 101 
103 103 103 
106 106 106 
101 101 101 
99 99 99 
105 105 105 
106 106 106 
103 103 103 
102 102 102 
105 105 105 
110 110 110 
112 112 112 
98 98 98 
71 71 71 
81 81 81 
110 110 110 
102 102 102 
93 93 93 
104 104 104 
94 94 94 
90 90 90 
92 92 92 
94 94 94 
142 142 142 
136 136 136 
160 160 160 
146 146 146 
121 121 121 
158 158 158 
154 154 154 
147 147 147 
141 141 141 
132 132 132 
109 109 109 
121 121 121 
116 116 116 
112 112 112 
112 112 112 
136 136 136 
111 111 111 
54 54 54 
58 58 58 
47 47 47 
37 37 37 
30 30 30 
23 23 23 
25 25 25 
40 40 40 
54 54 54 
66 66 66 
66 66 66 
58 58 58 
70 70 70 
82 82 82 
93 93 93 
103 103 103 
112 112 112 
116 116 116 
120 120 120 
135 135 135 
159 159 159 
182 182 182 
188 188 188 
199 199 199 
228 228 228 
243 243 243 
247 247 247 
242 242 242 
232 232 232 
234 234 234 
242 242 242 
248 248 248 
252 252 252 
254 254 254 
253 253 253 
250 250 250 
239 239 239 
221 221 221 
199 199 199 
203 203 203 
208 208 208 
182 182 182 
196 196 196 
191 191 191 
169 169 169 
137 137 137 
184 184 184 
244 244 244 
247 247 247 
242 242 242 
238 238 238 
226 226 226 
207 207 207 
172 172 172 
87 87 87 
92 92 92 
81 81 81 
78 78 78 
79 79 79 
96 96 96 
120 120 120 
117 117 117 
123 123 123 
120 120 120 
115 115 115 
106 106 106 
96 96 96 
64 64 64 
72 72 72 
98 98 98 
98 98 98 
93 93 93 
84 84 84 
74 74 74 
75 75 75 
80 80 80 
85 85 85 
79 79 79 
78 78 78 
87 87 87 
90 90 90 
95 95 95 
97 97 97 
92 92 92 
100 100 100 
95 95 95 
83 83 83 
86 86 86 
95 95 95 
100 100 100 
95 95 95 
95 95 95 
97 97 97 
96 96 96 
101 101 101 
102 102 102 
103 103 103 
112 112 112 
118 118 118 
109 109 109 
67 67 67 
78 78 78 
96 96 96 
108 108 108 
99 99 99 
100 100 100 
104 104 104 
91 91 91 
88 88 88 
83 83 83 
138 138 138 
171 171 171 
160 160 160 
180 180 180 
182 182 182 
161 161 161 
172 172 172 
187 187 187 
168 168 168 
167 167 167 
161 161 161 
147 147 147 
151 151 151 
147 147 147 
149 149 149 
128 128 128 
127 127 127 
201 201 201 
223 223 223 
215 215 215 
203 203 203 
192 192 192 
187 187 187 
185 185 185 
194 194 194 
211 211 211 
220 220 220 
227 227 227 
230 230 230 
215 215 215 
197 197 197 
188 188 188 
184 184 184 
183 183 183 
189 189 189 
197 197 197 
214 214 214 
222 222 222 
220 220 220 
224 224 224 
236 236 236 
249 249 249 
254 254 254 
254 254 254 
249 249 249 
239 239 239 
241 241 241 
245 245 245 
247 247 247 
245 245 245 
239 239 239 
230 230 230 
236 236 236 
241 241 241 
220 220 220 
180 180 180 
168 168 168 
183 183 183 
184 184 184 
204 204 204 
232 232 232 
232 232 232 
224 224 224 
176 176 176 
165 165 165 
231 231 231 
248 248 248 
244 244 244 
238 238 238 
218 218 218 
192 192 192 
169 169 169 
100 100 100 
99 99 99 
66 66 66 
73 73 73 
76 76 76 
86 86 86 
106 106 106 
122 122 122 
120 120 120 
114 114 114 
106 106 106 
100 100 100 
73 73 73 
67 67 67 
87 87 87 
96 96 96 
107 107 107 
112 112 112 
108 108 108 
99 99 99 
69 69 69 
62 62 62 
44 44 44 
61 61 61 
79 79 79 
90 90 90 
106 106 106 
115 115 115 
107 107 107 
94 94 94 
94 94 94 
79 79 79 
78 78 78 
89 89 89 
95 95 95 
110 110 110 
111 111 111 
96 96 96 
90 90 90 
94 94 94 
95 95 95 
102 102 102 
105 105 105 
118 118 118 
114 114 114 
91 91 91 
80 80 80 
90 90 90 
107 107 107 
107 107 107 
97 97 97 
95 95 95 
94 94 94 
79 79 79 
78 78 78 
89 89 89 
131 131 131 
153 153 153 
140 140 140 
149 149 149 
166 166 166 
168 168 168 
157 157 157 
168 168 168 
168 168 168 
156 156 156 
151 151 151 
150 150 150 
123 123 123 
106 106 106 
109 109 109 
124 124 124 
180 180 180 
216 216 216 
222 222 222 
227 227 227 
229 229 229 
222 222 222 
216 216 216 
219 219 219 
223 223 223 
222 222 222 
236 236 236 
244 244 244 
244 244 244 
243 243 243 
240 240 240 
234 234 234 
220 220 220 
205 205 205 
235 235 235 
247 247 247 
252 252 252 
251 251 251 
247 247 247 
248 248 248 
249 249 249 
250 250 250 
252 252 252 
249 249 249 
240 240 240 
237 237 237 
245 245 245 
241 241 241 
241 241 241 
239 239 239 
224 224 224 
185 185 185 
190 190 190 
188 188 188 
179 179 179 
174 174 174 
203 203 203 
224 224 224 
212 212 212 
232 232 232 
237 237 237 
231 231 231 
233 233 233 
220 220 220 
175 175 175 
216 216 216 
248 248 248 
247 247 247 
243 243 243 
239 239 239 
230 230 230 
218 218 218 
98 98 98 
80 80 80 
60 60 60 
68 68 68 
83 83 83 
85 85 85 
111 111 111 
117 117 117 
115 115 115 
110 110 110 
98 98 98 
87 87 87 
53 53 53 
71 71 71 
94 94 94 
98 98 98 
105 105 105 
111 111 111 
104 104 104 
94 94 94 
81 81 81 
64 64 64 
68 68 68 
66 66 66 
75 75 75 
93 93 93 
111 111 111 
115 115 115 
115 115 115 
97 97 97 
68 68 68 
66 66 66 
68 68 68 
85 85 85 
94 94 94 
117 117 117 
118 118 118 
108 108 108 
81 81 81 
84 84 84 
90 90 90 
96 96 96 
107 107 107 
113 113 113 
103 103 103 
70 70 70 
83 83 83 
101 101 101 
107 107 107 
103 103 103 
93 93 93 
102 102 102 
100 100 100 
72 72 72 
96 96 96 
142 142 142 
144 144 144 
141 141 141 
142 142 142 
151 151 151 
107 107 107 
106 106 106 
106 106 106 
133 133 133 
121 121 121 
113 113 113 
102 102 102 
134 134 134 
128 128 128 
128 128 128 
146 146 146 
140 140 140 
203 203 203 
216 216 216 
225 225 225 
220 220 220 
221 221 221 
222 222 222 
228 228 228 
231 231 231 
231 231 231 
227 227 227 
217 217 217 
207 207 207 
223 223 223 
237 237 237 
245 245 245 
246 246 246 
241 241 241 
221 221 221 
206 206 206 
237 237 237 
240 240 240 
245 245 245 
248 248 248 
249 249 249 
251 251 251 
249 249 249 
245 245 245 
242 242 242 
236 236 236 
231 231 231 
232 232 232 
229 229 229 
228 228 228 
226 226 226 
227 227 227 
207 207 207 
176 176 176 
171 171 171 
165 165 165 
207 207 207 
237 237 237 
235 235 235 
204 204 204 
237 237 237 
246 246 246 
201 201 201 
180 180 180 
180 180 180 
157 157 157 
164 164 164 
192 192 192 
206 206 206 
233 233 233 
237 237 237 
236 236 236 
233 233 233 
81 81 81 
71 71 71 
62 62 62 
69 69 69 
82 82 82 
90 90 90 
116 116 116 
114 114 114 
108 108 108 
104 104 104 
88 88 88 
61 61 61 
47 47 47 
80 80 80 
99 99 99 
96 96 96 
107 107 107 
106 106 106 
97 97 97 
87 87 87 
78 78 78 
53 53 53 
78 78 78 
92 92 92 
100 100 100 
111 111 111 
114 114 114 
111 111 111 
104 104 104 
84 84 84 
57 57 57 
78 78 78 
94 94 94 
106 106 106 
103 103 103 
116 116 116 
117 117 117 
103 103 103 
77 77 77 
93 93 93 
93 93 93 
94 94 94 
110 110 110 
109 109 109 
83 83 83 
70 70 70 
79 79 79 
106 106 106 
107 107 107 
99 99 99 
102 102 102 
105 105 105 
90 90 90 
82 82 82 
123 123 123 
176 176 176 
186 186 186 
182 182 182 
184 184 184 
162 162 162 
98 98 98 
148 148 148 
140 140 140 
167 167 167 
167 167 167 
153 153 153 
138 138 138 
161 161 161 
156 156 156 
153 153 153 
113 113 113 
181 181 181 
211 211 211 
222 222 222 
225 225 225 
228 228 228 
231 231 231 
227 227 227 
217 217 217 
212 212 212 
215 215 215 
220 220 220 
220 220 220 
219 219 219 
218 218 218 
206 206 206 
202 202 202 
227 227 227 
237 237 237 
238 238 238 
227 227 227 
242 242 242 
247 247 247 
252 252 252 
254 254 254 
252 252 252 
253 253 253 
251 251 251 
249 249 249 
247 247 247 
246 246 246 
237 237 237 
234 234 234 
228 228 228 
221 221 221 
219 219 219 
222 222 222 
199 199 199 
185 185 185 
207 207 207 
221 221 221 
213 213 213 
220 220 220 
241 241 241 
241 241 241 
246 246 246 
237 237 237 
198 198 198 
181 181 181 
185 185 185 
172 172 172 
150 150 150 
138 138 138 
173 173 173 
214 214 214 
223 223 223 
231 231 231 
233 233 233 
85 85 85 
76 76 76 
67 67 67 
78 78 78 
81 81 81 
101 101 101 
113 113 113 
112 112 112 
100 100 100 
90 90 90 
70 70 70 
37 37 37 
45 45 45 
73 73 73 
95 95 95 
93 93 93 
100 100 100 
95 95 95 
92 92 92 
72 72 72 
59 59 59 
44 44 44 
76 76 76 
102 102 102 
108 108 108 
109 109 109 
111 111 111 
106 106 106 
91 91 91 
60 60 60 
71 71 71 
91 91 91 
108 108 108 
116 116 116 
110 110 110 
115 115 115 
112 112 112 
87 87 87 
76 76 76 
93 93 93 
98 98 98 
100 100 100 
108 108 108 
96 96 96 
70 70 70 
77 77 77 
88 88 88 
98 98 98 
99 99 99 
92 92 92 
96 96 96 
101 101 101 
83 83 83 
92 92 92 
87 87 87 
129 129 129 
172 172 172 
173 173 173 
161 161 161 
125 125 125 
122 122 122 
170 170 170 
166 166 166 
180 180 180 
184 184 184 
182 182 182 
139 139 139 
135 135 135 
120 120 120 
101 101 101 
131 131 131 
186 186 186 
164 164 164 
176 176 176 
195 195 195 
219 219 219 
229 229 229 
227 227 227 
222 222 222 
210 210 210 
204 204 204 
202 202 202 
207 207 207 
220 220 220 
222 222 222 
226 226 226 
218 218 218 
213 213 213 
209 209 209 
211 211 211 
224 224 224 
245 245 245 
251 251 251 
253 253 253 
255 255 255 
255 255 255 
253 253 253 
252 252 252 
253 253 253 
250 250 250 
246 246 246 
240 240 240 
235 235 235 
236 236 236 
230 230 230 
229 229 229 
235 235 235 
223 223 223 
202 202 202 
205 205 205 
203 203 203 
194 194 194 
212 212 212 
240 240 240 
233 233 233 
235 235 235 
199 199 199 
183 183 183 
203 203 203 
201 201 201 
178 178 178 
145 145 145 
138 138 138 
140 140 140 
159 159 159 
175 175 175 
194 194 194 
206 206 206 
93 93 93 
77 77 77 
78 78 78 
76 76 76 
79 79 79 
102 102 102 
103 103 103 
104 104 104 
90 90 90 
79 79 79 
37 37 37 
45 45 45 
64 64 64 
94 94 94 
89 89 89 
87 87 87 
99 99 99 
88 88 88 
75 75 75 
57 57 57 
43 43 43 
54 54 54 
89 89 89 
98 98 98 
103 103 103 
105 105 105 
106 106 106 
105 105 105 
73 73 73 
59 59 59 
70 70 70 
97 97 97 
105 105 105 
118 118 118 
115 115 115 
112 112 112 
105 105 105 
77 77 77 
86 86 86 
97 97 97 
103 103 103 
103 103 103 
101 101 101 
66 66 66 
79 79 79 
86 86 86 
83 83 83 
88 88 88 
86 86 86 
87 87 87 
100 100 100 
91 91 91 
120 120 120 
137 137 137 
134 134 134 
116 116 116 
168 168 168 
181 181 181 
167 167 167 
150 150 150 
149 149 149 
152 152 152 
157 157 157 
139 139 139 
135 135 135 
120 120 120 
97 97 97 
119 119 119 
140 140 140 
148 148 148 
129 129 129 
128 128 128 
117 117 117 
140 140 140 
164 164 164 
213 213 213 
226 226 226 
227 227 227 
221 221 221 
221 221 221 
217 217 217 
201 201 201 
203 203 203 
213 213 213 
229 229 229 
232 232 232 
216 216 216 
204 204 204 
211 211 211 
225 225 225 
231 231 231 
228 228 228 
234 234 234 
238 238 238 
244 244 244 
245 245 245 
247 247 247 
245 245 245 
246 246 246 
247 247 247 
246 246 246 
241 241 241 
236 236 236 
235 235 235 
234 234 234 
230 230 230 
229 229 229 
213 213 213 
223 223 223 
221 221 221 
213 213 213 
208 208 208 
198 198 198 
205 205 205 
187 187 187 
184 184 184 
207 207 207 
216 216 216 
207 207 207 
188 188 188 
126 126 126 
58 58 58 
82 82 82 
70 70 70 
90 90 90 
131 131 131 
158 158 158 
181 181 181 
91 91 91 
77 77 77 
74 74 74 
75 75 75 
77 77 77 
97 97 97 
99 99 99 
92 92 92 
78 78 78 
43 43 43 
38 38 38 
47 47 47 
58 58 58 
94 94 94 
85 85 85 
87 87 87 
91 91 91 
88 88 88 
53 53 53 
47 47 47 
44 44 44 
59 59 59 
90 90 90 
94 94 94 
102 102 102 
104 104 104 
104 104 104 
90 90 90 
54 54 54 
60 60 60 
80 80 80 
95 95 95 
107 107 107 
112 112 112 
111 111 111 
103 103 103 
97 97 97 
82 82 82 
91 91 91 
99 99 99 
101 101 101 
97 97 97 
68 68 68 
67 67 67 
78 78 78 
79 79 79 
86 86 86 
98 98 98 
90 90 90 
91 91 91 
94 94 94 
122 122 122 
148 148 148 
170 170 170 
154 154 154 
136 136 136 
184 184 184 
188 188 188 
163 163 163 
148 148 148 
180 180 180 
167 167 167 
162 162 162 
136 136 136 
51 51 51 
95 95 95 
121 121 121 
123 123 123 
133 133 133 
117 117 117 
105 105 105 
94 94 94 
96 96 96 
135 135 135 
138 138 138 
187 187 187 
221 221 221 
210 210 210 
224 224 224 
220 220 220 
228 228 228 
210 210 210 
202 202 202 
211 211 211 
230 230 230 
234 234 234 
213 213 213 
215 215 215 
226 226 226 
230 230 230 
226 226 226 
222 222 222 
224 224 224 
219 219 219 
228 228 228 
232 232 232 
234 234 234 
235 235 235 
233 233 233 
237 237 237 
240 240 240 
237 237 237 
235 235 235 
234 234 234 
231 231 231 
228 228 228 
221 221 221 
218 218 218 
226 226 226 
226 226 226 
183 183 183 
163 163 163 
152 152 152 
150 150 150 
178 178 178 
177 177 177 
214 214 214 
203 203 203 
185 185 185 
176 176 176 
121 121 121 
65 65 65 
103 103 103 
92 92 92 
130 130 130 
152 152 152 
179 179 179 
191 191 191 
94 94 94 
96 96 96 
80 80 80 
78 78 78 
81 81 81 
89 89 89 
93 93 93 
80 80 80 
47 47 47 
36 36 36 
43 43 43 
47 47 47 
60 60 60 
94 94 94 
82 82 82 
90 90 90 
88 88 88 
77 77 77 
34 34 34 
36 36 36 
37 37 37 
68 68 68 
86 86 86 
92 92 92 
97 97 97 
102 102 102 
102 102 102 
63 63 63 
62 62 62 
67 67 67 
82 82 82 
95 95 95 
109 109 109 
108 108 108 
105 105 105 
104 104 104 
87 87 87 
84 84 84 
94 94 94 
95 95 95 
91 91 91 
76 76 76 
61 61 61 
77 77 77 
80 80 80 
75 75 75 
102 102 102 
102 102 102 
93 93 93 
87 87 87 
93 93 93 
93 93 93 
104 104 104 
154 154 154 
122 122 122 
124 124 124 
178 178 178 
158 158 158 
118 118 118 
105 105 105 
168 168 168 
160 160 160 
153 153 153 
85 85 85 
34 34 34 
123 123 123 
143 143 143 
131 131 131 
114 114 114 
131 131 131 
75 75 75 
108 108 108 
86 86 86 
128 128 128 
140 140 140 
91 91 91 
123 123 123 
129 129 129 
160 160 160 
175 175 175 
196 196 196 
184 184 184 
210 210 210 
220 220 220 
233 233 233 
233 233 233 
221 221 221 
236 236 236 
234 234 234 
231 231 231 
216 216 216 
209 209 209 
206 206 206 
204 204 204 
212 212 212 
215 215 215 
219 219 219 
224 224 224 
222 222 222 
221 221 221 
224 224 224 
219 219 219 
219 219 219 
227 227 227 
225 225 225 
227 227 227 
216 216 216 
194 194 194 
220 220 220 
227 227 227 
185 185 185 
141 141 141 
167 167 167 
170 170 170 
158 158 158 
178 178 178 
192 192 192 
155 155 155 
159 159 159 
162 162 162 
135 135 135 
62 62 62 
69 69 69 
96 96 96 
124 124 124 
143 143 143 
177 177 177 
191 191 191 
99 99 99 
89 89 89 
86 86 86 
57 57 57 
71 71 71 
89 89 89 
76 76 76 
37 37 37 
42 42 42 
37 37 37 
42 42 42 
46 46 46 
64 64 64 
90 90 90 
76 76 76 
84 84 84 
86 86 86 
58 58 58 
31 31 31 
33 33 33 
33 33 33 
64 64 64 
84 84 84 
93 93 93 
98 98 98 
99 99 99 
85 85 85 
55 55 55 
66 66 66 
62 62 62 
84 84 84 
93 93 93 
103 103 103 
102 102 102 
105 105 105 
94 94 94 
86 86 86 
91 91 91 
92 92 92 
87 87 87 
72 72 72 
65 65 65 
70 70 70 
77 77 77 
79 79 79 
79 79 79 
88 88 88 
87 87 87 
81 81 81 
88 88 88 
121 121 121 
111 111 111 
112 112 112 
140 140 140 
146 146 146 
117 117 117 
193 193 193 
173 173 173 
147 147 147 
61 61 61 
155 155 155 
136 136 136 
80 80 80 
34 34 34 
47 47 47 
127 127 127 
165 165 165 
155 155 155 
155 155 155 
144 144 144 
72 72 72 
127 127 127 
90 90 90 
135 135 135 
118 118 118 
50 50 50 
76 76 76 
85 85 85 
104 104 104 
132 132 132 
176 176 176 
190 190 190 
213 213 213 
224 224 224 
228 228 228 
217 217 217 
198 198 198 
227 227 227 
230 230 230 
220 220 220 
208 208 208 
201 201 201 
197 197 197 
192 192 192 
199 199 199 
212 212 212 
214 214 214 
216 216 216 
218 218 218 
211 211 211 
212 212 212 
198 198 198 
189 189 189 
187 187 187 
191 191 191 
203 203 203 
193 193 193 
159 159 159 
177 177 177 
204 204 204 
163 163 163 
169 169 169 
162 162 162 
161 161 161 
149 149 149 
157 157 157 
141 141 141 
111 111 111 
155 155 155 
138 138 138 
103 103 103 
75 75 75 
53 53 53 
53 53 53 
91 91 91 
139 139 139 
169 169 169 
174 174 174 
77 77 77 
94 94 94 
89 89 89 
79 79 79 
62 62 62 
46 46 46 
37 37 37 
37 37 37 
44 44 44 
39 39 39 
42 42 42 
46 46 46 
68 68 68 
91 91 91 
79 79 79 
84 84 84 
82 82 82 
22 22 22 
34 34 34 
41 41 41 
43 43 43 
63 63 63 
83 83 83 
89 89 89 
94 94 94 
96 96 96 
57 57 57 
56 56 56 
59 59 59 
66 66 66 
78 78 78 
89 89 89 
98 98 98 
104 104 104 
98 98 98 
83 83 83 
90 90 90 
88 88 88 
83 83 83 
87 87 87 
89 89 89 
63 63 63 
68 68 68 
67 67 67 
71 71 71 
81 81 81 
76 76 76 
76 76 76 
82 82 82 
141 141 141 
147 147 147 
132 132 132 
148 148 148 
153 153 153 
176 176 176 
140 140 140 
143 143 143 
163 163 163 
139 139 139 
77 77 77 
181 181 181 
158 158 158 
78 78 78 
51 51 51 
66 66 66 
120 120 120 
167 167 167 
157 157 157 
154 154 154 
125 125 125 
64 64 64 
71 71 71 
63 63 63 
111 111 111 
137 137 137 
60 60 60 
109 109 109 
113 113 113 
102 102 102 
104 104 104 
155 155 155 
163 163 163 
202 202 202 
230 230 230 
229 229 229 
183 183 183 
184 184 184 
201 201 201 
210 210 210 
223 223 223 
216 216 216 
206 206 206 
204 204 204 
201 201 201 
204 204 204 
204 204 204 
205 205 205 
207 207 207 
203 203 203 
194 194 194 
193 193 193 
192 192 192 
184 184 184 
174 174 174 
158 158 158 
132 132 132 
128 128 128 
138 138 138 
130 130 130 
150 150 150 
159 159 159 
152 152 152 
145 145 145 
163 163 163 
121 121 121 
109 109 109 
93 93 93 
141 141 141 
151 151 151 
127 127 127 
106 106 106 
99 99 99 
121 121 121 
110 110 110 
116 116 116 
149 149 149 
161 161 161 
162 162 162 
90 90 90 
90 90 90 
82 82 82 
78 78 78 
68 68 68 
54 54 54 
54 54 54 
56 56 56 
51 51 51 
44 44 44 
39 39 39 
45 45 45 
69 69 69 
87 87 87 
76 76 76 
83 83 83 
53 53 53 
28 28 28 
31 31 31 
39 39 39 
47 47 47 
71 71 71 
86 86 86 
93 93 93 
92 92 92 
78 78 78 
46 46 46 
55 55 55 
52 52 52 
67 67 67 
79 79 79 
93 93 93 
100 100 100 
100 100 100 
71 71 71 
79 79 79 
87 87 87 
72 72 72 
113 113 113 
134 134 134 
139 139 139 
114 114 114 
80 80 80 
73 73 73 
81 81 81 
72 72 72 
72 72 72 
73 73 73 
115 115 115 
153 153 153 
133 133 133 
99 99 99 
167 167 167 
154 154 154 
187 187 187 
148 148 148 
143 143 143 
142 142 142 
114 114 114 
118 118 118 
167 167 167 
137 137 137 
98 98 98 
77 77 77 
91 91 91 
110 110 110 
125 125 125 
110 110 110 
110 110 110 
111 111 111 
119 119 119 
121 121 121 
107 107 107 
99 99 99 
99 99 99 
62 62 62 
144 144 144 
176 176 176 
170 170 170 
133 133 133 
158 158 158 
165 165 165 
141 141 141 
213 213 213 
210 210 210 
162 162 162 
177 177 177 
196 196 196 
195 195 195 
208 208 208 
207 207 207 
196 196 196 
193 193 193 
194 194 194 
200 200 200 
200 200 200 
201 201 201 
206 206 206 
201 201 201 
187 187 187 
186 186 186 
184 184 184 
179 179 179 
175 175 175 
170 170 170 
160 160 160 
140 140 140 
127 127 127 
136 136 136 
107 107 107 
98 98 98 
110 110 110 
135 135 135 
134 134 134 
95 95 95 
102 102 102 
127 127 127 
135 135 135 
121 121 121 
114 114 114 
109 109 109 
130 130 130 
169 169 169 
155 155 155 
137 137 137 
161 161 161 
166 166 166 
143 143 143 
83 83 83 
74 74 74 
76 76 76 
83 83 83 
80 80 80 
76 76 76 
65 65 65 
51 51 51 
46 46 46 
47 47 47 
46 46 46 
45 45 45 
70 70 70 
90 90 90 
77 77 77 
80 80 80 
37 37 37 
31 31 31 
39 39 39 
41 41 41 
54 54 54 
71 71 71 
82 82 82 
91 91 91 
89 89 89 
61 61 61 
53 53 53 
52 52 52 
55 55 55 
70 70 70 
81 81 81 
95 95 95 
99 99 99 
76 76 76 
73 73 73 
78 78 78 
92 92 92 
145 145 145 
171 171 171 
162 162 162 
159 159 159 
144 144 144 
128 128 128 
119 119 119 
83 83 83 
72 72 72 
68 68 68 
125 125 125 
146 146 146 
143 143 143 
88 88 88 
79 79 79 
169 169 169 
123 123 123 
149 149 149 
132 132 132 
119 119 119 
141 141 141 
153 153 153 
163 163 163 
153 153 153 
125 125 125 
129 129 129 
121 121 121 
129 129 129 
145 145 145 
152 152 152 
146 146 146 
141 141 141 
146 146 146 
150 150 150 
160 160 160 
165 165 165 
161 161 161 
108 108 108 
116 116 116 
139 139 139 
144 144 144 
169 169 169 
147 147 147 
171 171 171 
151 151 151 
90 90 90 
125 125 125 
171 171 171 
166 166 166 
171 171 171 
178 178 178 
179 179 179 
184 184 184 
170 170 170 
166 166 166 
179 179 179 
203 203 203 
221 221 221 
220 220 220 
210 210 210 
188 188 188 
172 172 172 
192 192 192 
192 192 192 
184 184 184 
166 166 166 
170 170 170 
185 185 185 
193 193 193 
186 186 186 
181 181 181 
129 129 129 
74 74 74 
61 61 61 
71 71 71 
66 66 66 
74 74 74 
82 82 82 
83 83 83 
99 99 99 
109 109 109 
124 124 124 
141 141 141 
144 144 144 
156 156 156 
163 163 163 
164 164 164 
167 167 167 
170 170 170 
162 162 162 
143 143 143 
95 95 95 
83 83 83 
82 82 82 
79 79 79 
78 78 78 
76 76 76 
72 72 72 
75 75 75 
51 51 51 
47 47 47 
56 56 56 
62 62 62 
73 73 73 
88 88 88 
78 78 78 
66 66 66 
65 65 65 
56 56 56 
38 38 38 
52 52 52 
62 62 62 
71 71 71 
80 80 80 
89 89 89 
84 84 84 
68 68 68 
73 73 73 
64 64 64 
65 65 65 
75 75 75 
86 86 86 
97 97 97 
76 76 76 
69 69 69 
89 89 89 
134 134 134 
169 169 169 
179 179 179 
183 183 183 
179 179 179 
168 168 168 
158 158 158 
154 154 154 
141 141 141 
146 146 146 
144 144 144 
155 155 155 
167 167 167 
171 171 171 
148 148 148 
110 110 110 
133 133 133 
124 124 124 
129 129 129 
163 163 163 
85 85 85 
112 112 112 
153 153 153 
154 154 154 
182 182 182 
160 160 160 
138 138 138 
157 157 157 
155 155 155 
159 159 159 
159 159 159 
176 176 176 
167 167 167 
154 154 154 
156 156 156 
151 151 151 
167 167 167 
175 175 175 
171 171 171 
171 171 171 
175 175 175 
181 181 181 
174 174 174 
178 178 178 
175 175 175 
141 141 141 
109 109 109 
107 107 107 
76 76 76 
170 170 170 
184 184 184 
184 184 184 
164 164 164 
157 157 157 
141 141 141 
158 158 158 
167 167 167 
182 182 182 
198 198 198 
199 199 199 
169 169 169 
173 173 173 
176 176 176 
169 169 169 
184 184 184 
185 185 185 
178 178 178 
174 174 174 
182 182 182 
173 173 173 
153 153 153 
149 149 149 
144 144 144 
93 93 93 
70 70 70 
48 48 48 
67 67 67 
51 51 51 
69 69 69 
76 76 76 
68 68 68 
70 70 70 
107 107 107 
143 143 143 
144 144 144 
155 155 155 
165 165 165 
168 168 168 
177 177 177 
186 186 186 
181 181 181 
170 170 170 
165 165 165 
105 105 105 
103 103 103 
83 83 83 
78 78 78 
83 83 83 
80 80 80 
81 81 81 
77 77 77 
80 80 80 
83 83 83 
87 87 87 
85 85 85 
85 85 85 
96 96 96 
86 86 86 
66 66 66 
78 78 78 
85 85 85 
73 73 73 
60 60 60 
68 68 68 
77 77 77 
88 88 88 
71 71 71 
76 76 76 
74 74 74 
81 81 81 
70 70 70 
64 64 64 
76 76 76 
88 88 88 
74 74 74 
83 83 83 
137 137 137 
158 158 158 
155 155 155 
172 172 172 
184 184 184 
188 188 188 
188 188 188 
173 173 173 
164 164 164 
169 169 169 
162 162 162 
153 153 153 
137 137 137 
152 152 152 
160 160 160 
154 154 154 
163 163 163 
135 135 135 
144 144 144 
80 80 80 
157 157 157 
149 149 149 
78 78 78 
121 121 121 
167 167 167 
135 135 135 
171 171 171 
122 122 122 
143 143 143 
177 177 177 
140 140 140 
155 155 155 
186 186 186 
187 187 187 
180 180 180 
147 147 147 
101 101 101 
115 115 115 
115 115 115 
130 130 130 
124 124 124 
119 119 119 
123 123 123 
148 148 148 
149 149 149 
157 157 157 
131 131 131 
81 81 81 
31 31 31 
87 87 87 
65 65 65 
79 79 79 
132 132 132 
145 145 145 
121 121 121 
98 98 98 
112 112 112 
121 121 121 
109 109 109 
162 162 162 
206 206 206 
174 174 174 
160 160 160 
165 165 165 
170 170 170 
165 165 165 
171 171 171 
176 176 176 
170 170 170 
175 175 175 
181 181 181 
173 173 173 
158 158 158 
114 114 114 
89 89 89 
64 64 64 
76 76 76 
65 65 65 
63 63 63 
67 67 67 
104 104 104 
120 120 120 
117 117 117 
129 129 129 
132 132 132 
154 154 154 
155 155 155 
157 157 157 
165 165 165 
173 173 173 
180 180 180 
184 184 184 
175 175 175 
165 165 165 
160 160 160 
159 159 159 
168 168 168 
142 142 142 
110 110 110 
101 101 101 
108 108 108 
114 114 114 
127 127 127 
136 136 136 
147 147 147 
156 156 156 
158 158 158 
160 160 160 
160 160 160 
132 132 132 
78 78 78 
89 89 89 
84 84 84 
77 77 77 
77 77 77 
78 78 78 
79 79 79 
72 72 72 
67 67 67 
79 79 79 
89 89 89 
83 83 83 
86 86 86 
87 87 87 
82 82 82 
72 72 72 
109 109 109 
147 147 147 
162 162 162 
170 170 170 
169 169 169 
176 176 176 
179 179 179 
183 183 183 
184 184 184 
176 176 176 
162 162 162 
156 156 156 
170 170 170 
169 169 169 
163 163 163 
168 168 168 
172 172 172 
172 172 172 
178 178 178 
150 150 150 
82 82 82 
99 99 99 
161 161 161 
139 139 139 
100 100 100 
131 131 131 
187 187 187 
176 176 176 
154 154 154 
123 123 123 
146 146 146 
161 161 161 
100 100 100 
106 106 106 
126 126 126 
140 140 140 
114 114 114 
99 99 99 
96 96 96 
99 99 99 
117 117 117 
133 133 133 
110 110 110 
101 101 101 
105 105 105 
119 119 119 
114 114 114 
137 137 137 
117 117 117 
91 91 91 
57 57 57 
98 98 98 
67 67 67 
43 43 43 
55 55 55 
78 78 78 
65 65 65 
77 77 77 
105 105 105 
123 123 123 
127 127 127 
184 184 184 
227 227 227 
192 192 192 
182 182 182 
184 184 184 
180 180 180 
183 183 183 
190 190 190 
194 194 194 
187 187 187 
181 181 181 
169 169 169 
149 149 149 
132 132 132 
107 107 107 
118 118 118 
97 97 97 
93 93 93 
72 72 72 
81 81 81 
95 95 95 
124 124 124 
135 135 135 
140 140 140 
143 143 143 
119 119 119 
148 148 148 
163 163 163 
169 169 169 
176 176 176 
183 183 183 
182 182 182 
171 171 171 
161 161 161 
145 145 145 
130 130 130 
158 158 158 
169 169 169 
181 181 181 
172 172 172 
169 169 169 
170 170 170 
173 173 173 
174 174 174 
172 172 172 
171 171 171 
171 171 171 
171 171 171 
171 171 171 
168 168 168 
165 165 165 
97 97 97 
81 81 81 
70 70 70 
67 67 67 
72 72 72 
80 80 80 
72 72 72 
76 76 76 
84 84 84 
84 84 84 
87 87 87 
103 103 103 
81 81 81 
82 82 82 
107 107 107 
138 138 138 
148 148 148 
150 150 150 
166 166 166 
176 176 176 
176 176 176 
183 183 183 
183 183 183 
187 187 187 
187 187 187 
187 187 187 
180 180 180 
157 157 157 
146 146 146 
153 153 153 
160 160 160 
164 164 164 
172 172 172 
162 162 162 
160 160 160 
120 120 120 
67 67 67 
97 97 97 
173 173 173 
141 141 141 
106 106 106 
138 138 138 
165 165 165 
165 165 165 
166 166 166 
155 155 155 
144 144 144 
98 98 98 
93 93 93 
109 109 109 
112 112 112 
109 109 109 
106 106 106 
98 98 98 
111 111 111 
120 120 120 
124 124 124 
122 122 122 
108 108 108 
106 106 106 
111 111 111 
103 103 103 
108 108 108 
104 104 104 
99 99 99 
90 90 90 
92 92 92 
106 106 106 
55 55 55 
46 46 46 
43 43 43 
42 42 42 
50 50 50 
64 64 64 
98 98 98 
145 145 145 
173 173 173 
212 212 212 
218 218 218 
190 190 190 
196 196 196 
191 191 191 
184 184 184 
196 196 196 
201 201 201 
201 201 201 
178 178 178 
148 148 148 
134 134 134 
136 136 136 
140 140 140 
105 105 105 
84 84 84 
75 75 75 
85 85 85 
84 84 84 
100 100 100 
112 112 112 
121 121 121 
126 126 126 
127 127 127 
119 119 119 
84 84 84 
96 96 96 
129 129 129 
153 153 153 
164 164 164 
165 165 165 
154 154 154 
141 141 141 
129 129 129 
111 111 111 
104 104 104 
93 93 93 
110 110 110 
156 156 156 
159 159 159 
177 177 177 
176 176 176 
174 174 174 
178 178 178 
177 177 177 
175 175 175 
171 171 171 
170 170 170 
172 172 172 
172 172 172 
167 167 167 
126 126 126 
140 140 140 
93 93 93 
79 79 79 
75 75 75 
73 73 73 
79 79 79 
83 83 83 
80 80 80 
87 87 87 
85 85 85 
88 88 88 
125 125 125 
152 152 152 
154 154 154 
155 155 155 
160 160 160 
152 152 152 
140 140 140 
174 174 174 
177 177 177 
181 181 181 
181 181 181 
177 177 177 
175 175 175 
178 178 178 
177 177 177 
171 171 171 
160 160 160 
136 136 136 
117 117 117 
140 140 140 
153 153 153 
140 140 140 
132 132 132 
95 95 95 
71 71 71 
75 75 75 
152 152 152 
132 132 132 
123 123 123 
147 147 147 
174 174 174 
174 174 174 
184 184 184 
150 150 150 
105 105 105 
89 89 89 
108 108 108 
99 99 99 
108 108 108 
124 124 124 
124 124 124 
116 116 116 
120 120 120 
112 112 112 
121 121 121 
111 111 111 
98 98 98 
94 94 94 
92 92 92 
96 96 96 
98 98 98 
93 93 93 
86 86 86 
76 76 76 
65 65 65 
57 57 57 
60 60 60 
38 38 38 
32 32 32 
33 33 33 
44 44 44 
62 62 62 
98 98 98 
154 154 154 
182 182 182 
201 201 201 
204 204 204 
196 196 196 
198 198 198 
184 184 184 
177 177 177 
186 186 186 
185 185 185 
181 181 181 
177 177 177 
173 173 173 
171 171 171 
165 165 165 
153 153 153 
132 132 132 
88 88 88 
88 88 88 
94 94 94 
109 109 109 
125 125 125 
132 132 132 
134 134 134 
138 138 138 
148 148 148 
134 134 134 
96 96 96 
79 79 79 
70 70 70 
90 90 90 
115 115 115 
122 122 122 
124 124 124 
120 120 120 
117 117 117 
98 98 98 
81 81 81 
78 78 78 
83 83 83 
93 93 93 
112 112 112 
139 139 139 
164 164 164 
172 172 172 
174 174 174 
166 166 166 
164 164 164 
169 169 169 
173 173 173 
177 177 177 
176 176 176 
176 176 176 
173 173 173 
110 110 110 
79 79 79 
75 75 75 
75 75 75 
71 71 71 
69 69 69 
79 79 79 
83 83 83 
81 81 81 
130 130 130 
162 162 162 
167 167 167 
165 165 165 
168 168 168 
165 165 165 
162 162 162 
136 136 136 
124 124 124 
168 168 168 
167 167 167 
175 175 175 
177 177 177 
175 175 175 
173 173 173 
179 179 179 
182 182 182 
180 180 180 
167 167 167 
107 107 107 
94 94 94 
133 133 133 
167 167 167 
136 136 136 
114 114 114 
81 81 81 
55 55 55 
94 94 94 
162 162 162 
159 159 159 
113 113 113 
145 145 145 
176 176 176 
163 163 163 
146 146 146 
111 111 111 
81 81 81 
103 103 103 
99 99 99 
105 105 105 
111 111 111 
136 136 136 
142 142 142 
121 121 121 
121 121 121 
102 102 102 
108 108 108 
95 95 95 
143 143 143 
133 133 133 
111 111 111 
111 111 111 
90 90 90 
72 72 72 
83 83 83 
70 70 70 
76 76 76 
60 60 60 
43 43 43 
50 50 50 
46 46 46 
39 39 39 
50 50 50 
59 59 59 
77 77 77 
152 152 152 
179 179 179 
199 199 199 
215 215 215 
184 184 184 
183 183 183 
177 177 177 
175 175 175 
180 180 180 
177 177 177 
168 168 168 
161 161 161 
149 149 149 
125 125 125 
113 113 113 
114 114 114 
95 95 95 
99 99 99 
104 104 104 
104 104 104 
116 116 116 
133 133 133 
137 137 137 
136 136 136 
138 138 138 
137 137 137 
123 123 123 
116 116 116 
98 98 98 
76 76 76 
105 105 105 
116 116 116 
107 107 107 
104 104 104 
99 99 99 
93 93 93 
85 85 85 
97 97 97 
54 54 54 
47 47 47 
69 69 69 
100 100 100 
123 123 123 
140 140 140 
151 151 151 
155 155 155 
153 153 153 
150 150 150 
142 142 142 
164 164 164 
180 180 180 
180 180 180 
181 181 181 
174 174 174 
108 108 108 
72 72 72 
76 76 76 
69 69 69 
68 68 68 
71 71 71 
97 97 97 
141 141 141 
170 170 170 
170 170 170 
169 169 169 
169 169 169 
170 170 170 
170 170 170 
165 165 165 
152 152 152 
138 138 138 
128 128 128 
153 153 153 
165 165 165 
171 171 171 
171 171 171 
172 172 172 
178 178 178 
174 174 174 
175 175 175 
171 171 171 
120 120 120 
86 86 86 
92 92 92 
118 118 118 
140 140 140 
121 121 121 
116 116 116 
105 105 105 
92 92 92 
79 79 79 
108 108 108 
108 108 108 
105 105 105 
122 122 122 
120 120 120 
114 114 114 
131 131 131 
146 146 146 
78 78 78 
87 87 87 
107 107 107 
146 146 146 
123 123 123 
135 135 135 
135 135 135 
122 122 122 
116 116 116 
108 108 108 
92 92 92 
88 88 88 
90 90 90 
86 86 86 
87 87 87 
134 134 134 
146 146 146 
97 97 97 
55 55 55 
81 81 81 
62 62 62 
60 60 60 
33 33 33 
39 39 39 
38 38 38 
48 48 48 
48 48 48 
49 49 49 
96 96 96 
160 160 160 
177 177 177 
194 194 194 
188 188 188 
157 157 157 
177 177 177 
175 175 175 
172 172 172 
161 161 161 
148 148 148 
133 133 133 
110 110 110 
83 83 83 
76 76 76 
93 93 93 
104 104 104 
81 81 81 
95 95 95 
93 93 93 
82 82 82 
103 103 103 
111 111 111 
109 109 109 
108 108 108 
104 104 104 
103 103 103 
104 104 104 
100 100 100 
84 84 84 
94 94 94 
94 94 94 
87 87 87 
83 83 83 
81 81 81 
93 93 93 
112 112 112 
124 124 124 
124 124 124 
23 23 23 
34 34 34 
66 66 66 
101 101 101 
124 124 124 
141 141 141 
150 150 150 
155 155 155 
154 154 154 
148 148 148 
137 137 137 
158 158 158 
173 173 173 
174 174 174 
172 172 172 
160 160 160 
144 144 144 
102 102 102 
83 83 83 
85 85 85 
106 106 106 
132 132 132 
145 145 145 
159 159 159 
167 167 167 
171 171 171 
168 168 168 
167 167 167 
160 160 160 
156 156 156 
159 159 159 
158 158 158 
147 147 147 
142 142 142 
143 143 143 
155 155 155 
164 164 164 
176 176 176 
177 177 177 
176 176 176 
180 180 180 
185 185 185 
176 176 176 
117 117 117 
136 136 136 
126 126 126 
125 125 125 
144 144 144 
150 150 150 
164 164 164 
180 180 180 
192 192 192 
193 193 193 
147 147 147 
39 39 39 
68 68 68 
74 74 74 
85 85 85 
130 130 130 
157 157 157 
163 163 163 
139 139 139 
118 118 118 
184 184 184 
211 211 211 
185 185 185 
174 174 174 
169 169 169 
123 123 123 
104 104 104 
100 100 100 
76 76 76 
78 78 78 
95 95 95 
80 80 80 
114 114 114 
160 160 160 
154 154 154 
72 72 72 
61 61 61 
51 51 51 
56 56 56 
42 42 42 
36 36 36 
43 43 43 
45 45 45 
43 43 43 
37 37 37 
72 72 72 
141 141 141 
174 174 174 
181 181 181 
175 175 175 
118 118 118 
156 156 156 
166 166 166 
144 144 144 
113 113 113 
94 94 94 
85 85 85 
98 98 98 
107 107 107 
94 94 94 
68 68 68 
100 100 100 
102 102 102 
73 73 73 
80 80 80 
70 70 70 
80 80 80 
84 84 84 
84 84 84 
86 86 86 
83 83 83 
81 81 81 
82 82 82 
89 89 89 
81 81 81 
81 81 81 
83 83 83 
79 79 79 
88 88 88 
106 106 106 
130 130 130 
143 143 143 
141 141 141 
133 133 133 
125 125 125 
27 27 27 
34 34 34 
66 66 66 
102 102 102 
125 125 125 
141 141 141 
150 150 150 
154 154 154 
152 152 152 
143 143 143 
131 131 131 
116 116 116 
103 103 103 
85 85 85 
66 66 66 
51 51 51 
43 43 43 
48 48 48 
57 57 57 
48 48 48 
57 57 57 
65 65 65 
74 74 74 
94 94 94 
127 127 127 
143 143 143 
143 143 143 
117 117 117 
89 89 89 
128 128 128 
144 144 144 
139 139 139 
130 130 130 
142 142 142 
144 144 144 
148 148 148 
162 162 162 
161 161 161 
171 171 171 
172 172 172 
174 174 174 
174 174 174 
147 147 147 
139 139 139 
155 155 155 
133 133 133 
140 140 140 
151 151 151 
173 173 173 
180 180 180 
177 177 177 
171 171 171 
204 204 204 
195 195 195 
172 172 172 
145 145 145 
122 122 122 
126 126 126 
132 132 132 
167 167 167 
176 176 176 
187 187 187 
195 195 195 
206 206 206 
214 214 214 
208 208 208 
180 180 180 
137 137 137 
117 117 117 
99 99 99 
101 101 101 
132 132 132 
124 124 124 
145 145 145 
120 120 120 
81 81 81 
105 105 105 
166 166 166 
113 113 113 
91 91 91 
68 68 68 
52 52 52 
45 45 45 
37 37 37 
35 35 35 
29 29 29 
34 34 34 
71 71 71 
116 116 116 
153 153 153 
166 166 166 
175 175 175 
174 174 174 
130 130 130 
122 122 122 
93 93 93 
64 64 64 
69 69 69 
63 63 63 
73 73 73 
74 74 74 
67 67 67 
63 63 63 
57 57 57 
68 68 68 
63 63 63 
60 60 60 
53 53 53 
60 60 60 
81 81 81 
88 88 88 
90 90 90 
88 88 88 
84 84 84 
78 78 78 
75 75 75 
98 98 98 
110 110 110 
120 120 120 
130 130 130 
142 142 142 
154 154 154 
160 160 160 
159 159 159 
149 149 149 
136 136 136 
126 126 126 
119 119 119 
32 32 32 
40 40 40 
68 68 68 
102 102 102 
125 125 125 
142 142 142 
151 151 151 
152 152 152 
146 146 146 
135 135 135 
121 121 121 
107 107 107 
90 90 90 
74 74 74 
60 60 60 
51 51 51 
49 49 49 
46 46 46 
47 47 47 
52 52 52 
56 56 56 
61 61 61 
68 68 68 
77 77 77 
77 77 77 
74 74 74 
67 67 67 
61 61 61 
58 58 58 
61 61 61 
73 73 73 
72 72 72 
88 88 88 
104 104 104 
94 94 94 
84 84 84 
119 119 119 
145 145 145 
148 148 148 
150 150 150 
160 160 160 
161 161 161 
142 142 142 
141 141 141 
123 123 123 
125 125 125 
135 135 135 
158 158 158 
151 151 151 
187 187 187 
173 173 173 
190 190 190 
181 181 181 
182 182 182 
191 191 191 
198 198 198 
195 195 195 
193 193 193 
176 176 176 
145 145 145 
179 179 179 
196 196 196 
197 197 197 
206 206 206 
196 196 196 
199 199 199 
190 190 190 
153 153 153 
108 108 108 
98 98 98 
99 99 99 
139 139 139 
155 155 155 
148 148 148 
134 134 134 
87 87 87 
84 84 84 
167 167 167 
146 146 146 
120 120 120 
125 125 125 
78 78 78 
65 65 65 
43 43 43 
30 30 30 
33 33 33 
44 44 44 
95 95 95 
124 124 124 
144 144 144 
150 150 150 
177 177 177 
186 186 186 
150 150 150 
81 81 81 
58 58 58 
47 47 47 
57 57 57 
52 52 52 
53 53 53 
49 49 49 
38 38 38 
32 32 32 
30 30 30 
32 32 32 
54 54 54 
71 71 71 
89 89 89 
102 102 102 
106 106 106 
101 101 101 
96 96 96 
94 94 94 
90 90 90 
101 101 101 
126 126 126 
148 148 148 
159 159 159 
163 163 163 
165 165 165 
164 164 164 
162 162 162 
158 158 158 
152 152 152 
140 140 140 
124 124 124 
111 111 111 
103 103 103 
37 37 37 
48 48 48 
73 73 73 
105 105 105 
125 125 125 
141 141 141 
149 149 149 
148 148 148 
138 138 138 
124 124 124 
110 110 110 
94 94 94 
78 78 78 
68 68 68 
60 60 60 
60 60 60 
62 62 62 
60 60 60 
58 58 58 
56 56 56 
57 57 57 
61 61 61 
67 67 67 
73 73 73 
75 75 75 
71 71 71 
68 68 68 
65 65 65 
66 66 66 
72 72 72 
77 77 77 
78 78 78 
76 76 76 
76 76 76 
80 80 80 
84 84 84 
88 88 88 
117 117 117 
119 119 119 
124 124 124 
146 146 146 
148 148 148 
155 155 155 
141 141 141 
162 162 162 
161 161 161 
165 165 165 
137 137 137 
177 177 177 
175 175 175 
156 156 156 
155 155 155 
160 160 160 
170 170 170 
184 184 184 
176 176 176 
186 186 186 
176 176 176 
156 156 156 
176 176 176 
161 161 161 
188 188 188 
203 203 203 
202 202 202 
199 199 199 
208 208 208 
179 179 179 
156 156 156 
88 88 88 
101 101 101 
129 129 129 
142 142 142 
168 168 168 
143 143 143 
82 82 82 
38 38 38 
36 36 36 
107 107 107 
121 121 121 
86 86 86 
143 143 143 
128 128 128 
97 97 97 
84 84 84 
48 48 48 
41 41 41 
56 56 56 
98 98 98 
121 121 121 
127 127 127 
133 133 133 
150 150 150 
146 146 146 
100 100 100 
52 52 52 
36 36 36 
35 35 35 
38 38 38 
33 33 33 
34 34 34 
30 30 30 
23 23 23 
22 22 22 
28 28 28 
48 48 48 
74 74 74 
91 91 91 
110 110 110 
116 116 116 
105 105 105 
87 87 87 
83 83 83 
92 92 92 
114 114 114 
128 128 128 
146 146 146 
159 159 159 
163 163 163 
168 168 168 
164 164 164 
159 159 159 
152 152 152 
148 148 148 
141 141 141 
126 126 126 
108 108 108 
92 92 92 
85 85 85 
43 43 43 
53 53 53 
81 81 81 
108 108 108 
127 127 127 
140 140 140 
145 145 145 
141 141 141 
129 129 129 
114 114 114 
98 98 98 
82 82 82 
73 73 73 
70 70 70 
70 70 70 
74 74 74 
77 77 77 
73 73 73 
68 68 68 
65 65 65 
64 64 64 
68 68 68 
71 71 71 
74 74 74 
77 77 77 
80 80 80 
81 81 81 
80 80 80 
85 85 85 
92 92 92 
95 95 95 
93 93 93 
86 86 86 
82 82 82 
82 82 82 
83 83 83 
88 88 88 
93 93 93 
109 109 109 
119 119 119 
160 160 160 
177 177 177 
169 169 169 
159 159 159 
169 169 169 
172 172 172 
171 171 171 
162 162 162 
154 154 154 
132 132 132 
124 124 124 
140 140 140 
125 125 125 
145 145 145 
151 151 151 
185 185 185 
189 189 189 
193 193 193 
180 180 180 
108 108 108 
120 120 120 
162 162 162 
184 184 184 
198 198 198 
207 207 207 
178 178 178 
176 176 176 
135 135 135 
125 125 125 
119 119 119 
174 174 174 
162 162 162 
125 125 125 
96 96 96 
99 99 99 
54 54 54 
47 47 47 
42 42 42 
35 35 35 
67 67 67 
87 87 87 
62 62 62 
39 39 39 
28 28 28 
28 28 28 
44 44 44 
83 83 83 
112 112 112 
117 117 117 
112 112 112 
117 117 117 
126 126 126 
94 94 94 
52 52 52 
34 34 34 
30 30 30 
30 30 30 
28 28 28 
31 31 31 
30 30 30 
32 32 32 
27 27 27 
38 38 38 
87 87 87 
110 110 110 
111 111 111 
92 92 92 
93 93 93 
94 94 94 
79 79 79 
73 73 73 
89 89 89 
108 108 108 
119 119 119 
135 135 135 
156 156 156 
173 173 173 
181 181 181 
177 177 177 
178 178 178 
150 150 150 
140 140 140 
135 135 135 
128 128 128 
112 112 112 
93 93 93 
76 76 76 
77 77 77 
44 44 44 
57 57 57 
86 86 86 
111 111 111 
127 127 127 
135 135 135 
137 137 137 
133 133 133 
119 119 119 
104 104 104 
88 88 88 
76 76 76 
73 73 73 
76 76 76 
83 83 83 
88 88 88 
90 90 90 
87 87 87 
79 79 79 
74 74 74 
73 73 73 
75 75 75 
76 76 76 
78 78 78 
88 88 88 
94 94 94 
97 97 97 
98 98 98 
101 101 101 
106 106 106 
107 107 107 
103 103 103 
99 99 99 
92 92 92 
88 88 88 
84 84 84 
107 107 107 
142 142 142 
168 168 168 
161 161 161 
151 151 151 
170 170 170 
176 176 176 
160 160 160 
170 170 170 
169 169 169 
141 141 141 
134 134 134 
122 122 122 
113 113 113 
104 104 104 
83 83 83 
35 35 35 
107 107 107 
128 128 128 
136 136 136 
177 177 177 
189 189 189 
210 210 210 
153 153 153 
83 83 83 
77 77 77 
85 85 85 
120 120 120 
151 151 151 
175 175 175 
183 183 183 
173 173 173 
167 167 167 
181 181 181 
179 179 179 
130 130 130 
99 99 99 
106 106 106 
99 99 99 
110 110 110 
100 100 100 
92 92 92 
57 57 57 
51 51 51 
46 46 46 
41 41 41 
36 36 36 
30 30 30 
28 28 28 
60 60 60 
91 91 91 
99 99 99 
104 104 104 
112 112 112 
117 117 117 
102 102 102 
90 90 90 
93 93 93 
83 83 83 
72 72 72 
70 70 70 
73 73 73 
72 72 72 
69 69 69 
65 65 65 
53 53 53 
42 42 42 
80 80 80 
99 99 99 
95 95 95 
65 65 65 
65 65 65 
81 81 81 
83 83 83 
88 88 88 
104 104 104 
115 115 115 
152 152 152 
177 177 177 
185 185 185 
183 183 183 
183 183 183 
187 187 187 
194 194 194 
144 144 144 
131 131 131 
122 122 122 
117 117 117 
104 104 104 
84 84 84 
75 75 75 
82 82 82 
43 43 43 
56 56 56 
88 88 88 
112 112 112 
121 121 121 
128 128 128 
129 129 129 
123 123 123 
109 109 109 
93 93 93 
79 79 79 
73 73 73 
77 77 77 
85 85 85 
94 94 94 
100 100 100 
104 104 104 
100 100 100 
92 92 92 
85 85 85 
82 82 82 
82 82 82 
82 82 82 
87 87 87 
98 98 98 
105 105 105 
109 109 109 
112 112 112 
114 114 114 
120 120 120 
119 119 119 
115 115 115 
108 108 108 
137 137 137 
135 135 135 
141 141 141 
147 147 147 
162 162 162 
171 171 171 
163 163 163 
166 166 166 
188 188 188 
168 168 168 
117 117 117 
144 144 144 
132 132 132 
98 98 98 
83 83 83 
81 81 81 
105 105 105 
123 123 123 
125 125 125 
114 114 114 
64 64 64 
65 65 65 
87 87 87 
130 130 130 
162 162 162 
177 177 177 
193 193 193 
102 102 102 
42 42 42 
41 41 41 
86 86 86 
90 90 90 
157 157 157 
185 185 185 
180 180 180 
182 182 182 
170 170 170 
130 130 130 
87 87 87 
121 121 121 
134 134 134 
116 116 116 
115 115 115 
113 113 113 
101 101 101 
78 78 78 
67 67 67 
38 38 38 
36 36 36 
39 39 39 
61 61 61 
84 84 84 
98 98 98 
112 112 112 
111 111 111 
112 112 112 
100 100 100 
112 112 112 
121 121 121 
123 123 123 
114 114 114 
99 99 99 
85 85 85 
81 81 81 
76 76 76 
73 73 73 
70 70 70 
63 63 63 
50 50 50 
23 23 23 
14 14 14 
24 24 24 
29 29 29 
36 36 36 
51 51 51 
69 69 69 
90 90 90 
106 106 106 
145 145 145 
178 178 178 
188 188 188 
181 181 181 
155 155 155 
163 163 163 
193 193 193 
211 211 211 
199 199 199 
154 154 154 
124 124 124 
115 115 115 
109 109 109 
114 114 114 
135 135 135 
173 173 173 
208 208 208 
39 39 39 
57 57 57 
88 88 88 
107 107 107 
116 116 116 
119 119 119 
119 119 119 
113 113 113 
99 99 99 
81 81 81 
74 74 74 
75 75 75 
82 82 82 
92 92 92 
101 101 101 
107 107 107 
109 109 109 
107 107 107 
101 101 101 
96 96 96 
94 94 94 
94 94 94 
95 95 95 
100 100 100 
106 106 106 
114 114 114 
116 116 116 
120 120 120 
125 125 125 
130 130 130 
130 130 130 
123 123 123 
139 139 139 
157 157 157 
164 164 164 
162 162 162 
164 164 164 
173 173 173 
175 175 175 
106 106 106 
119 119 119 
114 114 114 
91 91 91 
60 60 60 
78 78 78 
59 59 59 
79 79 79 
92 92 92 
138 138 138 
160 160 160 
161 161 161 
171 171 171 
171 171 171 
154 154 154 
112 112 112 
76 76 76 
124 124 124 
142 142 142 
161 161 161 
171 171 171 
175 175 175 
132 132 132 
48 48 48 
51 51 51 
66 66 66 
136 136 136 
187 187 187 
183 183 183 
147 147 147 
129 129 129 
76 76 76 
127 127 127 
137 137 137 
112 112 112 
107 107 107 
102 102 102 
89 89 89 
94 94 94 
94 94 94 
78 78 78 
62 62 62 
58 58 58 
92 92 92 
114 114 114 
125 125 125 
104 104 104 
84 84 84 
79 79 79 
102 102 102 
124 124 124 
133 133 133 
135 135 135 
127 127 127 
114 114 114 
96 96 96 
75 75 75 
68 68 68 
60 60 60 
57 57 57 
55 55 55 
49 49 49 
38 38 38 
19 19 19 
14 14 14 
16 16 16 
23 23 23 
39 39 39 
59 59 59 
82 82 82 
128 128 128 
176 176 176 
180 180 180 
167 167 167 
119 119 119 
131 131 131 
140 140 140 
152 152 152 
168 168 168 
179 179 179 
199 199 199 
187 187 187 
146 146 146 
154 154 154 
188 188 188 
220 220 220 
238 238 238 
240 240 240 
239 239 239 
34 34 34 
57 57 57 
84 84 84 
102 102 102 
110 110 110 
114 114 114 
113 113 113 
105 105 105 
88 88 88 
74 74 74 
76 76 76 
80 80 80 
89 89 89 
98 98 98 
106 106 106 
111 111 111 
112 112 112 
111 111 111 
109 109 109 
105 105 105 
103 103 103 
104 104 104 
106 106 106 
109 109 109 
114 114 114 
120 120 120 
124 124 124 
128 128 128 
134 134 134 
137 137 137 
134 134 134 
128 128 128 
162 162 162 
142 142 142 
168 168 168 
147 147 147 
122 122 122 
131 131 131 
89 89 89 
40 40 40 
50 50 50 
64 64 64 
104 104 104 
166 166 166 
129 129 129 
85 85 85 
81 81 81 
65 65 65 
68 68 68 
86 86 86 
130 130 130 
170 170 170 
180 180 180 
174 174 174 
179 179 179 
144 144 144 
76 76 76 
93 93 93 
132 132 132 
130 130 130 
150 150 150 
182 182 182 
87 87 87 
45 45 45 
52 52 52 
77 77 77 
139 139 139 
153 153 153 
123 123 123 
92 92 92 
128 128 128 
128 128 128 
83 83 83 
96 96 96 
87 87 87 
96 96 96 
110 110 110 
105 105 105 
99 99 99 
96 96 96 
91 91 91 
70 70 70 
54 54 54 
74 74 74 
96 96 96 
95 95 95 
100 100 100 
121 121 121 
134 134 134 
139 139 139 
140 140 140 
138 138 138 
126 126 126 
109 109 109 
90 90 90 
67 67 67 
54 54 54 
46 46 46 
44 44 44 
43 43 43 
37 37 37 
27 27 27 
17 17 17 
14 14 14 
18 18 18 
26 26 26 
49 49 49 
121 121 121 
160 160 160 
173 173 173 
163 163 163 
171 171 171 
145 145 145 
98 98 98 
104 104 104 
127 127 127 
152 152 152 
171 171 171 
171 171 171 
164 164 164 
167 167 167 
179 179 179 
216 216 216 
233 233 233 
235 235 235 
237 237 237 
237 237 237 
235 235 235 
31 31 31 
56 56 56 
78 78 78 
96 96 96 
105 105 105 
109 109 109 
108 108 108 
99 99 99 
84 84 84 
77 77 77 
78 78 78 
84 84 84 
93 93 93 
103 103 103 
110 110 110 
114 114 114 
115 115 115 
116 116 116 
115 115 115 
113 113 113 
112 112 112 
111 111 111 
111 111 111 
115 115 115 
117 117 117 
122 122 122 
129 129 129 
133 133 133 
136 136 136 
135 135 135 
132 132 132 
138 138 138 
150 150 150 
138 138 138 
110 110 110 
118 118 118 
94 94 94 
109 109 109 
142 142 142 
149 149 149 
107 107 107 
139 139 139 
169 169 169 
122 122 122 
96 96 96 
84 84 84 
73 73 73 
71 71 71 
57 57 57 
67 67 67 
76 76 76 
70 70 70 
132 132 132 
181 181 181 
185 185 185 
182 182 182 
171 171 171 
112 112 112 
93 93 93 
113 113 113 
111 111 111 
158 158 158 
190 190 190 
61 61 61 
75 75 75 
20 20 20 
105 105 105 
160 160 160 
133 133 133 
132 132 132 
98 98 98 
67 67 67 
92 92 92 
81 81 81 
104 104 104 
118 118 118 
115 115 115 
111 111 111 
107 107 107 
101 101 101 
97 97 97 
92 92 92 
89 89 89 
93 93 93 
103 103 103 
115 115 115 
125 125 125 
134 134 134 
142 142 142 
144 144 144 
141 141 141 
135 135 135 
121 121 121 
105 105 105 
84 84 84 
59 59 59 
39 39 39 
32 32 32 
32 32 32 
31 31 31 
27 27 27 
21 21 21 
16 16 16 
18 18 18 
21 21 21 
102 102 102 
174 174 174 
179 179 179 
150 150 150 
150 150 150 
166 166 166 
183 183 183 
190 190 190 
189 189 189 
176 176 176 
178 178 178 
178 178 178 
170 170 170 
170 170 170 
170 170 170 
174 174 174 
213 213 213 
235 235 235 
232 232 232 
231 231 231 
230 230 230 
231 231 231 
227 227 227 
35 35 35 
57 57 57 
75 75 75 
91 91 91 
102 102 102 
105 105 105 
103 103 103 
94 94 94 
85 85 85 
81 81 81 
80 80 80 
86 86 86 
95 95 95 
106 106 106 
112 112 112 
117 117 117 
119 119 119 
121 121 121 
121 121 121 
119 119 119 
116 116 116 
113 113 113 
110 110 110 
111 111 111 
114 114 114 
119 119 119 
124 124 124 
128 128 128 
127 127 127 
127 127 127 
125 125 125 
143 143 143 
157 157 157 
131 131 131 
145 145 145 
154 154 154 
179 179 179 
185 185 185 
171 171 171 
133 133 133 
135 135 135 
125 125 125 
115 115 115 
106 106 106 
138 138 138 
119 119 119 
69 69 69 
75 75 75 
74 74 74 
83 83 83 
73 73 73 
70 70 70 
60 60 60 
94 94 94 
155 155 155 
181 181 181 
194 194 194 
185 185 185 
100 100 100 
102 102 102 
105 105 105 
118 118 118 
168 168 168 
124 124 124 
91 91 91 
22 22 22 
127 127 127 
149 149 149 
121 121 121 
91 91 91 
61 61 61 
71 71 71 
74 74 74 
109 109 109 
121 121 121 
121 121 121 
120 120 120 
117 117 117 
112 112 112 
104 104 104 
98 98 98 
91 91 91 
83 83 83 
89 89 89 
101 101 101 
114 114 114 
127 127 127 
139 139 139 
147 147 147 
145 145 145 
137 137 137 
127 127 127 
113 113 113 
97 97 97 
73 73 73 
49 49 49 
29 29 29 
21 21 21 
24 24 24 
24 24 24 
23 23 23 
22 22 22 
44 44 44 
85 85 85 
147 147 147 
172 172 172 
183 183 183 
202 202 202 
224 224 224 
211 211 211 
194 194 194 
183 183 183 
160 160 160 
156 156 156 
165 165 165 
172 172 172 
176 176 176 
163 163 163 
156 156 156 
161 161 161 
171 171 171 
219 219 219 
225 225 225 
224 224 224 
212 212 212 
211 211 211 
208 208 208 
193 193 193 
41 41 41 
60 60 60 
78 78 78 
92 92 92 
102 102 102 
105 105 105 
102 102 102 
93 93 93 
85 85 85 
79 79 79 
77 77 77 
87 87 87 
97 97 97 
106 106 106 
112 112 112 
119 119 119 
124 124 124 
126 126 126 
124 124 124 
119 119 119 
114 114 114 
109 109 109 
106 106 106 
103 103 103 
104 104 104 
110 110 110 
114 114 114 
116 116 116 
117 117 117 
118 118 118 
117 117 117 
129 129 129 
139 139 139 
167 167 167 
190 190 190 
204 204 204 
193 193 193 
168 168 168 
137 137 137 
123 123 123 
118 118 118 
108 108 108 
107 107 107 
105 105 105 
103 103 103 
94 94 94 
96 96 96 
86 86 86 
78 78 78 
82 82 82 
74 74 74 
66 66 66 
63 63 63 
98 98 98 
125 125 125 
176 176 176 
191 191 191 
187 187 187 
158 158 158 
64 64 64 
101 101 101 
116 116 116 
155 155 155 
160 160 160 
45 45 45 
97 97 97 
130 130 130 
112 112 112 
116 116 116 
101 101 101 
83 83 83 
89 89 89 
101 101 101 
113 113 113 
121 121 121 
125 125 125 
125 125 125 
122 122 122 
116 116 116 
107 107 107 
95 95 95 
83 83 83 
74 74 74 
81 81 81 
98 98 98 
114 114 114 
129 129 129 
141 141 141 
147 147 147 
141 141 141 
131 131 131 
117 117 117 
101 101 101 
80 80 80 
56 56 56 
38 38 38 
24 24 24 
39 39 39 
84 84 84 
108 108 108 
126 126 126 
146 146 146 
144 144 144 
172 172 172 
195 195 195 
200 200 200 
198 198 198 
180 180 180 
156 156 156 
151 151 151 
153 153 153 
151 151 151 
148 148 148 
152 152 152 
150 150 150 
146 146 146 
142 142 142 
141 141 141 
138 138 138 
141 141 141 
146 146 146 
183 183 183 
197 197 197 
202 202 202 
191 191 191 
162 162 162 
146 146 146 
116 116 116 
47 47 47 
63 63 63 
80 80 80 
95 95 95 
103 103 103 
104 104 104 
98 98 98 
89 89 89 
84 84 84 
81 81 81 
81 81 81 
87 87 87 
97 97 97 
106 106 106 
113 113 113 
120 120 120 
125 125 125 
124 124 124 
119 119 119 
113 113 113 
107 107 107 
102 102 102 
97 97 97 
94 94 94 
93 93 93 
97 97 97 
104 104 104 
107 107 107 
110 110 110 
112 112 112 
109 109 109 
146 146 146 
195 195 195 
178 178 178 
147 147 147 
134 134 134 
145 145 145 
166 166 166 
134 134 134 
114 114 114 
119 119 119 
106 106 106 
98 98 98 
88 88 88 
91 91 91 
97 97 97 
87 87 87 
97 97 97 
94 94 94 
103 103 103 
90 90 90 
129 129 129 
155 155 155 
116 116 116 
86 86 86 
103 103 103 
178 178 178 
181 181 181 
184 184 184 
134 134 134 
72 72 72 
113 113 113 
131 131 131 
163 163 163 
128 128 128 
108 108 108 
119 119 119 
109 109 109 
103 103 103 
87 87 87 
85 85 85 
88 88 88 
97 97 97 
109 109 109 
121 121 121 
128 128 128 
131 131 131 
130 130 130 
123 123 123 
111 111 111 
96 96 96 
78 78 78 
67 67 67 
78 78 78 
97 97 97 
113 113 113 
129 129 129 
141 141 141 
145 145 145 
138 138 138 
123 123 123 
107 107 107 
85 85 85 
64 64 64 
91 91 91 
114 114 114 
127 127 127 
141 141 141 
156 156 156 
198 198 198 
200 200 200 
183 183 183 
172 172 172 
163 163 163 
151 151 151 
156 156 156 
151 151 151 
149 149 149 
146 146 146 
145 145 145 
146 146 146 
147 147 147 
148 148 148 
141 141 141 
133 133 133 
125 125 125 
124 124 124 
121 121 121 
118 118 118 
123 123 123 
124 124 124 
122 122 122 
139 139 139 
132 132 132 
117 117 117 
108 108 108 
109 109 109 
103 103 103 
50 50 50 
67 67 67 
82 82 82 
95 95 95 
100 100 100 
100 100 100 
92 92 92 
84 84 84 
81 81 81 
81 81 81 
83 83 83 
89 89 89 
100 100 100 
107 107 107 
113 113 113 
117 117 117 
118 118 118 
115 115 115 
110 110 110 
103 103 103 
95 95 95 
87 87 87 
81 81 81 
79 79 79 
77 77 77 
82 82 82 
91 91 91 
97 97 97 
103 103 103 
107 107 107 
174 174 174 
219 219 219 
196 196 196 
150 150 150 
130 130 130 
121 121 121 
141 141 141 
121 121 121 
109 109 109 
105 105 105 
100 100 100 
91 91 91 
88 88 88 
82 82 82 
89 89 89 
110 110 110 
130 130 130 
121 121 121 
86 86 86 
123 123 123 
154 154 154 
143 143 143 
94 94 94 
100 100 100 
142 142 142 
155 155 155 
165 165 165 
183 183 183 
187 187 187 
170 170 170 
89 89 89 
56 56 56 
115 115 115 
133 133 133 
176 176 176 
120 120 120 
113 113 113 
83 83 83 
78 78 78 
89 89 89 
94 94 94 
95 95 95 
101 101 101 
110 110 110 
121 121 121 
130 130 130 
136 136 136 
136 136 136 
130 130 130 
117 117 117 
103 103 103 
82 82 82 
62 62 62 
70 70 70 
89 89 89 
109 109 109 
126 126 126 
139 139 139 
141 141 141 
133 133 133 
126 126 126 
127 127 127 
137 137 137 
144 144 144 
176 176 176 
193 193 193 
207 207 207 
209 209 209 
186 186 186 
160 160 160 
146 146 146 
146 146 146 
146 146 146 
147 147 147 
149 149 149 
150 150 150 
159 159 159 
147 147 147 
139 139 139 
139 139 139 
142 142 142 
133 133 133 
120 120 120 
116 116 116 
111 111 111 
111 111 111 
105 105 105 
102 102 102 
106 106 106 
111 111 111 
116 116 116 
117 117 117 
108 108 108 
107 107 107 
95 95 95 
89 89 89 
89 89 89 
74 74 74 
61 61 61 
73 73 73 
84 84 84 
92 92 92 
97 97 97 
94 94 94 
85 85 85 
79 79 79 
77 77 77 
79 79 79 
83 83 83 
91 91 91 
101 101 101 
106 106 106 
109 109 109 
110 110 110 
108 108 108 
104 104 104 
96 96 96 
89 89 89 
78 78 78 
69 69 69 
64 64 64 
58 58 58 
59 59 59 
67 67 67 
77 77 77 
83 83 83 
120 120 120 
202 202 202 
232 232 232 
236 236 236 
234 234 234 
216 216 216 
190 190 190 
164 164 164 
124 124 124 
115 115 115 
128 128 128 
105 105 105 
105 105 105 
103 103 103 
101 101 101 
91 91 91 
107 107 107 
111 111 111 
104 104 104 
111 111 111 
106 106 106 
129 129 129 
128 128 128 
99 99 99 
171 171 171 
190 190 190 
178 178 178 
168 168 168 
159 159 159 
182 182 182 
181 181 181 
178 178 178 
135 135 135 
59 59 59 
70 70 70 
101 101 101 
134 134 134 
153 153 153 
93 93 93 
73 73 73 
104 104 104 
117 117 117 
112 112 112 
109 109 109 
115 115 115 
121 121 121 
126 126 126 
133 133 133 
139 139 139 
141 141 141 
133 133 133 
122 122 122 
108 108 108 
87 87 87 
63 63 63 
59 59 59 
77 77 77 
111 111 111 
136 136 136 
143 143 143 
144 144 144 
161 161 161 
191 191 191 
214 214 214 
230 230 230 
219 219 219 
202 202 202 
172 172 172 
152 152 152 
155 155 155 
152 152 152 
152 152 152 
151 151 151 
150 150 150 
163 163 163 
154 154 154 
148 148 148 
142 142 142 
141 141 141 
132 132 132 
129 129 129 
111 111 111 
103 103 103 
103 103 103 
102 102 102 
107 107 107 
101 101 101 
102 102 102 
94 94 94 
94 94 94 
91 91 91 
102 102 102 
94 94 94 
91 91 91 
102 102 102 
76 76 76 
67 67 67 
59 59 59 
52 52 52 
53 53 53 
73 73 73 
80 80 80 
88 88 88 
93 93 93 
93 93 93 
86 86 86 
76 76 76 
72 72 72 
70 70 70 
74 74 74 
83 83 83 
92 92 92 
100 100 100 
103 103 103 
102 102 102 
100 100 100 
95 95 95 
86 86 86 
78 78 78 
72 72 72 
62 62 62 
53 53 53 
47 47 47 
46 46 46 
49 49 49 
57 57 57 
72 72 72 
141 141 141 
209 209 209 
221 221 221 
203 203 203 
208 208 208 
199 199 199 
157 157 157 
126 126 126 
119 119 119 
121 121 121 
118 118 118 
123 123 123 
114 114 114 
111 111 111 
109 109 109 
107 107 107 
101 101 101 
93 93 93 
88 88 88 
99 99 99 
134 134 134 
133 133 133 
153 153 153 
136 136 136 
160 160 160 
171 171 171 
168 168 168 
174 174 174 
177 177 177 
173 173 173 
170 170 170 
168 168 168 
145 145 145 
128 128 128 
58 58 58 
59 59 59 
100 100 100 
136 136 136 
162 162 162 
140 140 140 
124 124 124 
144 144 144 
137 137 137 
131 131 131 
128 128 128 
133 133 133 
136 136 136 
139 139 139 
141 141 141 
143 143 143 
145 145 145 
137 137 137 
125 125 125 
109 109 109 
103 103 103 
115 115 115 
125 125 125 
141 141 141 
163 163 163 
179 179 179 
203 203 203 
218 218 218 
225 225 225 
210 210 210 
193 193 193 
169 169 169 
161 161 161 
158 158 158 
160 160 160 
168 168 168 
173 173 173 
189 189 189 
189 189 189 
178 178 178 
166 166 166 
151 151 151 
133 133 133 
123 123 123 
124 124 124 
118 118 118 
113 113 113 
111 111 111 
101 101 101 
93 93 93 
87 87 87 
94 94 94 
99 99 99 
87 87 87 
83 83 83 
89 89 89 
81 81 81 
74 74 74 
71 71 71 
80 80 80 
88 88 88 
81 81 81 
77 77 77 
52 52 52 
46 46 46 
43 43 43 
35 35 35 
83 83 83 
89 89 89 
93 93 93 
93 93 93 
88 88 88 
79 79 79 
68 68 68 
63 63 63 
63 63 63 
69 69 69 
79 79 79 
91 91 91 
98 98 98 
96 96 96 
93 93 93 
87 87 87 
77 77 77 
65 65 65 
57 57 57 
58 58 58 
54 54 54 
52 52 52 
54 54 54 
56 56 56 
60 60 60 
82 82 82 
187 187 187 
219 219 219 
226 226 226 
185 185 185 
167 167 167 
186 186 186 
183 183 183 
134 134 134 
122 122 122 
117 117 117 
121 121 121 
117 117 117 
116 116 116 
117 117 117 
115 115 115 
114 114 114 
105 105 105 
103 103 103 
109 109 109 
98 98 98 
95 95 95 
127 127 127 
115 115 115 
133 133 133 
116 116 116 
108 108 108 
111 111 111 
131 131 131 
149 149 149 
158 158 158 
148 148 148 
136 136 136 
145 145 145 
130 130 130 
108 108 108 
63 63 63 
68 68 68 
101 101 101 
115 115 115 
131 131 131 
168 168 168 
160 160 160 
157 157 157 
153 153 153 
149 149 149 
145 145 145 
146 146 146 
146 146 146 
145 145 145 
146 146 146 
147 147 147 
146 146 146 
145 145 145 
146 146 146 
142 142 142 
166 166 166 
188 188 188 
201 201 201 
218 218 218 
234 234 234 
215 215 215 
209 209 209 
213 213 213 
206 206 206 
191 191 191 
207 207 207 
216 216 216 
218 218 218 
210 210 210 
223 223 223 
235 235 235 
237 237 237 
229 229 229 
224 224 224 
188 188 188 
177 177 177 
158 158 158 
136 136 136 
138 138 138 
105 105 105 
104 104 104 
100 100 100 
95 95 95 
84 84 84 
82 82 82 
83 83 83 
78 78 78 
77 77 77 
67 67 67 
69 69 69 
74 74 74 
75 75 75 
55 55 55 
52 52 52 
52 52 52 
62 62 62 
58 58 58 
47 47 47 
53 53 53 
36 36 36 
24 24 24 
23 23 23 
94 94 94 
97 97 97 
96 96 96 
92 92 92 
82 82 82 
70 70 70 
57 57 57 
53 53 53 
56 56 56 
64 64 64 
77 77 77 
86 86 86 
88 88 88 
83 83 83 
76 76 76 
67 67 67 
55 55 55 
45 45 45 
43 43 43 
49 49 49 
59 59 59 
69 69 69 
78 78 78 
108 108 108 
183 183 183 
227 227 227 
210 210 210 
209 209 209 
219 219 219 
223 223 223 
218 218 218 
219 219 219 
235 235 235 
234 234 234 
214 214 214 
187 187 187 
145 145 145 
126 126 126 
119 119 119 
123 123 123 
128 128 128 
118 118 118 
109 109 109 
94 94 94 
95 95 95 
102 102 102 
98 98 98 
90 90 90 
118 118 118 
135 135 135 
113 113 113 
103 103 103 
102 102 102 
79 79 79 
108 108 108 
132 132 132 
131 131 131 
156 156 156 
194 194 194 
153 153 153 
163 163 163 
157 157 157 
186 186 186 
209 209 209 
201 201 201 
178 178 178 
165 165 165 
161 161 161 
163 163 163 
163 163 163 
161 161 161 
157 157 157 
154 154 154 
152 152 152 
150 150 150 
156 156 156 
162 162 162 
156 156 156 
190 190 190 
194 194 194 
189 189 189 
201 201 201 
203 203 203 
218 218 218 
180 180 180 
176 176 176 
211 211 211 
236 236 236 
240 240 240 
242 242 242 
244 244 244 
241 241 241 
231 231 231 
234 234 234 
238 238 238 
239 239 239 
237 237 237 
232 232 232 
220 220 220 
204 204 204 
174 174 174 
149 149 149 
133 133 133 
112 112 112 
92 92 92 
88 88 88 
96 96 96 
88 88 88 
81 81 81 
70 70 70 
68 68 68 
78 78 78 
72 72 72 
66 66 66 
60 60 60 
59 59 59 
55 55 55 
53 53 53 
44 44 44 
43 43 43 
40 40 40 
40 40 40 
44 44 44 
35 35 35 
42 42 42 
52 52 52 
76 76 76 
96 96 96 
101 101 101 
103 103 103 
100 100 100 
93 93 93 
78 78 78 
61 61 61 
48 48 48 
46 46 46 
50 50 50 
60 60 60 
70 70 70 
77 77 77 
74 74 74 
70 70 70 
60 60 60 
47 47 47 
35 35 35 
32 32 32 
43 43 43 
60 60 60 
73 73 73 
125 125 125 
186 186 186 
217 217 217 
213 213 213 
212 212 212 
198 198 198 
167 167 167 
147 147 147 
128 128 128 
118 118 118 
113 113 113 
138 138 138 
171 171 171 
202 202 202 
205 205 205 
171 171 171 
164 164 164 
130 130 130 
133 133 133 
175 175 175 
100 100 100 
89 89 89 
90 90 90 
75 75 75 
88 88 88 
107 107 107 
110 110 110 
121 121 121 
114 114 114 
96 96 96 
104 104 104 
131 131 131 
154 154 154 
164 164 164 
152 152 152 
178 178 178 
191 191 191 
218 218 218 
144 144 144 
134 134 134 
169 169 169 
237 237 237 
234 234 234 
229 229 229 
223 223 223 
221 221 221 
203 203 203 
192 192 192 
198 198 198 
200 200 200 
187 187 187 
184 184 184 
182 182 182 
177 177 177 
205 205 205 
207 207 207 
228 228 228 
234 234 234 
204 204 204 
165 165 165 
166 166 166 
203 203 203 
218 218 218 
231 231 231 
238 238 238 
240 240 240 
238 238 238 
239 239 239 
238 238 238 
239 239 239 
239 239 239 
239 239 239 
233 233 233 
226 226 226 
215 215 215 
211 211 211 
199 199 199 
180 180 180 
136 136 136 
97 97 97 
89 89 89 
88 88 88 
86 86 86 
82 82 82 
78 78 78 
76 76 76 
86 86 86 
83 83 83 
65 65 65 
68 68 68 
63 63 63 
66 66 66 
61 61 61 
55 55 55 
47 47 47 
43 43 43 
42 42 42 
44 44 44 
64 64 64 
77 77 77 
45 45 45 
63 63 63 
100 100 100 
120 120 120 
120 120 120 
85 85 85 
40 40 40 
104 104 104 
107 107 107 
103 103 103 
91 91 91 
73 73 73 
56 56 56 
45 45 45 
42 42 42 
45 45 45 
53 53 53 
61 61 61 
64 64 64 
61 61 61 
56 56 56 
48 48 48 
34 34 34 
22 22 22 
30 30 30 
50 50 50 
125 125 125 
203 203 203 
226 226 226 
217 217 217 
202 202 202 
172 172 172 
155 155 155 
139 139 139 
125 125 125 
126 126 126 
122 122 122 
122 122 122 
121 121 121 
129 129 129 
119 119 119 
108 108 108 
142 142 142 
190 190 190 
169 169 169 
163 163 163 
130 130 130 
117 117 117 
113 113 113 
99 99 99 
86 86 86 
78 78 78 
83 83 83 
88 88 88 
128 128 128 
162 162 162 
158 158 158 
145 145 145 
155 155 155 
178 178 178 
188 188 188 
202 202 202 
205 205 205 
187 187 187 
208 208 208 
234 234 234 
195 195 195 
145 145 145 
139 139 139 
172 172 172 
212 212 212 
228 228 228 
234 234 234 
246 246 246 
230 230 230 
213 213 213 
208 208 208 
212 212 212 
202 202 202 
223 223 223 
235 235 235 
238 238 238 
237 237 237 
236 236 236 
236 236 236 
235 235 235 
230 230 230 
221 221 221 
227 227 227 
241 241 241 
242 242 242 
240 240 240 
240 240 240 
240 240 240 
239 239 239 
238 238 238 
234 234 234 
232 232 232 
229 229 229 
221 221 221 
221 221 221 
210 210 210 
199 199 199 
188 188 188 
171 171 171 
163 163 163 
135 135 135 
94 94 94 
80 80 80 
68 68 68 
61 61 61 
61 61 61 
63 63 63 
64 64 64 
68 68 68 
56 56 56 
58 58 58 
56 56 56 
50 50 50 
43 43 43 
48 48 48 
52 52 52 
49 49 49 
51 51 51 
50 50 50 
63 63 63 
85 85 85 
96 96 96 
39 39 39 
35 35 35 
39 39 39 
43 43 43 
37 37 37 
37 37 37 
72 72 72 
106 106 106 
106 106 106 
100 100 100 
86 86 86 
70 70 70 
54 54 54 
43 43 43 
37 37 37 
39 39 39 
46 46 46 
51 51 51 
52 52 52 
49 49 49 
43 43 43 
36 36 36 
28 28 28 
22 22 22 
36 36 36 
136 136 136 
226 226 226 
223 223 223 
192 192 192 
154 154 154 
125 125 125 
109 109 109 
117 117 117 
128 128 128 
133 133 133 
132 132 132 
123 123 123 
129 129 129 
129 129 129 
133 133 133 
129 129 129 
129 129 129 
115 115 115 
135 135 135 
185 185 185 
190 190 190 
193 193 193 
156 156 156 
180 180 180 
183 183 183 
134 134 134 
87 87 87 
88 88 88 
104 104 104 
108 108 108 
175 175 175 
180 180 180 
180 180 180 
153 153 153 
150 150 150 
155 155 155 
190 190 190 
190 190 190 
202 202 202 
224 224 224 
229 229 229 
218 218 218 
166 166 166 
162 162 162 
154 154 154 
150 150 150 
189 189 189 
216 216 216 
232 232 232 
224 224 224 
216 216 216 
206 206 206 
193 193 193 
206 206 206 
229 229 229 
239 239 239 
241 241 241 
242 242 242 
241 241 241 
242 242 242 
240 240 240 
240 240 240 
239 239 239 
239 239 239 
239 239 239 
239 239 239 
240 240 240 
239 239 239 
238 238 238 
235 235 235 
228 228 228 
222 222 222 
217 217 217 
215 215 215 
210 210 210 
191 191 191 
167 167 167 
159 159 159 
163 163 163 
153 153 153 
146 146 146 
111 111 111 
76 76 76 
78 78 78 
79 79 79 
67 67 67 
79 79 79 
84 84 84 
102 102 102 
88 88 88 
73 73 73 
68 68 68 
49 49 49 
51 51 51 
49 49 49 
53 53 53 
61 61 61 
73 73 73 
97 97 97 
99 99 99 
108 108 108 
66 66 66 
61 61 61 
50 50 50 
46 46 46 
57 57 57 
85 85 85 
114 114 114 
130 130 130 
132 132 132 
106 106 106 
101 101 101 
92 92 92 
82 82 82 
66 66 66 
52 52 52 
42 42 42 
36 36 36 
34 34 34 
37 37 37 
43 43 43 
44 44 44 
42 42 42 
40 40 40 
41 41 41 
40 40 40 
36 36 36 
107 107 107 
211 211 211 
182 182 182 
139 139 139 
131 131 131 
132 132 132 
123 123 123 
127 127 127 
135 135 135 
148 148 148 
156 156 156 
156 156 156 
140 140 140 
139 139 139 
132 132 132 
127 127 127 
135 135 135 
136 136 136 
136 136 136 
119 119 119 
167 167 167 
199 199 199 
202 202 202 
205 205 205 
205 205 205 
191 191 191 
181 181 181 
164 164 164 
165 165 165 
139 139 139 
178 178 178 
205 205 205 
174 174 174 
134 134 134 
137 137 137 
173 173 173 
193 193 193 
198 198 198 
207 207 207 
215 215 215 
233 233 233 
241 241 241 
220 220 220 
226 226 226 
229 229 229 
215 215 215 
208 208 208 
199 199 199 
186 186 186 
158 158 158 
159 159 159 
165 165 165 
154 154 154 
174 174 174 
228 228 228 
230 230 230 
234 234 234 
234 234 234 
237 237 237 
236 236 236 
238 238 238 
237 237 237 
237 237 237 
234 234 234 
236 236 236 
236 236 236 
235 235 235 
233 233 233 
230 230 230 
223 223 223 
217 217 217 
210 210 210 
210 210 210 
207 207 207 
198 198 198 
193 193 193 
165 165 165 
153 153 153 
150 150 150 
150 150 150 
154 154 154 
141 141 141 
97 97 97 
74 74 74 
62 62 62 
61 61 61 
77 77 77 
104 104 104 
85 85 85 
27 27 27 
4 4 4 
68 68 68 
69 69 69 
50 50 50 
49 49 49 
66 66 66 
84 84 84 
106 106 106 
108 108 108 
106 106 106 
78 78 78 
52 52 52 
45 45 45 
42 42 42 
93 93 93 
125 125 125 
131 131 131 
120 120 120 
95 95 95 
76 76 76 
56 56 56 
99 99 99 
90 90 90 
78 78 78 
72 72 72 
58 58 58 
46 46 46 
40 40 40 
37 37 37 
34 34 34 
31 31 31 
35 35 35 
43 43 43 
48 48 48 
52 52 52 
59 59 59 
60 60 60 
102 102 102 
201 201 201 
133 133 133 
140 140 140 
122 122 122 
134 134 134 
139 139 139 
151 151 151 
154 154 154 
158 158 158 
158 158 158 
163 163 163 
164 164 164 
154 154 154 
155 155 155 
151 151 151 
137 137 137 
129 129 129 
143 143 143 
149 149 149 
143 143 143 
133 133 133 
189 189 189 
188 188 188 
187 187 187 
192 192 192 
187 187 187 
172 172 172 
179 179 179 
179 179 179 
151 151 151 
183 183 183 
171 171 171 
140 140 140 
142 142 142 
184 184 184 
200 200 200 
206 206 206 
212 212 212 
220 220 220 
237 237 237 
239 239 239 
242 242 242 
241 241 241 
230 230 230 
216 216 216 
211 211 211 
212 212 212 
174 174 174 
162 162 162 
150 150 150 
152 152 152 
163 163 163 
181 181 181 
216 216 216 
231 231 231 
236 236 236 
236 236 236 
233 233 233 
233 233 233 
232 232 232 
230 230 230 
231 231 231 
230 230 230 
231 231 231 
230 230 230 
226 226 226 
222 222 222 
214 214 214 
213 213 213 
206 206 206 
200 200 200 
196 196 196 
191 191 191 
191 191 191 
187 187 187 
175 175 175 
164 164 164 
152 152 152 
153 153 153 
158 158 158 
161 161 161 
161 161 161 
110 110 110 
97 97 97 
91 91 91 
78 78 78 
85 85 85 
96 96 96 
24 24 24 
5 5 5 
2 2 2 
3 3 3 
95 95 95 
101 101 101 
60 60 60 
70 70 70 
78 78 78 
69 69 69 
57 57 57 
53 53 53 
90 90 90 
99 99 99 
54 54 54 
52 52 52 
54 54 54 
54 54 54 
35 35 35 
26 26 26 
24 24 24 
25 25 25 
48 48 48 
89 89 89 
79 79 79 
68 68 68 
63 63 63 
51 51 51 
41 41 41 
37 37 37 
36 36 36 
35 35 35 
31 31 31 
40 40 40 
56 56 56 
66 66 66 
72 72 72 
81 81 81 
82 82 82 
180 180 180 
139 139 139 
110 110 110 
118 118 118 
118 118 118 
116 116 116 
136 136 136 
151 151 151 
147 147 147 
139 139 139 
130 130 130 
124 124 124 
131 131 131 
128 128 128 
131 131 131 
137 137 137 
146 146 146 
128 128 128 
123 123 123 
126 126 126 
142 142 142 
133 133 133 
157 157 157 
167 167 167 
186 186 186 
197 197 197 
183 183 183 
178 178 178 
174 174 174 
158 158 158 
203 203 203 
162 162 162 
132 132 132 
164 164 164 
196 196 196 
203 203 203 
212 212 212 
214 214 214 
218 218 218 
225 225 225 
224 224 224 
224 224 224 
230 230 230 
230 230 230 
228 228 228 
226 226 226 
225 225 225 
212 212 212 
190 190 190 
191 191 191 
189 189 189 
195 195 195 
228 228 228 
238 238 238 
239 239 239 
237 237 237 
237 237 237 
232 232 232 
231 231 231 
228 228 228 
226 226 226 
226 226 226 
222 222 222 
216 216 216 
202 202 202 
203 203 203 
208 208 208 
208 208 208 
206 206 206 
201 201 201 
199 199 199 
192 192 192 
183 183 183 
182 182 182 
182 182 182 
179 179 179 
180 180 180 
178 178 178 
166 166 166 
157 157 157 
152 152 152 
141 141 141 
116 116 116 
116 116 116 
116 116 116 
102 102 102 
110 110 110 
120 120 120 
121 121 121 
58 58 58 
28 28 28 
14 14 14 
2 2 2 
99 99 99 
108 108 108 
95 95 95 
95 95 95 
94 94 94 
109 109 109 
113 113 113 
109 109 109 
113 113 113 
107 107 107 
103 103 103 
89 89 89 
94 94 94 
70 70 70 
25 25 25 
20 20 20 
24 24 24 
25 25 25 
32 32 32 
86 86 86 
73 73 73 
65 65 65 
61 61 61 
51 51 51 
42 42 42 
38 38 38 
39 39 39 
38 38 38 
45 45 45 
59 59 59 
75 75 75 
86 86 86 
95 95 95 
102 102 102 
119 119 119 
143 143 143 
107 107 107 
121 121 121 
127 127 127 
117 117 117 
125 125 125 
143 143 143 
141 141 141 
138 138 138 
136 136 136 
137 137 137 
132 132 132 
130 130 130 
135 135 135 
136 136 136 
140 140 140 
144 144 144 
143 143 143 
122 122 122 
124 124 124 
127 127 127 
121 121 121 
147 147 147 
176 176 176 
177 177 177 
188 188 188 
179 179 179 
162 162 162 
168 168 168 
186 186 186 
173 173 173 
111 111 111 
174 174 174 
220 220 220 
221 221 221 
226 226 226 
225 225 225 
212 212 212 
178 178 178 
179 179 179 
195 195 195 
206 206 206 
217 217 217 
214 214 214 
200 200 200 
198 198 198 
198 198 198 
198 198 198 
212 212 212 
230 230 230 
232 232 232 
236 236 236 
239 239 239 
238 238 238 
235 235 235 
229 229 229 
225 225 225 
223 223 223 
218 218 218 
214 214 214 
208 208 208 
203 203 203 
199 199 199 
187 187 187 
190 190 190 
199 199 199 
200 200 200 
197 197 197 
196 196 196 
180 180 180 
165 165 165 
173 173 173 
168 168 168 
177 177 177 
176 176 176 
172 172 172 
167 167 167 
159 159 159 
145 145 145 
131 131 131 
128 128 128 
118 118 118 
108 108 108 
107 107 107 
104 104 104 
113 113 113 
110 110 110 
117 117 117 
120 120 120 
120 120 120 
96 96 96 
66 66 66 
80 80 80 
128 128 128 
141 141 141 
148 148 148 
151 151 151 
150 150 150 
145 145 145 
127 127 127 
112 112 112 
99 99 99 
93 93 93 
102 102 102 
74 74 74 
65 65 65 
43 43 43 
31 31 31 
24 24 24 
21 21 21 
18 18 18 
16 16 16 
89 89 89 
79 79 79 
74 74 74 
71 71 71 
60 60 60 
53 53 53 
48 48 48 
48 48 48 
52 52 52 
61 61 61 
75 75 75 
89 89 89 
102 102 102 
110 110 110 
125 125 125 
99 99 99 
141 141 141 
101 101 101 
107 107 107 
118 118 118 
113 113 113 
118 118 118 
126 126 126 
124 124 124 
128 128 128 
140 140 140 
140 140 140 
142 142 142 
135 135 135 
124 124 124 
131 131 131 
136 136 136 
146 146 146 
153 153 153 
137 137 137 
124 124 124 
131 131 131 
125 125 125 
146 146 146 
169 169 169 
169 169 169 
174 174 174 
169 169 169 
166 166 166 
115 115 115 
117 117 117 
120 120 120 
199 199 199 
223 223 223 
221 221 221 
224 224 224 
229 229 229 
197 197 197 
156 156 156 
174 174 174 
186 186 186 
199 199 199 
203 203 203 
191 191 191 
190 190 190 
202 202 202 
203 203 203 
204 204 204 
220 220 220 
232 232 232 
234 234 234 
233 233 233 
231 231 231 
230 230 230 
226 226 226 
220 220 220 
213 213 213 
203 203 203 
195 195 195 
196 196 196 
192 192 192 
192 192 192 
191 191 191 
195 195 195 
191 191 191 
186 186 186 
187 187 187 
184 184 184 
180 180 180 
186 186 186 
185 185 185 
181 181 181 
175 175 175 
171 171 171 
165 165 165 
156 156 156 
149 149 149 
133 133 133 
117 117 117 
115 115 115 
114 114 114 
112 112 112 
116 116 116 
118 118 118 
116 116 116 
114 114 114 
114 114 114 
110 110 110 
117 117 117 
127 127 127 
129 129 129 
137 137 137 
132 132 132 
140 140 140 
140 140 140 
146 146 146 
137 137 137 
140 140 140 
132 132 132 
110 110 110 
107 107 107 
107 107 107 
90 90 90 
57 57 57 
35 35 35 
31 31 31 
29 29 29 
23 23 23 
25 25 25 
20 20 20 
19 19 19 
42 42 42 
67 67 67 
96 96 96 
91 91 91 
87 87 87 
82 82 82 
72 72 72 
70 70 70 
66 66 66 
64 64 64 
64 64 64 
69 69 69 
81 81 81 
95 95 95 
108 108 108 
117 117 117 
122 122 122 
90 90 90 
126 126 126 
109 109 109 
109 109 109 
116 116 116 
121 121 121 
124 124 124 
125 125 125 
129 129 129 
129 129 129 
131 131 131 
136 136 136 
129 129 129 
121 121 121 
121 121 121 
125 125 125 
114 114 114 
124 124 124 
134 134 134 
115 115 115 
111 111 111 
124 124 124 
126 126 126 
141 141 141 
158 158 158 
157 157 157 
161 161 161 
163 163 163 
145 145 145 
63 63 63 
67 67 67 
171 171 171 
195 195 195 
192 192 192 
186 186 186 
152 152 152 
150 150 150 
163 163 163 
178 178 178 
183 183 183 
184 184 184 
176 176 176 
167 167 167 
186 186 186 
189 189 189 
198 198 198 
214 214 214 
228 228 228 
230 230 230 
231 231 231 
223 223 223 
220 220 220 
201 201 201 
190 190 190 
173 173 173 
181 181 181 
182 182 182 
183 183 183 
190 190 190 
188 188 188 
186 186 186 
188 188 188 
185 185 185 
182 182 182 
183 183 183 
181 181 181 
182 182 182 
178 178 178 
179 179 179 
183 183 183 
178 178 178 
168 168 168 
157 157 157 
149 149 149 
139 139 139 
129 129 129 
125 125 125 
123 123 123 
126 126 126 
122 122 122 
120 120 120 
118 118 118 
119 119 119 
124 124 124 
125 125 125 
129 129 129 
130 130 130 
142 142 142 
145 145 145 
139 139 139 
130 130 130 
105 105 105 
58 58 58 
91 91 91 
110 110 110 
105 105 105 
82 82 82 
74 74 74 
91 91 91 
73 73 73 
53 53 53 
39 39 39 
32 32 32 
32 32 32 
31 31 31 
32 32 32 
28 28 28 
26 26 26 
25 25 25 
23 23 23 
20 20 20 
27 27 27 
36 36 36 
102 102 102 
102 102 102 
101 101 101 
94 94 94 
88 88 88 
85 85 85 
80 80 80 
75 75 75 
70 70 70 
72 72 72 
83 83 83 
97 97 97 
117 117 117 
144 144 144 
102 102 102 
81 81 81 
117 117 117 
102 102 102 
92 92 92 
105 105 105 
97 97 97 
95 95 95 
107 107 107 
108 108 108 
110 110 110 
113 113 113 
122 122 122 
126 126 126 
143 143 143 
134 134 134 
129 129 129 
110 110 110 
124 124 124 
139 139 139 
130 130 130 
124 124 124 
122 122 122 
126 126 126 
143 143 143 
154 154 154 
151 151 151 
150 150 150 
161 161 161 
103 103 103 
19 19 19 
2 2 2 
60 60 60 
114 114 114 
128 128 128 
135 135 135 
110 110 110 
121 121 121 
112 112 112 
132 132 132 
160 160 160 
139 139 139 
112 112 112 
158 158 158 
193 193 193 
217 217 217 
215 215 215 
219 219 219 
219 219 219 
218 218 218 
203 203 203 
189 189 189 
179 179 179 
166 166 166 
161 161 161 
172 172 172 
180 180 180 
177 177 177 
179 179 179 
186 186 186 
181 181 181 
177 177 177 
177 177 177 
173 173 173 
176 176 176 
179 179 179 
178 178 178 
177 177 177 
172 172 172 
168 168 168 
163 163 163 
155 155 155 
152 152 152 
147 147 147 
134 134 134 
132 132 132 
130 130 130 
138 138 138 
137 137 137 
137 137 137 
128 128 128 
122 122 122 
131 131 131 
137 137 137 
141 141 141 
146 146 146 
143 143 143 
141 141 141 
137 137 137 
134 134 134 
121 121 121 
94 94 94 
58 58 58 
51 51 51 
51 51 51 
45 45 45 
47 47 47 
44 44 44 
44 44 44 
44 44 44 
42 42 42 
37 37 37 
35 35 35 
36 36 36 
34 34 34 
55 55 55 
79 79 79 
97 97 97 
85 85 85 
39 39 39 
29 29 29 
25 25 25 
48 48 48 
106 106 106 
111 111 111 
112 112 112 
111 111 111 
104 104 104 
95 95 95 
92 92 92 
85 85 85 
79 79 79 
73 73 73 
72 72 72 
82 82 82 
103 103 103 
153 153 153 
125 125 125 
99 99 99 
79 79 79 
118 118 118 
114 114 114 
90 90 90 
101 101 101 
95 95 95 
81 81 81 
85 85 85 
88 88 88 
96 96 96 
118 118 118 
134 134 134 
146 146 146 
146 146 146 
151 151 151 
144 144 144 
132 132 132 
131 131 131 
135 135 135 
127 127 127 
116 116 116 
127 127 127 
108 108 108 
140 140 140 
150 150 150 
148 148 148 
131 131 131 
134 134 134 
88 88 88 
14 14 14 
2 2 2 
26 26 26 
46 46 46 
89 89 89 
97 97 97 
93 93 93 
102 102 102 
103 103 103 
102 102 102 
115 115 115 
137 137 137 
176 176 176 
196 196 196 
197 197 197 
205 205 205 
210 210 210 
202 202 202 
202 202 202 
189 189 189 
176 176 176 
171 171 171 
159 159 159 
161 161 161 
154 154 154 
176 176 176 
181 181 181 
179 179 179 
181 181 181 
174 174 174 
176 176 176 
176 176 176 
173 173 173 
172 172 172 
167 167 167 
168 168 168 
164 164 164 
162 162 162 
157 157 157 
151 151 151 
146 146 146 
143 143 143 
143 143 143 
141 141 141 
140 140 140 
142 142 142 
143 143 143 
139 139 139 
127 127 127 
123 123 123 
127 127 127 
136 136 136 
141 141 141 
141 141 141 
144 144 144 
145 145 145 
134 134 134 
134 134 134 
123 123 123 
97 97 97 
58 58 58 
48 48 48 
49 49 49 
50 50 50 
50 50 50 
50 50 50 
51 51 51 
54 54 54 
61 61 61 
52 52 52 
55 55 55 
53 53 53 
57 57 57 
53 53 53 
64 64 64 
71 71 71 
62 62 62 
40 40 40 
17 17 17 
15 15 15 
53 53 53 
8 8 8 
9 9 9 
84 84 84 
118 118 118 
118 118 118 
113 113 113 
106 106 106 
97 97 97 
91 91 91 
84 84 84 
76 76 76 
69 69 69 
69 69 69 
77 77 77 
128 128 128 
125 125 125 
97 97 97 
87 87 87 
86 86 86 
100 100 100 
125 125 125 
89 89 89 
94 94 94 
94 94 94 
80 80 80 
78 78 78 
73 73 73 
93 93 93 
100 100 100 
129 129 129 
140 140 140 
153 153 153 
151 151 151 
162 162 162 
155 155 155 
130 130 130 
127 127 127 
130 130 130 
130 130 130 
130 130 130 
113 113 113 
132 132 132 
147 147 147 
152 152 152 
135 135 135 
135 135 135 
74 74 74 
8 8 8 
3 3 3 
55 55 55 
75 75 75 
57 57 57 
81 81 81 
88 88 88 
131 131 131 
144 144 144 
143 143 143 
157 157 157 
173 173 173 
173 173 173 
183 183 183 
198 198 198 
203 203 203 
190 190 190 
184 184 184 
167 167 167 
165 165 165 
164 164 164 
171 171 171 
175 175 175 
170 170 170 
179 179 179 
188 188 188 
186 186 186 
175 175 175 
174 174 174 
173 173 173 
171 171 171 
167 167 167 
158 158 158 
156 156 156 
155 155 155 
154 154 154 
157 157 157 
148 148 148 
146 146 146 
139 139 139 
145 145 145 
148 148 148 
149 149 149 
146 146 146 
147 147 147 
137 137 137 
134 134 134 
141 141 141 
137 137 137 
145 145 145 
146 146 146 
149 149 149 
146 146 146 
146 146 146 
143 143 143 
128 128 128 
102 102 102 
83 83 83 
60 60 60 
42 42 42 
48 48 48 
49 49 49 
48 48 48 
47 47 47 
54 54 54 
51 51 51 
51 51 51 
58 58 58 
57 57 57 
56 56 56 
57 57 57 
52 52 52 
42 42 42 
27 27 27 
14 14 14 
6 6 6 
15 15 15 
9 9 9 
10 10 10 
14 14 14 
11 11 11 
11 11 11 
10 10 10 
18 18 18 
